queristq/extract_pos_from_ROS_moveit_msgs/dropoff/final_trajectory_catmull.csv
time,pos_joint_1,pos_joint_2,pos_joint_3,pos_joint_4,pos_joint_5,pos_joint_6,vel_joint_1,vel_joint_2,vel_joint_3,vel_joint_4,vel_joint_5,vel_joint_6,acc_joint_1,acc_joint_2,acc_joint_3,acc_joint_4,acc_joint_5,acc_joint_6
0.0,-0.9813254540720228,-0.7618697539019255,0.6474476048099194,1.068605702768445,0.2343845652006802,-2.62761817207418,5.202656361280589e-07,0.0030230654201324203,-0.018489581583874815,-0.055365635105553146,0.007723621937433256,0.05696368384267014,-1.1354261281182332e-05,-0.06597528377783046,0.4035160416360206,1.2082978632574348,-0.16856008001799733,-1.2431736281792727
0.004,-0.9813254519909602,-0.7618576616402449,0.6473736464835839,1.0683842402280228,0.23441545968842994,-2.627390317338809,4.7484859100332955e-07,0.0027591642850210985,-0.016875517417330732,-0.05053244365252341,0.007049381617361267,0.05199098932995305,-1.3676349983060554e-05,-0.07946803669452163,0.48604001025472077,1.4554095630718578,-0.203032679167367,-1.497417848710103
0.008,-0.981325450273234,-0.7618476805876453,0.6473126006705807,1.0682014432192248,0.2344409602536191,-2.62720224415954,4.1085483626357444e-07,0.0023873211265762473,-0.014601261501837048,-0.043722358600978284,0.00609936050409432,0.04498434105298932,-9.288346133895509e-06,-0.05397101167196883,0.3300958744765353,0.9884467992542223,-0.13789039659877975,-1.0169768821441383
0.012,-0.9813254487041215,-0.7618385630712323,0.6472568363915692,1.068034461359215,0.2344642545724627,-2.627030442610385,4.005418219321655e-07,0.002327396191645348,-0.01423475042151845,-0.04262486925848963,0.005946258444571029,0.043855174272799946,4.131838968191026e-06,0.02400854421172327,-0.1468403343189706,-0.43970212801336395,0.06133936683670044,0.4523934920494521
0.016,-0.9813254470688995,-0.7618290614181121,0.6471987226672086,1.067860444265157,0.23448853032117567,-2.626851402765358,4.4390954800910265e-07,0.0025793894802700335,-0.015775984176388813,-0.047239975625085195,0.0065900754387879235,0.048603488989384935,1.755202060083061e-05,0.10198810010061954,-0.6237765431127418,-1.867851055287889,0.2605691302721806,1.9217638662499814
0.02,-0.9813254451528451,-0.7618179279553902,0.6471306285181581,1.0676565415542143,0.234516975175973,-2.62664161469847,5.409579867388103e-07,0.003143300992450304,-0.019224962766420384,-0.05756767770079274,0.008030811486748474,0.0592292852027998,3.0972200498746716e-05,0.1799676559825769,-1.1007127519030435,-3.295999982562414,0.45979889370939553,3.3911342404713274
0.024,-0.9813254427412356,-0.7618039150101725,0.6470449229650772,1.0673999028435506,0.23455277681306966,-2.6263775684837354,6.916871519990764e-07,0.004019130728130649,-0.02458168619161316,-0.07360797548558451,0.010268466588463088,0.07573256291315555,4.439237866193935e-05,0.257947211866269,-1.5776489606933453,-4.724148909826531,0.6590286571466104,4.860504614685734
0.028,-0.9813254396193479,-0.7617857749095651,0.6469339750286252,1.0670676777503296,0.2345991229086807,-2.626035754195165,8.960970160343251e-07,0.005206878687380456,-0.031846154451967146,-0.09536086897940499,0.013303040743921357,0.09811332212028567,5.383763400368391e-05,0.3128300075164181,-1.9133214608328675,-5.729294487250014,0.7992485682398881,5.894662261009264
0.032,-0.9813254355724594,-0.7617622599806735,0.6467901537294615,1.0666370158917153,0.23465920113902103,-2.625592661906773,1.1223882240285477e-06,0.0065217707882619935,-0.0398882578782761,-0.11944233138358462,0.016662455134382193,0.12288986100122967,5.085942951510436e-05,0.29552479185145086,-1.8074798225041488,-5.412359812429629,0.755035517986842,5.568579726576705
0.036000000000000004,-0.9813254306402421,-0.761733600743259,0.6466148689655989,1.066112139099261,0.23473242254975576,-2.625052635307155,1.30297245215516e-06,0.007571077022192063,-0.04630599303200034,-0.13865974747884202,0.019343324887816093,0.14266195993289932,4.034497042004759e-05,0.23442926867268954,-1.4338092255272021,-4.293431846012774,0.5989427255639369,4.417355527655542
0.04,-0.9813254251486798,-0.761701691364496,0.6464197057852055,1.0655277379118846,0.23481394773812356,-2.62445136622731,1.4451479873889284e-06,0.00839720493764351,-0.05135873168249372,-0.1537897861516868,0.021453996938893688,0.158228705222474,3.583629400172317e-05,0.2082310511519747,-1.2735764773411096,-3.8136271610055004,0.5320089681210872,3.923701976479843
0.044,-0.9813254190790582,-0.7616664231037579,0.646203999112139,1.0648818208100475,0.23490405452526691,-2.6237868056653753,1.5896628041689453e-06,0.00923692543140786,-0.05649460485072921,-0.16916876476688603,0.02359939663278479,0.17405157574473806,3.6128700725557295e-05,0.20993012344108775,-1.2839682920640776,-3.8447446537928642,0.5363499234727759,3.9557176305660136
0.048,-0.9813254124313774,-0.7616277959610447,0.6459677489463996,1.0641743877937495,0.23500274291118584,-2.623058953621352,1.7341775931933867e-06,0.010076645925172212,-0.06163047801900634,-0.18454774338202973,0.025744796326675895,0.18987444626700212,3.6128695521386867e-05,0.20993012343935302,-1.283968292067547,-3.8447446537859253,0.5363499234727759,3.9557176305660136
0.052000000000000005,-0.9813254052056375,-0.7615858099363565,0.6457109552879869,1.0634054388629912,0.23511001289588032,-2.6222678100952392,1.8786923683400403e-06,0.010916366418922685,-0.06676635118726959,-0.19992672199717343,0.027890196020567,0.20569731678926617,3.612869725611034e-05,0.20993012343935302,-1.2839682920606081,-3.8447446537963335,0.5363499234723422,3.9557176305521358
0.056,-0.9813253974018384,-0.7615404650296933,0.6454336181369015,1.0625749740177721,0.23522586447935037,-2.621413375087038,2.0232071712422695e-06,0.011756086912687036,-0.0719022243554912,-0.2153057006124004,0.030035595714454633,0.2215201873114192,3.612870246028077e-05,0.20993012344108775,-1.2839682920606081,-3.844744653799803,0.5363499234719085,3.9557176305590747
0.06,-0.9813253890199801,-0.761491761241055,0.645135737493143,1.061682993258092,0.23535029766159596,-2.620495648596748,2.1677219880222864e-06,0.012595807406451387,-0.07703809752375446,-0.23068467922757185,0.03218099540834227,0.23734305783373877,3.9462228623721174e-05,0.22271444746063684,-1.364316613563718,-4.091844404655043,0.5690198538474758,4.2098006959243035
0.064,-0.9813253800600625,-0.7614396985704417,0.6448173133567114,1.0607294965839515,0.2354833124426171,-2.619514630624368,2.338905000232039e-06,0.01353780249237213,-0.08281675726400095,-0.24804045584964074,0.03458775454523444,0.25519859287881363,4.748413294508591e-05,0.25210578629558666,-1.5497200961511053,-4.664025663025234,0.644130783068568,4.798107869241619
0.068,-0.9813253703087401,-0.761383458821116,0.644473203435031,1.0596986696112949,0.23562699969795783,-2.6184540598537174,2.5475950515829737e-06,0.01461265369681608,-0.0894358582929633,-0.2679968845317737,0.03733404167289081,0.2757279207876717,5.143247806815854e-05,0.26543071984796995,-1.6343680261914766,-4.926994066518919,0.6781852735057887,5.068449079624615
0.07200000000000001,-0.9813253596793021,-0.7613227973408672,0.6441018264903677,1.0585855215076974,0.23578198477600024,-2.6173088072580666,2.750364824777307e-06,0.01566124825115589,-0.09589170147353276,-0.2874564083817921,0.04001323673328075,0.29574618551581056,4.5527687522750604e-05,0.2437962418576356,-1.4978955917219205,-4.505820913786734,0.6228973618489265,4.635405907851831
0.076,-0.9813253483058215,-0.7612581688351068,0.6437060698232427,1.0573990183442405,0.23594710559182408,-2.616088090369591,2.9118165517649786e-06,0.016563023631677165,-0.10141902302673866,-0.3040434518420676,0.04231722056768222,0.31281116805048637,3.4223200662264475e-05,0.2029485957968924,-1.2399281227454262,-3.7088304889257295,0.5185083058593422,3.815972965781622
0.08,-0.9813253363847697,-0.7611902931518137,0.6432904743061538,1.0561531738929608,0.2361205225405417,-2.6148063179136627,3.024150430075423e-06,0.01728483701753103,-0.10581112645549617,-0.31712705229319793,0.04416130318015549,0.32627396924206353,2.1943740227681197e-05,0.15795809713003983,-0.9561235916315941,-2.832969736618618,0.4035330003746874,2.9154276300139004
0.084,-0.9813253241126181,-0.7611198901389665,0.6428595808115988,1.054862001925895,0.23630039601726532,-2.6134778986156544,3.087366473586428e-06,0.017826688408717484,-0.10906801175979142,-0.32670720973501655,0.04554548457067972,0.33613458909059757,9.664288466715298e-06,0.11296759846145255,-0.6723190605142926,-1.9571089843045675,0.2885576948874306,2.0148822942531175
0.088,-0.9813253116858379,-0.761047679644544,0.6424179302120755,1.0535395162150807,0.23648488641710713,-2.612117241200938,3.1014647378091453e-06,0.01818857780522265,-0.11118967893961051,-0.33278392416763447,0.04646976473925493,0.3423930275960885,-2.615161559527124e-06,0.06797709979286526,-0.38851452940392994,-1.0812482320113337,0.17358238940234222,1.1143369584992735
0.092,-0.9813252993009002,-0.7609743815165247,0.6419700633800819,1.052199730532554,0.23667215413517936,-2.6107387543948857,3.066445181110211e-06,0.018370505207060406,-0.11217612799502286,-0.3353571955911072,0.04693414368589846,0.34504928475859176,-8.550016597497212e-06,0.03272865229352051,-0.17317906748047507,-0.4371963980911997,0.08352706850267219,0.4516782491775784
0.096,-0.9813252871542765,-0.7609007156028875,0.6415205211881153,1.0508566586503518,0.23686035956659432,-2.609356846922869,3.0330646050291676e-06,0.018450407023570814,-0.11257511147945432,-0.33628149535236407,0.04713798128727631,0.3460064535895091,9.562108049809837e-07,0.0267221758332159,-0.15650401078218246,-0.4477389660105524,0.06824897297438501,0.4611407446522553
0.1,-0.9813252750363833,-0.7608267782603362,0.6410694624882463,1.049509478569735,0.23704925798547757,-2.6079707027661696,3.074094867550059e-06,0.018584282613726133,-0.11342816008128032,-0.33893910731919163,0.04748013546969354,0.3487384107158098,1.5336520248210306e-05,0.043897078735866124,-0.28329393672067715,-0.8929519585108847,0.11220261626190484,0.9177036085633583
0.10400000000000001,-0.9813252625615175,-0.7607520413419777,0.6406130959074651,1.0481451457917983,0.23724020065035187,-2.6065669396371427,3.15575676701485e-06,0.018801583653457743,-0.11484146297321973,-0.34342511102045115,0.04803560221737155,0.35334808245801597,1.6751156017846824e-05,0.056658017898864044,-0.3598545033865752,-1.1177226893060999,0.14480047657748282,1.1490646671316607
0.108,-0.9813252497903292,-0.7606763655911085,0.6401507307844605,1.0467620776815714,0.23743354280321655,-2.6051439181065055,3.2081041156928336e-06,0.019037546756917045,-0.11630699610837292,-0.34788088883364043,0.0486385392823134,0.3579309280528631,7.653501096771542e-06,0.059304519801905986,-0.35785767861853945,-1.0569306384405897,0.151500533074507,1.0877726967992163
0.112,-0.9813252368966846,-0.7605997409679224,0.6396826399385981,1.0453620986811292,0.23762930896461038,-2.60370349221272,3.2169847757890224e-06,0.01927601981187299,-0.11770432440216805,-0.35188055612797586,0.049247606481967604,0.3620502640324097,-3.2131779875710365e-06,0.05993200766565843,-0.34080646828076044,-0.9429030087097778,0.15303306675302705,0.9718952929671509
0.116,-0.981325224054451,-0.7605221574326135,0.6392090961892432,1.0439470332325476,0.2378275236550723,-2.602247515994246,3.1823986917922653e-06,0.019517002818242313,-0.119033447854619,-0.35542411290331866,0.04986280381633762,0.3657060903966003,-1.4079853602466663e-05,0.060559495519002526,-0.32375525794298143,-0.8288753789754966,0.15456560043241446,0.8560178891212078
0.12,-0.9813252114374951,-0.7604436049453764,0.6387303723557611,1.0425187057779026,0.23802821139514108,-2.600777843489547,3.104345946969289e-06,0.01976049577602501,-0.1202943664657119,-0.35851155915977984,0.05048413128542692,0.36889840714537936,-2.494652054374491e-05,0.061186983377550797,-0.3067040476052024,-0.7148477492585625,0.15609813411223555,0.7401404852822036
0.124,-0.9813251992196834,-0.7603640734664053,0.6382467412575175,1.0410789407592693,0.2382313967053557,-2.599296328737083,2.982826527442306e-06,0.02000649868526272,-0.12148708023546062,-0.36114289489738716,0.051111588889235504,0.3716272142788579,-3.581319095447011e-05,0.06181447124130324,-0.28965283726915814,-0.6008201195346896,0.15763066779162296,0.6242630814501382
0.128,-0.9813251875748829,-0.7602835529558943,0.6377584757138774,1.0396295626187235,0.23843710410625496,-2.597804825775316,2.8178404193335282e-06,0.020255011545955437,-0.12261158916386516,-0.36331812011605735,0.0517451766277599,0.37389251179698046,-4.575687398422623e-05,0.06156264032407266,-0.26926841433135007,-0.482975553411924,0.1569235465992934,0.5043174640118053
0.132,-0.9813251766769601,-0.7602020333740377,0.6372658485442065,1.0381723957983409,0.23864535811837778,-2.5963051886427073,2.616771535568496e-06,0.0204989998078553,-0.12364122755011142,-0.36500669932468255,0.05236697726202985,0.37566175399095236,-4.919290842730906e-05,0.053989649069149936,-0.21832383375643138,-0.31650935946453407,0.13758000127475287,0.33336324843646903
0.136,-0.9813251666407106,-0.7601195609574315,0.6367693458934766,1.036709509024126,0.2388560399243512,-2.5947995317433885,2.424297151915056e-06,0.020686928738508636,-0.12435817983391662,-0.3658501949917736,0.052845816637957926,0.3765594177844722,-3.7925638324276534e-05,0.03289705996327441,-0.1161311270723997,-0.09141239995166806,0.08383647360447194,0.09991213362203766
0.14,-0.9813251572825828,-0.7600365379441296,0.6362709831055352,1.0352455942384067,0.23906812465148145,-2.5932927133004315,2.313366428974284e-06,0.020762176287561496,-0.12457027656669062,-0.3657379985242959,0.05303766905086563,0.37646105105992866,-2.0975131354017407e-05,0.013955995921410835,-0.037657385699302326,0.030852070280473765,0.03560956723979228,-0.028465106167996357
0.14400000000000002,-0.9813251481337791,-0.759953463547131,0.635772783680943,1.0337836050359317,0.23928034127675812,-2.591787843334909,2.2564961010829165e-06,0.020798576705879923,-0.12465943891951103,-0.36560337842952984,0.053130693175876265,0.37633169693512825,-1.5902694092129188e-05,0.01576924245696998,-0.05832515103179614,-0.05987914465654942,0.04025611038483215,0.06422629484498232
0.148,-0.981325139230614,-0.7598701493304826,0.6352737075941791,1.0323207672109704,0.23949317019688846,-2.5902820597249505,2.1861448762372504e-06,0.020888330227217256,-0.125036877774945,-0.3662170316815483,0.053359717933944284,0.3769748614186885,-1.98232177200941e-05,0.029888032554090116,-0.1339280419742489,-0.2537877205992245,0.0762439506807322,0.26447946456509275
0.152,-0.9813251306446201,-0.7597863569053133,0.6347724886587435,1.0308538687824793,0.23970721902022968,-2.5887720444435596,2.0979103593221637e-06,0.021037680966312644,-0.12573086325530503,-0.36763368019432363,0.05374064478132212,0.378447532651649,-2.429404420689618e-05,0.04478733698666526,-0.21306469820923934,-0.4545365357849773,0.11421947300948795,0.47185615190820096
0.156,-0.9813251224473312,-0.7597018478827521,0.6342678606881367,1.0293796977694158,0.23992309535513903,-2.5872544794637373,1.991792522582081e-06,0.021246628923110578,-0.1267413953606189,-0.3698533239678281,0.05427347371802019,0.38074971063395413,-2.876486375480436e-05,0.059686641414036234,-0.29220135444769924,-0.6552853509741996,0.15219499534041211,0.6792328392582481
0.16,-0.9813251147102799,-0.7596163838739284,0.6337585574958585,1.0278950421907367,0.24014140680997384,-2.585726046758488,1.8677914492837289e-06,0.021515174097624934,-0.12806847409088662,-0.37287596300211723,0.05495820474404542,0.383881395365715,-3.323568330271254e-05,0.07458594584661138,-0.37133801068095496,-0.856034166156483,0.1901705176709026,0.8866095266360507
0.164,-0.9813251075049996,-0.7595297264899711,0.6332433128954096,1.026396690065399,0.2403627609930914,-2.5841834283008116,1.7259070561603806e-06,0.02184331648988347,-0.12971209944606654,-0.37670159729707997,0.05579483785938741,0.38784258684704254,-3.7706511524238095e-05,0.08948525028092125,-0.45047466691941485,-1.0567829813457053,0.22814603999965835,1.093986213979159
0.168,-0.9813251009030235,-0.7594416373420093,0.63272086070029,1.02488142941236,0.24058776551284894,-2.5826233060637116,1.566139357089824e-06,0.022231056099872304,-0.13167227142624194,-0.38133022685288287,0.056783373064042686,0.39263328507754824,-4.2177331072146274e-05,0.10438455471002694,-0.5296113231613442,-1.2575317965522748,0.2661215623297151,1.3013629013083894
0.17200000000000001,-0.9813250949758847,-0.7593518780411721,0.6321899347239996,1.0233460482505758,0.24081702797760374,-2.581042362020191,1.3884884075832105e-06,0.022678392927563684,-0.1339489900313573,-0.38676185166949817,0.05792381035802513,0.39825349005750965,-4.6648148885330976e-05,0.11928385914086737,-0.6087479793945999,-1.4582806117310887,0.304097084661073,1.5087395886723143
0.176,-0.9813250897951162,-0.7592602101985888,0.6316492687800391,1.021787334599004,0.24105115599571314,-2.5794372781432515,1.1929541660071763e-06,0.023185326972999243,-0.13654225526139874,-0.3929964717467316,0.05921614974133127,0.40470320178692676,-5.007049809491182e-05,0.1386550801240477,-0.7136262860259202,-1.7313763357729162,0.3535690696267364,1.790653004478393
0.18,-0.9813250854322514,-0.7591663954253881,0.6310975966819085,1.020202076476602,0.2412907571755344,-2.577804736405896,9.87924422823916e-07,0.023787633568556066,-0.13965800031956466,-0.4006128623556815,0.06075236291503902,0.4125787140933368,-4.3700308996474924e-05,0.1620223630729306,-0.850147707899887,-2.1214894824865547,0.413637499427702,2.1924197691411407
0.184,-0.9813250818917209,-0.7590699091300404,0.6305320047774826,1.0185824317001586,0.24153717489903345,-2.576136648430505,8.433516940353769e-07,0.024481505877582688,-0.14334343692459783,-0.409968387606624,0.06252524973675289,0.4222425599400559,-2.6419250467868416e-05,0.17853675019288695,-0.9589630488807815,-2.4719471266171356,0.456560742592791,2.55236726592889
0.188,-0.9813250786854378,-0.7589705433783674,0.6299508491865117,1.016922329375749,0.2417909591734284,-2.5744267959263754,7.765704190809686e-07,0.02521592757009916,-0.1473297047106109,-0.4203884393686186,0.06440484885578135,0.4329976522207679,-1.715967125337503e-05,0.17710883696946123,-0.959665508592708,-2.5029670082145348,0.4532543778257465,2.5835932458556643
0.192,-0.9813250756791575,-0.7588681817094796,0.6293533671397977,1.0152193241852097,0.2420524136898797,-2.5726726672127387,7.060743240083767e-07,0.025898376573338378,-0.1510207609933395,-0.4299921236723403,0.06615128475935886,0.4429113059069012,-2.2747888642205005e-05,0.1539796756801215,-0.8251246574192406,-2.1204130187593706,0.3938278232682758,2.189563748818124
0.196,-0.9813250730368432,-0.7587633563657807,0.628742683098565,1.0134823923863703,0.24232016945150328,-2.57088350547912,5.945873099433285e-07,0.026447764975540133,-0.15393070196996483,-0.43735174351869355,0.06755547144192756,0.4505141622113129,-3.299561492087211e-05,0.1207145254242259,-0.6298458308882232,-1.559396904417254,0.308265518014772,1.611864403359975
0.2,-0.981325070922459,-0.7586565995896752,0.628121921524038,1.0117205102370601,0.24259285746141512,-2.569068553915048,4.421094046413998e-07,0.026864092776732185,-0.15605952764044528,-0.44246729890767833,0.06861740890347703,0.455806221133781,-4.324333599536878e-05,0.08744937517006501,-0.4345670043537364,-0.9983807900786068,0.2227032127595334,1.0341650579087647
0.20400000000000001,-0.981325069499968,-0.7585484436235669,0.6274942068774414,1.0099426539951089,0.2428691087227311,-2.56723705571005,2.486406219803783e-07,0.027147359976900653,-0.15740723800479473,-0.4453387898393224,0.06933709714400382,0.458787482674583,-5.349106053931241e-05,0.05418422491069996,-0.23928817782098433,-0.4373646757434291,0.13714090750602953,0.4564657124783711
0.20800000000000002,-0.981325068933334,-0.75843942070986,0.6268626636199996,1.0081577999183455,0.24314755423856715,-2.5653982540536515,1.4180920326900548e-08,0.027297566576017784,-0.15797383306301316,-0.44596621631362576,0.06971453616352527,0.45945794683360797,-6.373879028742646e-05,0.020919074653069636,-0.04400935128996697,0.12365143859868755,0.05157860225426039,-0.12123363297283918
0.212,-0.9813250693865206,-0.7583300630909587,0.6262304162129373,1.0063749242645998,0.2434268250120393,-2.563561392135381,-2.612697003190334e-07,0.02731471257412521,-0.15775931281511446,-0.4443495783305329,0.0697497259620379,0.4578176136108003,-7.398652003554052e-05,-0.012346075601091244,0.15126947523931566,0.6846675529408042,-0.03398370299924347,-0.6989329784309883
0.216,-0.9813250710234916,-0.758220903009267,0.6256005891174787,1.0046030032917013,0.24370555204626346,-2.561735713144765,-5.777112399574236e-07,0.027198797971209054,-0.15676367726109863,-0.44048887589009933,0.06944266653953132,0.45386648300616006,-8.423424631420762e-05,-0.04561122585872157,0.3465483017685983,1.2456836672794513,-0.1195460082536147,-1.2766323238821986
0.22,-0.9813250740082106,-0.7581124727071891,0.6249763067948485,1.002851013257479,0.24398236634435555,-2.5599304602713318,-9.351436708326943e-07,0.026949822767255438,-0.15498692640096567,-0.4343841089922973,0.06879335789600899,0.4476045550197427,-9.391052172014192e-05,-0.0781201362296674,0.5370077141089724,1.7916479851023264,-0.20315242076724901,-1.838861664021918
0.224,-0.981325078504641,-0.758005304427129,0.624360693706271,1.001127930419763,0.24425589890943153,-2.558154876704607,-1.3289954137185589e-06,0.026573836881371715,-0.15246761554822685,-0.4261556920092807,0.06781744717339333,0.4391555896939847,-0.00010397883248858264,-0.10631074938947938,0.7045231072248803,2.2792892527025153,-0.27569097244906426,-2.340851024844326
0.228,-0.9813250846401739,-0.7578998820121381,0.6237565658704627,0.9994417677214048,0.2445249059217427,-2.55641721555378,-1.7669743307413555e-06,0.026099336772139603,-0.14935074154316663,-0.41614979497067717,0.06658783011641647,0.4288777468209881,-0.0001082455652889891,-0.10915811045689172,0.7269481033644193,2.3616606922138157,-0.2830606178061412,-2.4252446803110783
0.232,-0.9813250926404357,-0.7577965097329519,0.6231658877739257,0.9977987320599975,0.24478860155036286,-2.5547238547300393,-2.1949599360304717e-06,0.02570057199771658,-0.1466520307213115,-0.4072624064715702,0.0655529622309442,0.4197536322514961,-0.00010097407111830936,-0.07838622888452218,0.5513335709552564,1.872860391478534,-0.2038987943525812,-1.9215389816876205
0.23600000000000002,-0.9813251021998534,-0.7576942774361564,0.6225833496246922,0.9961836684696322,0.24504932961959025,-2.553059186495768,-2.5747668996878303e-06,0.025472246941063426,-0.14494007297552458,-0.4011669118388489,0.06495663976159582,0.41350543496748715,-9.251984942060254e-05,-0.04904939149806553,0.38041751727196926,1.385908966606425,-0.1284381590171621,-1.4200109882470113
0.24,-0.9813251132385709,-0.7575927317574234,0.6220063671901215,0.9945893967652867,0.24530825466845563,-2.5514158112502994,-2.935118731395292e-06,0.025308176865732057,-0.14360869058313575,-0.3961751347387188,0.0645254569588069,0.40839354434552,-8.771968047771583e-05,-0.039121408761805254,0.3184590297647394,1.1963956738428316,-0.1029026287669571,-1.2251335108279249
0.244,-0.9813251256808032,-0.7574918120212305,0.6214344801000271,0.9930142673917225,0.2455655332752607,-2.5497920381410037,-3.276524343509557e-06,0.025159275670968984,-0.14239240073740667,-0.39159574644810624,0.06413341873146017,0.40370436688086375,-8.29831238446932e-05,-0.035329188624935726,0.28968589309633086,1.0932984714686482,-0.09311648490510985,-1.1194552215001985
0.248,-0.9813251394507656,-0.7573914575520556,0.6208672279842222,0.9914566307937018,0.2458213220183073,-2.5481861763152525,-3.5989837221528376e-06,0.02502554335673257,-0.1412912034383651,-0.3874287469669696,0.06378052507956603,0.3994379025735184,-7.824656721167056e-05,-0.03153696849327037,0.2609127564244529,0.9902012691014039,-0.08333034104196155,-1.0137769321724721
0.252,-0.981325154472673,-0.7572916076743766,0.6203041504725202,0.9899148374159867,0.24607577747589723,-2.5465965349204156,-3.9024968812029215e-06,0.02490697992302282,-0.14030509868601104,-0.383674136295295,0.06346677600312448,0.395594151423484,-7.351001578281835e-05,-0.02774474835640084,0.23213961975604436,0.8871040667324248,-0.07354419717837957,-0.9080986428447457
0.256,-0.9813251706707407,-0.7571922017126714,0.6197447871947341,0.9883872377033395,0.2463290562263323,-2.5450214231038646,-4.187063848415384e-06,0.024803585369881365,-0.13943408648031674,-0.3803319144331102,0.06319217150213899,0.39217311343076044,-6.877346435396614e-05,-0.023952528216061864,0.20336648309110528,0.7840068643582415,-0.06375805331566495,-0.8024203535170193
0.26,-0.9813251879691838,-0.7570931789914176,0.6191886777806777,0.9868721821005219,0.24658131484791435,-2.5434591500129695,-4.452684596034651e-06,0.024715359697294326,-0.1386781668212822,-0.3774020813804291,0.06295671157659916,0.3891747885953478,-6.40369077209435e-05,-0.020160308079192335,0.17459334642269675,0.680909661985793,-0.05397190945468505,-0.6967420641962319
0.264,-0.9813252062922174,-0.7569944788350931,0.6186353618601639,0.985368021052296,0.2468327099189451,-2.541908024795102,-4.699359110182932e-06,0.024642302905247826,-0.13803733970893517,-0.37488463713722386,0.06276039622650151,0.3865991769171906,-5.9300351087920866e-05,-0.01636808794405753,0.14582020975428822,0.5778124596150791,-0.044185765592837795,-0.5910637748685055
0.268,-0.9813252255640567,-0.7568960405681756,0.6180843790630062,0.9838731050034241,0.24708339801772636,-2.540366356597632,-4.9270874047380175e-06,0.024584414993741865,-0.1375116051432479,-0.37277958170350844,0.06260322545185645,0.3844462783963998,-5.4244511660250794e-05,-0.012545340825204088,0.11665895017186345,0.47292426281000943,-0.034306759486187055,-0.4835584405671334
0.272,-0.9813252457089167,-0.7567978035151431,0.6175352690190179,0.982385784398668,0.24733353572255995,-2.5388324545679306,-5.133315203464939e-06,0.024541940178646193,-0.13710406810756026,-0.3711012430347438,0.06248594215061201,0.3827307093926535,-5.698375799001454e-05,-0.009315622171227056,0.09849807849904302,0.42359928856955387,-0.026228058596505788,-0.4326792670331092
0.276,-0.9813252666305783,-0.7566997050467464,0.6169875465181457,0.9809042950591461,0.24758328555493125,-2.5373045109224908,-5.382957468658134e-06,0.02450989001637205,-0.13672362051525555,-0.369390787394952,0.06239340098308441,0.3809848442601349,-7.860036753404298e-05,-0.00839536430825849,0.11283573918621781,0.5278918817561151,-0.02471339181128046,-0.5385097488139201
0.28,-0.9813252887725764,-0.7566017243950122,0.6164414800548959,0.9794306580995084,0.24783268293042462,-2.5357845758138495,-5.762118143737283e-06,0.024474777264180125,-0.13620138219407052,-0.36687810798069487,0.06228823501612177,0.37842263140214216,-0.00010580788675773611,-0.010916416321241074,0.15438021367872312,0.7324029283051203,-0.032131861258093836,-0.7470115499091934
0.28400000000000003,-0.9813253127275234,-0.756503906828633,0.6158979354605931,0.9779692701953006,0.24808159143506023,-2.5342771298712736,-6.229420562720023e-06,0.02442255868580212,-0.13548857880582577,-0.36353156396851105,0.062136346093019657,0.37500875186086136,-0.00011374791733520517,-0.015789967179255515,0.19172998055178025,0.8673060136171057,-0.04482266308765068,-0.8852616465299112
0.28800000000000003,-0.9813253386079409,-0.7564063439255257,0.6153575714244492,0.9765224055877603,0.24832977369916878,-2.5327845057989626,-6.672101482418924e-06,0.02434845752674608,-0.13466754234965628,-0.359939659871758,0.06192965371142056,0.3713405382299029,-0.0001009985550054493,-0.021134125026411876,0.21173334316393344,0.888246006655255,-0.05795615786027483,-0.9077399239082462
0.292,-0.9813253661043353,-0.756309119168419,0.6148205951217959,0.9750897529163265,0.2485770286647516,-2.5313064055654344,-7.037409002763617e-06,0.024253485685590825,-0.1337947120605143,-0.356425595915269,0.06167269683013746,0.3677468324695954,-8.165520516689728e-05,-0.026351795544277135,0.22468180140358673,0.8687859715927199,-0.0705222827812775,-0.8891129562316191
0.296,-0.9813253949072129,-0.756212316040041,0.6142872137279651,0.9736710008204381,0.24882315527380988,-2.529842531139206,-7.325343123754102e-06,0.024137643162391864,-0.13287008793842758,-0.35298937209901626,0.06136547544917034,0.3642276345800499,-6.231185532834527e-05,-0.03156946605693822,0.23763025963803586,0.8493259365371236,-0.08308840770054546,-0.870485988554992
0.3,-0.9813254247070803,-0.7561160180231199,0.6137576344182885,0.9722658379395344,0.24906795246834496,-2.528392584488794,-7.535903845390379e-06,0.02400092995713532,-0.13189366998341,-0.349630988422972,0.061007989568533094,0.36078294456115545,-4.296850722451673e-05,-0.03678713657306876,0.2505787178742197,0.8298659014797927,-0.09565453261894605,-0.851859020878365
0.304,-0.9813254551944437,-0.7560203086003839,0.6132320643680979,0.9708739529130543,0.24931121919035815,-2.5269562675827166,-7.669091181550236e-06,0.023843346069807314,-0.13086545819543383,-0.3463504448871779,0.060600239188218774,0.357412762413023,-2.3625155651241236e-05,-0.04200480709266874,0.2635271761086688,0.8104058664189923,-0.10822065753864768,-0.8332320532017379
0.308,-0.9813254860598097,-0.7559252712545614,0.612710710752725,0.9694950343804369,0.2495527543818507,-2.52553328238949,-7.72490509060031e-06,0.02366489150039397,-0.12978545257454066,-0.3431477414916201,0.06014222430822391,0.35411708813554155,-4.281802343242269e-06,-0.047222477614003444,0.27647563434311795,0.790945831363396,-0.12078678245878299,-0.8146050855389886
0.312,-0.9813255169936844,-0.7558309894683808,0.6121937807475015,0.9681287709811214,0.24979235698482394,-2.5241233308776323,-7.703345600296174e-06,0.023465566248895287,-0.12865365312068888,-0.34002287823627075,0.05963394492854851,0.3508959217287111,4.499935146728973e-06,-0.04419888741981348,0.2512173985416005,0.6944287667641491,-0.11271820623236228,-0.7158085024439043
0.316,-0.9813255476865745,-0.7557375467245703,0.6116814815277595,0.9667748513545468,0.2500298259412791,-2.52272611501566,-7.688905609426477e-06,0.023311300401035462,-0.12777571338620786,-0.3375923113575069,0.059240478658365014,0.3483906201159903,-1.807875897597011e-05,-0.01961275054168654,0.1293046397853742,0.4163945334628022,-0.050807366969857215,-0.4276859070159733
0.32,-0.9813255785049293,-0.7556444990651725,0.6111715750404119,0.9654280324902613,0.25026628081409086,-2.5213362059167044,-7.847975672103935e-06,0.023308664244561794,-0.1276192160024059,-0.33669172196856834,0.05922748599278965,0.3474744344725833,-5.8306302494481876e-05,0.00835230824433597,0.0035558189830087183,0.17858228507430796,0.019039639037252143,-0.1797061897276797
0.324,-0.9813256104703799,-0.7555510774106138,0.6106605277997402,0.9640813175787982,0.2505036458292214,-2.5199463195398795,-8.155356029382332e-06,0.02337811886699015,-0.1277472668343438,-0.3361636530769124,0.05939279577066303,0.3469529705981689,-6.938777850906686e-05,-6.993468651406154e-05,0.06202952052697386,0.37528421519515687,-0.002908970749178341,-0.3815551542218909
0.328,-0.9813256437477775,-0.7554574741142366,0.6101495969057371,0.962738723265646,0.25074142318025616,-2.518560582151919,-8.40307790017647e-06,0.02330810476706968,-0.1271229798381901,-0.3336894482470071,0.059204214226796226,0.3444219932388082,-4.186424470975503e-05,-0.04635966362014077,0.30487183129077056,0.9795650205233347,-0.12006176594494405,-1.0061768756577938
0.332,-0.9813256776950031,-0.7553646125724772,0.6096435439610347,0.9614118019928222,0.2509772795430358,-2.517190943593969,-8.490269987060373e-06,0.023007241558029023,-0.12530829218401762,-0.32832713291272575,0.05843230164310348,0.3389035555929065,-1.7317952627493582e-06,-0.10407194089498417,0.6024719957937325,1.7015926466121267,-0.26589452590056184,-1.7530419472930325
0.336,-0.9813257116699374,-0.7552734161817724,0.609147130568265,0.9601121062023442,0.251208881593401,-2.5158493537071758,-8.416932262278465e-06,0.02247552923990981,-0.12230320387184024,-0.32007670707411007,0.05707705801959173,0.3303976576604639,3.840065591897979e-05,-0.16178421816115396,0.9000721602966943,2.42362027269398,-0.4117272858561796,-2.4999070189282713
0.34,-0.9813257450304612,-0.755184808338558,0.60866511833006,0.9588511883362293,0.2514338960071925,-2.5145477623326853,-8.183064739708534e-06,0.021712967812739792,-0.11810771490164407,-0.3089381707311739,0.05513848335625404,0.31890429944148035,7.853310536598546e-05,-0.2194964954307932,1.1976723248031256,3.1456478987827716,-0.5575600458126647,-3.246772090577388
0.34400000000000003,-0.9813257771344553,-0.7550997124392704,0.6082022688490518,0.9576406008364948,0.251649989460251,-2.513298119311644,-7.788667419350581e-06,0.020719557276463463,-0.11272182527341523,-0.2949115238838479,0.05261657765309041,0.3044234809358448,0.00011224430412903885,-0.26499969021410996,1.4304775402228243,3.703774728030726,-0.6724603531611458,-3.8242960412882
0.34800000000000003,-0.9813258073398006,-0.7550190518803462,0.6077633437278727,0.9564918961451585,0.25185482862841724,-2.5121123744851985,-7.2851103066762235e-06,0.019592970291026912,-0.10666389457986147,-0.2793079729069281,0.049758800530964875,0.28830993111117476,0.00012090676203280193,-0.2661687956602432,1.429534778624869,3.67607590175123,-0.6751056887670942,-3.7963948599922803
0.352,-0.9813258354153378,-0.7549429686769422,0.6073489576924129,0.9554061370532394,0.25204805986449874,-2.5109916398627545,-6.821413323088166e-06,0.018590206911181517,-0.10128554704441628,-0.26550291666983805,0.04721573214295366,0.27405232205590657,9.366365322227566e-05,-0.20985758725743098,1.128577219507848,2.907329436883932,-0.5323444348731207,-3.0023430159717424
0.356,-0.9813258619111072,-0.7548703302250568,0.6069530593515173,0.9543678728117998,0.25223255448556087,-2.5099199559087513,-6.535801080898018e-06,0.017914109592967464,-0.09763527682379869,-0.25604933741185665,0.04550004505197991,0.2642911869834008,6.351787498748429e-05,-0.1616071018586268,0.8767419810498667,2.285305325590639,-0.41028654828526717,-2.359247279218324
0.36,-0.9813258877017464,-0.7547996558001985,0.6065678754778225,0.9533577423539445,0.2524120602249146,-2.5088773103668873,-6.313270323188291e-06,0.017297350096312503,-0.09427161119601735,-0.24722047406511294,0.04393343975667152,0.25517834382216,6.719476190741869e-05,-0.18562805912357427,1.0121786138388849,2.656070199351726,-0.47149754088277734,-2.7415208219624954
0.364,-0.9813259124172697,-0.7547319514242863,0.6061988864619492,0.9523901090192789,0.25258402200361424,-2.507878529158174,-5.998242985638669e-06,0.01642908511997887,-0.08953784791308761,-0.23480077581704284,0.04172806472491769,0.24235902040770085,9.031891554101001e-05,-0.24850442903977255,1.3547030276259835,3.5537789246815885,-0.6311899749958729,-3.668140885280946
0.368,-0.9813259356876903,-0.7546682231192386,0.6058515726945178,0.9514793361474082,0.2527458847427139,-2.5069384382036257,-5.590718998860211e-06,0.015309314663994322,-0.08343398697500948,-0.21879024266766023,0.03888391995670454,0.2258332167399124,0.00011344307437877177,-0.3113807989629097,1.697227441414817,4.451487650013186,-0.7908824091063665,-4.594760948592458
0.372,-0.9813259571430217,-0.7546094769069743,0.6055314145661491,0.9506397870779376,0.2528950933632679,-2.5060718634242547,-5.090698390608495e-06,0.013938038728275592,-0.07596002838176907,-0.19918887461693735,0.03540100545206676,0.2056009328189612,0.00013656722974708657,-0.3742571688877816,2.0397518552019154,5.349196375346518,-0.950574843214258,-5.521381011897031
0.376,-0.9813259764132775,-0.7545567188094124,0.6052438924674637,0.9498858251504727,0.25302909278633046,-2.505293630741074,-4.498181160883519e-06,0.01231525731289207,-0.06711597213339415,-0.17599667166488808,0.031279321210990474,0.18166216864473617,0.0001564678196036562,-0.42832400916521796,2.334271093525769,6.121040171959066,-1.0878923271178884,-6.318083946875441
0.38,-0.981325993128471,-0.7545109548484712,0.604994486789082,0.9492318137046185,0.2531453279329558,-2.504618566075097,-3.838955833779245e-06,0.010511446654953849,-0.05728585963356292,-0.15022055324126482,0.02669786683512365,0.15505626124395766,0.00016548032388818967,-0.4526929049727263,2.466978055615243,6.468692427765224,-1.149782092829503,-6.676936802257893
0.384,-0.9813260071249241,-0.7544726272361728,0.6047856055903952,0.9486840607245426,0.25324267572101145,-2.5040531806511224,-3.1743385697780013e-06,0.008693714073110259,-0.04738014768847221,-0.12424713224276629,0.02208106446835445,0.12824667422667302,0.00013996607345356793,-0.3828620739818045,2.086419809317619,5.470788874407245,-0.9724202327488981,-5.646909103665387
0.388,-0.9813260185231796,-0.7544414051358863,0.6046154456075742,0.9482378366466764,0.25332197644870263,-2.5035925926812834,-2.7192272461507017e-06,0.007448550063099413,-0.04059450115902197,-0.10645424224600686,0.018918504973132466,0.10988098841463456,8.855226274473438e-05,-0.24237287754406978,1.320867150921348,3.4636032778274233,-0.6155979388570987,-3.5751019821159136
0.392,-0.9813260288787421,-0.754413038835668,0.604460849581123,0.9478324267865745,0.2533940237607965,-2.5031741327438053,-2.4659204678201263e-06,0.006754731052757701,-0.03681321048110142,-0.0965383060201469,0.01715628095749766,0.09964585836974571,6.134694315040878e-05,-0.1680376707884068,0.9158015518897361,2.401575023278091,-0.42679729135228217,-2.4788815130363795
0.396,-0.9813260382505433,-0.7543873672874642,0.6043209399237254,0.9474655301985152,0.2534592266963626,-2.5027954258143255,-2.2284517009474314e-06,0.006104248696792158,-0.03326808874390408,-0.08724164205978213,0.015504126642314209,0.09004993631034353,5.7249297316652736e-05,-0.15681917708149085,0.8546628027534392,2.2412524775215767,-0.3983036246041696,-2.3133980297865286
0.4,-0.9813260467063557,-0.7543642048460937,0.6041947048711718,0.9471344936500963,0.253518056773935,-2.5024537332533225,-2.0079260892869044e-06,0.005500177636105774,-0.029975908059073908,-0.07860828619997429,0.013969851960664303,0.08113867413145348,5.301350851361075e-05,-0.14521635326343596,0.7914275396599113,2.075425452378876,-0.36883371622251776,-2.1422330596931882
0.404,-0.981326054313952,-0.7543433658663754,0.6040811326592528,0.9468366639089154,0.25357098551204793,-2.502146316421274,-1.8043436328385454e-06,0.004942517870684671,-0.026936668426624788,-0.07063823844075112,0.012553456912534067,0.07291207183279802,4.8777716241121816e-05,-0.13361352945231997,0.7281922765663834,1.9095984272431143,-0.339363807843468,-1.97106808964842
0.40800000000000003,-0.9813260611411048,-0.7543246647031282,0.6039792115237588,0.9465693877425703,0.2536184844292353,-2.50187043667866,-1.6177043593579299e-06,0.004431269400487214,-0.02415036984654284,-0.06333149878202937,0.01125494149791656,0.06537012941426612,4.454191876446245e-05,-0.12201070564467342,0.6649570134728555,1.743771402116026,-0.3098938994644182,-1.7999031195758963
0.41200000000000003,-0.9813260672555869,-0.7543079157111715,0.6038879297004804,0.9463300119186592,0.25366102504403126,-2.5016233553859597,-1.4480082827228458e-06,0.003966432225527283,-0.021617012318841944,-0.05668806722382291,0.010074305716818721,0.05851284687619085,4.030612822669699e-05,-0.11040788182661854,0.6017217503758582,1.57794437697506,-0.28042399108450106,-1.628738149482556
0.41600000000000004,-0.981326072725171,-0.754292933245324,0.603806275425208,0.9461158832047797,0.25369907887496984,-2.5014023339036506,-1.295255333544354e-06,0.003548006345874266,-0.019336595843535975,-0.05070794376622889,0.009011549569240551,0.05234022421840567,3.607033768893153e-05,-0.09880505800682893,0.5384864872823303,1.4121173518306245,-0.2509540827045839,-1.4575731794377877
0.42,-0.9813260776176296,-0.7542795316604045,0.6037332369337322,0.9459243483685293,0.2537331174405852,-2.5012046335922125,-1.1594455812113935e-06,0.003175991761472652,-0.0173091204205833,-0.04539112840917792,0.00806667305518205,0.04685226144068855,3.1834540212272167e-05,-0.08720223419744766,0.47525122419227184,1.246290326698332,-0.22148417432466677,-1.2864082093791418
0.424,-0.9813260820007357,-0.7542675253112322,0.6036678024618434,0.9457527541775063,0.2537636122594113,-2.501027515812125,-1.0405790118461766e-06,0.002850388472294685,-0.0155345860499978,-0.040737621152642234,0.007239676174643217,0.04204895854337254,2.7598749674506706e-05,-0.07559941038633167,0.41201596109874394,1.080463301569509,-0.19201426594388227,-1.1152432392788625
0.428,-0.9813260859422617,-0.7542567285526262,0.6036089602453322,0.9455984473993082,0.25379103484998233,-2.5008682419238655,-9.386555838153399e-07,0.0025711964783819985,-0.01401299273179335,-0.03674742199662184,0.006530558927630992,0.03793031552645765,2.3362959136741246e-05,-0.06399658656654206,0.3487806980017466,0.9146362764320126,-0.1625443575622304,-0.9440782692063387
0.432,-0.9813260895099803,-0.7542469557394051,0.603555698519989,0.9454587748015333,0.25381585673083235,-2.5007240732879135,-8.536753387522467e-07,0.0023384157797623484,-0.012744340465983828,-0.03342053094118613,0.005939321314145374,0.03449633238972183,1.9127163394805358e-05,-0.052393762750221895,0.28554543490995343,0.7488092512910466,-0.13307444918318062,-0.7729132991546317
0.436,-0.9813260927716644,-0.7542380212263881,0.6035070055216043,0.9453310831517787,0.2538385494204955,-2.5005922712647477,-7.85638276656897e-07,0.0021520463763802233,-0.011728629252513723,-0.03075694798629347,0.005465963334165547,0.031747009133220594,1.6521348525366797e-05,-0.04525582691580765,0.24664376252654663,0.6467942000529248,-0.1149448698185146,-0.667614400026717
0.44,-0.9813260957950866,-0.7542297393683941,0.6034618694859689,0.9452127192176429,0.25385958443750567,-2.5004700972148477,-7.215045505493123e-07,0.001976369164435887,-0.010771190365771455,-0.028246177340762735,0.005019762355597257,0.029155417189508093,1.7925057271828138e-05,-0.0491009022746125,0.26759938123906146,0.7017478405001165,-0.12471094231174956,-0.724336989200991
0.444,-0.9813260985437008,-0.7542222102730726,0.6034208359986781,0.9451051137330526,0.2538787075193403,-2.5003590279272316,-6.422378184822719e-07,0.0017592391581833233,-0.009587834202601231,-0.025142965262292538,0.00446827579567155,0.025952313219612666,2.158081005565471e-05,-0.059114871579432626,0.3221754046218994,0.8448670299893157,-0.1501453333460287,-0.8720631621064734
0.448,-0.9813261009329891,-0.7542156654551286,0.6033851668123481,0.9450115754955446,0.25389533064387104,-2.500262478709091,-5.488580701040746e-07,0.0015034501918004262,-0.00819378712879626,-0.02148724110084821,0.0038185996888290274,0.022178911892656306,2.3312296537625343e-05,-0.06385782639652116,0.348024456585036,0.9126531224264156,-0.16219192184620257,-0.9420312778243844
0.452,-0.9813261029345653,-0.7542101826715382,0.6033552857016478,0.9449332158042458,0.2539092563168509,-2.5001815966320904,-4.5573944618126916e-07,0.001248376547011154,-0.006803638549920943,-0.017841740282881213,0.0031707404209019296,0.01841606299701759,2.2327299731284e-05,-0.061159675303346095,0.33331956258812745,0.8740912709071652,-0.15533891202946376,-0.9022281265633203
0.456,-0.9813261045789047,-0.7542056784427525,0.6033307377039487,0.9448688415732815,0.25392069656723826,-2.5001151502051147,-3.702396722538026e-07,0.0010141727893736574,-0.00552723062809124,-0.014494510933590887,0.0025758883925933174,0.014961086880149743,2.042258029355537e-05,-0.05594220351713697,0.30488439832498937,0.7995234037345283,-0.14208710212484238,-0.82525993189142
0.46,-0.9813261058964827,-0.7542020692892232,0.603311067856623,0.9448172597167771,0.25392986342399165,-2.500061907937049,-2.923588038328262e-07,0.0008008389188740583,-0.004364563363321028,-0.011445553053004986,0.0020340436039031906,0.01181398354188623,1.8517857386379788e-05,-0.050724731732662565,0.27644923405838184,0.7249555365549526,-0.12883529222282308,-0.7482917372264586
0.464,-0.9813261069177751,-0.7541992717314016,0.6032958211970422,0.9447772771488575,0.2539369689160695,-2.5000206383367796,-2.220968131627643e-07,0.0006083749355123569,-0.003315636755624185,-0.008694866641151267,0.0015452060548107327,0.008974752982338075,1.6613139683374634e-05,-0.045507259944718714,0.24801406979524376,0.6503876693823157,-0.11558348232340587,-0.6713235425476194
0.468,-0.9813261076732572,-0.7541972022897391,0.603284542762578,0.9447477007836479,0.25394222507243014,-2.4999901099131905,-1.5945368636582913e-07,0.0004367808393163086,-0.002380450804959078,-0.006242451697946461,0.0011093757453159436,0.006443395201505275,1.4708420245646003e-05,-0.040289788156774864,0.21957890553730985,0.5758198022200872,-0.10233167242138658,-0.5943553478757191
0.47200000000000003,-0.9813261081934046,-0.754195777484687,0.6032767775906025,0.9447273375352739,0.253945843922032,-2.4999690911751675,-1.0442945119759628e-07,0.000286056630258158,-0.0015590055113257062,-0.004088308223390569,0.0007265526754396401,0.004219910199332322,1.2803697338470421e-05,-0.035072316374035184,0.1911437412759065,0.5012519350474504,-0.0890798625167652,-0.5173871532038188
0.47600000000000003,-0.9813261085086928,-0.754194913836697,0.6032720707184874,0.9447149943178608,0.25394803749383366,-2.499956350631596,-5.702410765806576e-08,0.00015620230832402715,-0.0008513008747518258,-0.0022324362175668577,0.00039673684518182206,0.002304297975874725,1.0898977900741791e-05,-0.029854844587826057,0.16270857700929897,0.42668406787134405,-0.07582805261734799,-0.4404189585388574
0.48,-0.9813261086495975,-0.7541945278662204,0.6032699671836045,0.9447094780455334,0.25394901781679347,-2.4999506567913605,-1.7237627991661952e-08,4.7217873555549517e-05,-0.0002573368952513144,-0.0006748356804198163,0.0001199282545008562,0.0006965585310214628,8.994260197736637e-06,-0.024637372799882207,0.1342734127461609,0.35211620070217664,-0.06257624271879814,-0.36345076386695707
0.484,-0.9813261086465939,-0.7541945360937086,0.6032700120233254,0.9447095956324174,0.25394899691986966,-2.4999507781633477,1.4929973923827333e-08,-4.0896674075030504e-05,0.00022288642721746132,0.0005844933880505554,-0.00010387309656856303,-0.0006033081350609315,7.089540760008006e-06,-0.019419901017142527,0.10583824848649226,0.27754833352780506,-0.049324432814176755,-0.2864825691742401
0.488,-0.9813261085301577,-0.754194855039613,0.6032717502750222,0.9447141539926378,0.2539481868320209,-2.499955483256441,3.94786980884021e-08,-0.0001081413345815907,0.0005893690926406236,0.0015455509878026241,-0.00027466720801255784,-0.0015953020223724579,5.1848195875559e-06,-0.014202429232668123,0.07740308422161946,0.2029804663551682,-0.03607262291215746,-0.20951437450927868
0.492,-0.9813261083307643,-0.7541954012243852,0.6032747269760665,0.9447219600403198,0.25394679958220556,-2.4999635405795266,5.640853062427453e-08,-0.0001545161079363755,0.000842111100990417,0.002208337118891901,-0.0003924540798658227,-0.002279423131135161,3.2800966803803178e-06,-0.008984957444724273,0.048967919958481376,0.1284125991877355,-0.022820813011872887,-0.13254617985125616
0.496,-0.9813261080788894,-0.7541960911684765,0.6032784871638301,0.9447318206895889,0.253945047199382,-2.49997371864149,6.571947153144464e-08,-0.00018002099413938488,0.0009811124523084747,0.002572851781304508,-0.00045723371210754093,-0.002655671461182507,1.3753789773751635e-06,-0.0037674856567804227,0.020532755698812744,0.05384473201509865,-0.00956900310898623,-0.055577985172416966
0.5,-0.9813261078050085,-0.7541968413923383,0.603282575875685,0.9447425428545703,0.2539431417125087,-2.499984785951216,6.741156244327584e-08,-0.00018465599319061887,0.001006373146580919,0.00263909497501269,-0.00046900610473771254,-0.0027240470125144967,-5.293387256299908e-07,0.0014499861294287042,-0.007902408564325336,-0.02072313515753821,0.003682806792165705,0.021390209513361125
0.504,-0.9813261075395969,-0.754197568416422,0.6032865381490028,0.944752933449389,0.2539412951505441,-2.49999551101759,6.148476172640471e-08,-0.00016842110510395525,0.000917893183793872,0.0024070667000442025,-0.0004277712577702153,-0.002484549785075618,-2.434059898082097e-06,0.006667457913903108,-0.036337572827463416,-0.09529100232844034,0.01693461669331764,0.09835840418526143
0.508,-0.9813261073131304,-0.7541981887611792,0.6032899190211554,0.9447617993881706,0.25393971954244654,-2.5000046623494967,4.7939083258619064e-08,-0.000131316329879394,0.0007156725639612116,0.0018767669563851674,-0.0003335291711911714,-0.0019371797790324052,-4.338777601087251e-06,0.011884929700112234,-0.0647727370906015,-0.1698588695010772,0.030186426594469573,0.17532659884328394
0.512,-0.9813261071560843,-0.7541986189470611,0.6032922635295145,0.9447679475850401,0.25393862691717456,-2.5000110084558225,2.6774540917706702e-08,-7.334166750305737e-05,0.00039971128706906,0.001048195744035585,-0.0001862798450144587,-0.0010819369943293466,-6.243498773539358e-06,0.01710240148632136,-0.09320790135373958,-0.24442673667371406,0.04343823649562151,0.25229479351518425
0.516,-0.9813261070989341,-0.7541987754945192,0.6032931167114519,0.9447701849541229,0.2539382293036864,-2.5000133178454513,-2.0089069296957973e-09,5.5028820111768795e-06,-2.9990646868705007e-05,-7.864693700454506e-05,1.3976720773800633e-05,8.117856908906873e-05,0.001320899618850735,0.039119464037909446,-0.14556325228162748,-0.33760218922339325,0.058396799364895946,0.3487412001054735
0.52,-0.9813261071721555,-0.754198574924005,0.6032920236043395,0.9447673184095441,0.25393873873094075,-2.5000103590272698,1.0593971491723586e-05,0.0002396140448002182,-0.0007647947311839598,-0.001652621769751561,0.00028089454990470886,0.0017079926065144413,0.006421006467846602,0.10764031315238509,-0.259373454936096,-0.4666993279767856,0.0751972859709682,0.4830366947330966
0.524,-0.9813260223471622,-0.7541968585821608,0.6032869983536024,0.9447569639799649,0.25394047646008566,-2.499999653904599,5.136604283584312e-05,0.0008666253872302576,-0.002104978286357473,-0.00381224156081883,0.0006155550085415462,0.003945472126953842,0.01342197355862218,0.19703324901851338,-0.39025679678464376,-0.5775041354277172,0.0864598206189171,0.5988393237954526
0.528,-0.9813256962438128,-0.7541916419209072,0.6032751837780487,0.9447368204770575,0.2539436631710091,-2.499978795250254,0.00011796975996070103,0.0018158800369483252,-0.00388684910546111,-0.006272654853173298,0.0009725731148560457,0.006498707196878062,0.0167788607730035,0.23723951969763235,-0.43858426357866465,-0.5928257813397897,0.08514219730811068,0.6153401382949508
0.532,-0.9813250785890825,-0.7541823315418652,0.6032559035607588,0.9447067827411395,0.2539482570450045,-2.499947664247024,0.00018559692901987113,0.0027645415448113164,-0.00561365239498679,-0.008554847811537147,0.0012966925870064316,0.008868193233313448,0.015591623207800165,0.21847339215855244,-0.39679903625355895,-0.5227069160146369,0.07411204407635485,0.5427212128872316
0.536,-0.9813242114683807,-0.7541695255885487,0.6032302745588888,0.9446683816945652,0.25395403671170513,-2.4999078497043876,0.00024270274562310235,0.0035636671742167447,-0.007061241395489581,-0.010454310181290394,0.0015654694674668845,0.010840476899975915,0.012961285090345998,0.18108942254416172,-0.32699546399783674,-0.4270242688619863,0.060276396154738954,0.44342062045094055
0.54,-0.9813231369671175,-0.7541538222044715,0.6031994136295948,0.9446231482596892,0.25396078080074425,-2.4998609404318244,0.0002892872097426391,0.00421325692516461,-0.008229616106969484,-0.011971041962433038,0.0017789037562443433,0.012415558196920973,0.010330946974626554,0.14370545292803627,-0.25719189174384927,-0.33134162170760095,0.04644074823225569,0.34412002803546615
0.544,-0.9813218971707027,-0.7541358195331473,0.603164437630033,0.9445726133588658,0.2539682679417551,-2.4998085252388123,0.0003253503214201148,0.004713310797641035,-0.009118776529440376,-0.013105043154951201,0.00193699545332493,0.013593437124259644,0.00770060886411128,0.10632148331191082,-0.1873883194915965,-0.2356589745532156,0.032605100308037704,0.24481943561305286
0.548,-0.9813205341645461,-0.7541161157180903,0.6031264634173593,0.9445183079144496,0.25397627676437085,-2.4997521929348303,0.00035089208065552935,0.005063828791659897,-0.009728722662902256,-0.013856313758858763,0.002039744558708645,0.014374113681825396,0.005070270753596007,0.06893751369925483,-0.11758474723413959,-0.1399763274022997,0.01876945238468708,0.145518843162884
0.552,-0.9813190900340575,-0.7540953089028141,0.6030866078487298,0.9444617628487949,0.25398458589822476,-2.4996935323293576,0.00036591248744888283,0.0052648109072350735,-0.010059454507313492,-0.014224853774169599,0.0020871510724024267,0.014757587869562716,0.00243993264134601,0.031553544084864105,-0.04778117497494794,-0.04429368024964908,0.004933804461336455,0.04621825073353181
0.556,-0.9813176068646465,-0.7540739972308325,0.6030459877813008,0.9444045090842562,0.25399297397295006,-2.499634132231874,0.0003704115417862974,0.00531625714433881,-0.01011097206270184,-0.014210663200855955,0.0020792149943993365,0.01474385968769365,-0.00019040547437343402,-0.005830425534730788,0.02202239727903954,0.05138896690647099,-0.00890184346201417,-0.05308234168194259
0.56,-0.9813161267417232,-0.7540527788456594,0.6030057200722282,0.9443480775431881,0.25400121961817995,-2.499575581451856,0.00036438924365389536,0.005218167502957227,-0.009883275329081176,-0.013813742038917831,0.0020159363247063133,0.014332929136107175,-0.0028207435883581544,-0.04321439515085623,0.09182596953302702,0.1470716140591216,-0.022737491385364794,-0.15238293413211146
0.5640000000000001,-0.9813146917506973,-0.7540322518908088,0.6029669215786682,0.9442939991479449,0.2540091014635477,-2.499519468798785,0.0003478455930794322,0.00497054198313196,-0.009376364306437623,-0.013034090288382982,0.0018973150633164182,0.013524796214636758,-0.005451081700608151,-0.08059836476177751,0.16162954178527977,0.2427542612083028,-0.03657313930958278,-0.25168352656840254
0.5680000000000001,-0.9813133439769786,-0.7540130145097943,0.6029307091577767,0.944243804820881,0.2540163981386865,-2.499467383082139,0.00032078059004903015,0.004573380584863007,-0.008590238994798938,-0.011871707949251409,0.001723351210229651,0.012319460923559955,-0.008081419814592872,-0.11798233437616823,0.23143311403926725,0.3384369083609534,-0.050408787232066044,-0.35098411897693804
0.5720000000000001,-0.9813121255059769,-0.7539956648461299,0.6028981996667098,0.9441990254843509,0.25402288827322955,-2.4994209131113965,0.0002831942345626892,0.004026683308122614,-0.007524899394123485,-0.010326595021495355,0.0014940447654598898,0.010716923262821254,-0.010711757926842869,-0.15536630399229368,0.3012366863001936,0.43411955551533876,-0.06424443515368194,-0.4502847114132291
0.5760000000000001,-0.9813110784231021,-0.7539808010433293,0.6028705099626237,0.944161192060709,0.25402835049681016,-2.4993816476960364,0.0002350865266342872,0.0033304501529246577,-0.006180345504397389,-0.008398751505128699,0.0012093957290001955,0.008717183232254122,-0.013342096040827589,-0.19275027361015384,0.3710402585559158,0.5298022026679894,-0.07808008307703257,-0.5495853038495202
0.58,-0.9813102448137638,-0.7539690212449065,0.6028487569026746,0.9441318354723098,0.25403256343906155,-2.4993511756455384,0.0001764574662360685,0.002484681119241383,-0.004556577325676159,-0.00608817740015144,0.0008694041008436293,0.0063202408320250925,-0.015972434156547033,-0.2301342432262793,0.44084383080643386,0.6254848498223747,-0.0919157310003832,-0.6488858962719335
0.584,-0.9813096667633722,-0.7539609235943754,0.6028340573440183,0.9441124866415078,0.2540353057296169,-2.4993310857693802,0.00010730705338191093,0.0014893762071144234,-0.002653594857945918,-0.003394872706549701,0.00047406988099713,0.003526096062078654,-0.01860277226879703,-0.2675182128389353,0.5106474030604213,0.7211674969767601,-0.10575137892460118,-0.7481864887151635
0.588,-0.9813093863573368,-0.7539571062352496,0.602827528143811,0.9441046764906574,0.25403635599810953,-2.499322966877042,2.7635288085692267e-05,0.00034453541652990083,-0.00047139810119278813,-0.0003188374243373593,2.3393069446819847e-05,0.0003347489223037847,-0.02123311037757758,-0.304902182453326,0.5804509753161435,0.816850144127676,-0.11958702684881917,-0.8474870811514545
0.592,-0.9813094456810675,-0.7539581673110431,0.6028302861592088,0.9441099359421131,0.2540354928741725,-2.499328407778002,-6.25578296387097e-05,-0.0009498412525121847,0.0019900129445832304,0.003139928446471707,-0.00048262633379342335,-0.0032538005871329823,-0.023863448489827577,-0.34228615206771673,0.6502545475736005,0.9125327912768572,-0.1334226747695677,-0.946787673566929
0.596,-0.9813098868199739,-0.7539647049652697,0.6028434482473677,0.9441297959182292,0.2540324949874392,-2.499348997281739,-0.00016327229983292835,-0.002393753800011833,0.0047306382793960156,0.006981424905877498,-0.0010439883287097218,-0.007239552466231647,-0.026493786607281744,-0.3796701216855769,0.7200581198310574,1.008215438427773,-0.14725832269291833,-1.0460882659962811
0.6,-0.9813107518594661,-0.7539773173414432,0.6028681312654439,0.9441657873413601,0.2540271409675428,-2.4993863241977317,-0.00027450812249696366,-0.0039872022259968,0.0077504779032316895,0.011205651953893891,-0.00166069291533677,-0.011622506715103231,-0.029124124721266464,-0.41705409130170235,0.7898616920867796,1.1038980855838931,-0.16109397061800368,-1.1453888584325722
0.604,-0.9813120828849539,-0.7539966025830777,0.6029054520705935,0.9442194411338604,0.2540192094441165,-2.4994419773354597,-0.00039626529760306006,-0.005730186530425452,0.011049531816090252,0.015812609590548643,-0.0023327400936537512,-0.016402663333692225,-0.031754462835251185,-0.45443806091435834,0.8596652643390323,1.1995807327417478,-0.17492961853961958,-1.2446894508619244
0.608,-0.981313921981847,-0.7540231588336866,0.6029565275199726,0.9442922882180845,0.2540084790467936,-2.499517545504401,-0.0005285438251789731,-0.007622706713311667,0.014627800017943948,0.020802297815827875,-0.0030601298636537266,-0.021580022321998626,-0.03438480094750118,-0.4918220305304838,0.9294688365912851,1.2952633798943984,-0.1887652664629702,-1.3439900432912766
0.612,-0.9813163112355553,-0.7540575842367842,0.6030224744707371,0.944385859516387,0.25399472840520726,-2.4996146175140357,-0.0006713437051830695,-0.009664762774669322,0.018485282508820533,0.02617471662970383,-0.003842862225357513,-0.027154583680022437,-0.037015139058016455,-0.5292060001466092,0.999272408848742,1.3909460270435796,-0.20260091438632083,-1.4432906357275677
0.616,-0.9813192927314884,-0.754100476935884,0.6031044097800432,0.9445016859511222,0.2539777361489907,-2.4997347821738414,-0.0008246649376431048,-0.01185635471448454,0.022621979288733884,0.03192986603217651,-0.004680937178744293,-0.03312634740781917,-0.037853245340307984,-0.5411536498911573,1.0211661300753294,1.4197961321314734,-0.20687789644997095,-1.4732512527496078
0.62,-0.9813229085550564,-0.7541524350745,0.603203450305047,0.9446412984446444,0.2539572809077773,-2.4998796282932982,-0.0009741696679055334,-0.01399399197379858,0.02665461154942317,0.03753308568675562,-0.0054978853969572805,-0.0389405937020193,-0.031522725768215465,-0.45160350035759744,0.8519872078376761,1.181772563640937,-0.17322467291570193,-1.226337865152527
0.624,-0.9813270860888317,-0.7542124288716744,0.6033176466724386,0.9448019506366162,0.25393375306581506,-2.5000463069234575,-0.0010768467437888285,-0.01546918271734532,0.029437876951435293,0.04138404654130401,-0.006066734562069909,-0.04293705032903938,-0.016290728190038184,-0.23599728640397166,0.44567656727785565,0.6130430985022001,-0.09251790182660674,-0.6363178216076126
0.628,-0.9813315233290067,-0.7542761885362388,0.6034389533206584,0.9449723708169748,0.25390874703128075,-2.5002231246959306,-0.0011044954934258389,-0.015881970265030354,0.030220024087646014,0.04243743047477322,-0.0062380286115701344,-0.0440311362748802,-0.0027963034786998575,-0.044755977800584046,0.08559728612023143,0.11039404815109399,-0.020899230635147703,-0.11482388229816509
0.632,-0.9813359220527791,-0.7543394846337946,0.6035594068651398,0.9451414500804144,0.2538838488369225,-2.5003985560136566,-0.0010992171716184274,-0.015827230539749992,0.030122655240397145,0.04226719892651276,-0.00623392840715109,-0.043855641387424704,0.00023188571895982335,-0.0016030754033252714,0.004634560030886137,-0.001308466683960785,-0.004689908789448638,0.0010940220465660566
0.636,-0.9813403170663797,-0.7544028063805568,0.6036799345625816,0.9453105084083869,0.25385887560402354,-2.50057396982703,-0.0011026404076741603,-0.015894794868256956,0.030257100567893103,0.04242696274130153,-0.0062755478818857235,-0.04402238409850767,-0.0019435037416221101,-0.032179088844952464,0.06258810371709278,0.0811903740783465,-0.01611982857786798,-0.08446537756029437
0.64,-0.9813447431760405,-0.7544666429927407,0.6038014636696829,0.9454808657823448,0.2538336444538674,-2.5007507350864446,-0.0011147652015514042,-0.016084663250509612,0.030623360070133887,0.04291672191913953,-0.006362887035774034,-0.04453136440790706,-0.00411889319526515,-0.06275510227964076,0.12054164739982998,0.16368921483718435,-0.027549748368889404,-0.17002477715327702
0.644,-0.9813492351879921,-0.7545314836865609,0.6039249214431427,0.94565384218374,0.25380797250773734,-2.500930220742293,-0.0011355915532362815,-0.016396835686494082,0.031221433747091742,0.04373647645999901,-0.006495945868836839,-0.04538258231573389,-0.006294282657581807,-0.09333111571779851,0.17849519108083245,0.2461880556029611,-0.03897966815991083,-0.25558417676707634
0.648,-0.9813538279084664,-0.7545978176782326,0.6040512351396596,0.9458307575940248,0.2537816768869167,-2.5011137957449705,-0.0011651194628120587,-0.016831312176252,0.03205132159878055,0.04488622636396322,-0.006674724381053321,-0.04657603782204367,-0.008469672119898464,-0.1239071291594257,0.23644873476877382,0.32868689637914617,-0.050409587950932255,-0.34114357638781456
0.652,-0.9813585561436946,-0.7546661341839709,0.6041813320159329,0.9460129319946518,0.2537545747126889,-2.5013028290448696,-0.0012033489301954692,-0.017388092719769488,0.03311302362524193,0.04636597163103218,-0.006899222572444297,-0.048111730926836405,-0.01064506157180678,-0.15448314259584872,0.29440227845324574,0.4111857371449229,-0.061839507743688404,-0.426702975994675
0.656,-0.9813634546999079,-0.7547369224199908,0.6043161393286616,0.946201685367073,0.25372648310633716,-2.501498689592385,-0.001250279955386513,-0.01806717731701879,0.03440653982640651,0.048175712261122605,-0.007169440443002828,-0.04998966163000107,-0.01282045103065399,-0.1850591560288023,0.35235582213598293,0.493684577902026,-0.07326942753210774,-0.5122623755807187
0.66,-0.9813685583833377,-0.754810671602507,0.6044565843345442,0.9463983376927407,0.2536972191891449,-2.5017027463379096,-0.001305912538440701,-0.018868565967999906,0.035931870202329796,0.050315448254248385,-0.007485377992701159,-0.052209829931482155,-0.014995840492970647,-0.2156351694704295,0.4103093658239243,0.5761834186643333,-0.08469934732052709,-0.5978217751945181
0.664,-0.9813739020002155,-0.7548878709477348,0.6046035942902802,0.946604208953107,0.25366660008239555,-2.501916368231837,-0.001370246679330278,-0.019792258672782226,0.03768901475299791,0.05278517961043727,-0.007847035221567045,-0.054772235831557214,-0.01717122994834841,-0.2462111829137914,0.46826290950492677,0.6586822594353142,-0.0961292671141506,-0.6833811748152563
0.668,-0.9813795203567723,-0.7549690096718893,0.6047580964525682,0.9468206191296242,0.25363444290737236,-2.502140924224562,-0.0014432823780274884,-0.020838255431310237,0.03967797347836921,0.0555849063297309,-0.008254412129614364,-0.057676879330004205,-0.01934661940719562,-0.276787196346745,0.5262164531893987,0.7411811002062951,-0.10755918690517202,-0.7689405744082389
0.672,-0.9813854482592397,-0.7550545769911853,0.6049210180781072,0.9470488882037449,0.25360056478535864,-2.502377783266477,-0.001525019634587843,-0.022006556243556186,0.041898746378513096,0.05871462841208763,-0.008707508716808421,-0.060923760426823126,-0.021522008867777553,-0.307363209783168,0.5841699968773401,0.8236799409668677,-0.11898910669445872,-0.8544999740220383
0.676,-0.981391720513849,-0.7551450621218377,0.6050932864235963,0.9472903361569209,0.2535647828376379,-2.5026283143079766,-0.0016154584489697088,-0.02329716110957558,0.04435133345338793,0.06217434585746584,-0.009206324983170033,-0.06451287912218051,-0.023697398323155316,-0.3379392232265299,0.642123540561812,0.9061787817274403,-0.13041902648548015,-0.9400593736358376
0.68,-0.9813983719268314,-0.7552409542800619,0.6052758287457343,0.9475462829706046,0.2535269141854933,-2.5028938862994545,-0.0017145988211730856,-0.024710070029368425,0.04703573470300759,0.06596405866590715,-0.009750860928692262,-0.06844423541590983,-0.02587278778373725,-0.36851523666468766,0.7000770842445492,0.9886776224966864,-0.1418489462756342,-1.0256187732288202
0.684,-0.9814054373044184,-0.7553427426820727,0.6054695723012203,0.9478180486262482,0.25348677595020835,-2.503175868191304,-0.0018224407512396068,-0.026245283002893083,0.049951950127344324,0.07008376683743933,-0.010341116553375107,-0.07271782930801107,-0.02804817724258446,-0.39909125009764124,0.7580306279255516,1.0711764632659326,-0.153278866067523,-1.1111781728426195
0.6880000000000001,-0.9814129514528414,-0.755450916544085,0.605675444346753,0.9481069531053041,0.2534441852530663,-2.5034756289339186,-0.0019389842391137613,-0.027902800030149555,0.053099979726412005,0.07453347037203462,-0.010977091857232446,-0.07733366079865078,-0.030223566699696947,-0.429667263535799,0.8159841716100236,1.153675304026505,-0.16470878585767706,-1.1967375724633578
0.6920000000000001,-0.9814209491783313,-0.7555659650823139,0.6058943721390316,0.9484143163892245,0.2533989592153505,-2.503794537477693,-0.0020642292848371824,-0.029682621111179475,0.05647982350022451,0.07931316926965137,-0.011658786840236524,-0.08229172988771793,-0.03239895616027888,-0.4602432769791609,0.8739377152962302,1.2361741447888124,-0.1761387056460964,-1.2822969720563404
0.6960000000000001,-0.98142946528712,-0.7556883775129745,0.6061272829347548,0.9487414584594613,0.2533509149583444,-2.5041339627730204,-0.0021981758883959923,-0.03158474624598284,0.06009148144878185,0.08442286353034512,-0.012386201502401217,-0.0875920365751015,-0.03457434561565664,-0.49081929041731864,0.9318912589841716,1.3186729855580586,-0.18756862543711783,-1.367856371656262
0.7000000000000001,-0.9814385345854385,-0.7558186430522817,0.6063751039906219,0.9490896992974672,0.2532998696033313,-2.504495273770294,-0.0023408240497624355,-0.033609175434518024,0.06393495357209789,0.08986255315411584,-0.013159335843733466,-0.09323458086096803,-0.03674973507276913,-0.5213953038520069,0.9898448026686435,1.4011718263238353,-0.19899854522987398,-1.4534157712700613
0.704,-0.9814481918795182,-0.7559572509164506,0.6066387625633316,0.9494603588846943,0.2532456402715945,-2.504879839419908,-0.0024921737689781454,-0.0357559086767989,0.068010239870131,0.0956322381409358,-0.01397818986424021,-0.099219362745262,-0.03892512453335106,-0.5519713172901647,1.0477983463479112,1.4836706670878774,-0.2104284650208954,-1.5389751708769217
0.708,-0.9814584719755903,-0.7561046903216961,0.6069191859095829,0.9498547572025947,0.25318804408441736,-2.505289028672256,-0.002652225046029244,-0.03802494597283934,0.07231734034288118,0.10173191849081886,-0.01484276356390063,-0.1055463822279834,-0.041100513993933,-0.5825473307317919,1.1057518900306484,1.5661695078553888,-0.2218583848101821,-1.624534570490721
0.712,-0.9814694096798864,-0.7562614504842333,0.6072173012860747,0.9502742142326208,0.2531268981630833,-2.505724210477732,-0.0028209778809296093,-0.04041628732265323,0.07685625499037618,0.10816159420377891,-0.015753056942721666,-0.11221563930918776,-0.04327590345278021,-0.6131233441699496,1.1637054337203245,1.6486683486229003,-0.23328830460120353,-1.7100939700975815
0.716,-0.9814810397986378,-0.7564280206202774,0.607534035949506,0.9507200499562249,0.2530620196288756,-2.5061867537867295,-0.0029984322736514857,-0.04292993272619894,0.08162698381264377,0.11492126527980207,-0.016709070000710258,-0.11922713398876406,-0.04545129290815797,-0.6436993576029032,1.2216589774082658,1.7311671893852076,-0.24471822439049024,-1.795653369697503
0.72,-0.9814933971380756,-0.7566048899460429,0.6078703171565758,0.9511935843548592,0.25299322560307763,-2.506678027549642,-0.003184588224194873,-0.04556588218347646,0.08662952680964231,0.12201093171886057,-0.017710802737845588,-0.1265808662667678,-0.04762668236700518,-0.6742753710427957,1.2796125210892684,1.8136660301492495,-0.25614814418151166,-1.8812127693043634
0.724,-0.9815065165044313,-0.7567925476777452,0.6082270721639831,0.9516961374099758,0.2529203332069728,-2.5071994007168636,-0.003379445732587527,-0.048324135694541304,0.09186388398135792,0.12943059352099606,-0.01875825515416235,-0.13427683614319896,-0.04980207182585239,-0.7048513844861576,1.3375660647685361,1.8961648709167611,-0.26757806397513517,-1.9667721689112239
0.728,-0.9815204327039363,-0.7569914830315992,0.6086052282284267,0.9522290291030272,0.25284315956184433,-2.5077522422387877,-0.003583004798801692,-0.05120469325936572,0.0973300553277906,0.13718025068619466,-0.01985142724964667,-0.14231504361805758,-0.0519774612846996,-0.7354273979225806,1.395519608453008,1.9786637116790684,-0.2790079837635545,-2.052331568525023
0.732,-0.9815351805428217,-0.7572021852238201,0.6090057126066054,0.9527935794154654,0.25276152178897565,-2.508337921065808,-0.003795265422865124,-0.05420755487792195,0.10302804084898198,0.1452599032144286,-0.020990319024270787,-0.15069548869139915,-0.05329084697656972,-0.7538166551732117,1.4303511833325955,2.02836297356207,-0.28582257889653295,-2.1038707473802765
0.736,-0.9815507948273192,-0.7574251434706226,0.6094294525552185,0.9533911083287426,0.25267523700965017,-2.508957806148319,-0.00400933157461425,-0.05723522650075141,0.10877286479445136,0.15340715447469122,-0.022138007880818933,-0.1591460095970998,-0.0540687472884438,-0.7706336374417588,1.4641293743650197,2.0672471192882678,-0.297026997407579,-2.1444959129104935
0.74,-0.9815672551954187,-0.7576600670358261,0.609875895524961,0.9540208366512629,0.2525844177259291,-2.509611089142585,-0.004227815401172674,-0.06037262397745602,0.11474107584390214,0.16179788016873475,-0.02336653500353142,-0.1678514559946831,-0.049932055939602704,-0.731118352670021,1.3952584940850332,1.9400837786096718,-0.29782591684252707,-2.0135597574438835
0.744,-0.9815846173505286,-0.7579081244624423,0.6103473811619697,0.9546854913700925,0.2524883047296219,-2.5103006177962763,-0.004408788022131072,-0.06308417332211158,0.11993493274713163,0.1689278247035686,-0.02452061521555915,-0.17525448765665086,-0.04008804180104242,-0.6125255264371327,1.1768724551448895,1.5983145134311483,-0.27001647322135586,-1.6601130762988747
0.748,-0.9816025254995957,-0.758164740422403,0.6108353749869381,0.9553722592488915,0.2523882528042046,-2.511013125043838,-0.004548519735581014,-0.06527282818895308,0.12415605548506126,0.17458439627618394,-0.025526666789302266,-0.1811323606050741,-0.035538978952406874,-0.5544230628398011,1.0686332927861697,1.4351115656414253,-0.25317489855958275,-1.4911513663770637
0.752,-0.9816210055084132,-0.7584303070879539,0.6113406296058502,0.956082166540302,0.2522840913953075,-2.511749676681117,-0.004693099853750327,-0.06751955782482999,0.12848399908942099,0.1804087172287,-0.02654601440403581,-0.18718369858766737,-0.03654882467681031,-0.56394571855585,1.085172180692942,1.4659471880406476,-0.25283108988014,-1.5228946339748695
0.756,-0.9816400702984257,-0.7587048968850016,0.6118632469796534,0.9568155289867211,0.25217588468897234,-2.5125105946325395,-0.004840910332995496,-0.06978439393739988,0.1328374329306048,0.18631197378050912,-0.027549315508343386,-0.19331551767687305,-0.037356414937100846,-0.5684723377273604,1.0915447399006961,1.485681087865648,-0.248819462275382,-1.5430149106279711
0.76,-0.9816597327910772,-0.7589885822394531,0.6124033290692951,0.957572662330546,0.25206369687124075,-2.513296200822532,-0.004991951173247133,-0.07206733652664887,0.13721635700862655,0.19229416593162518,-0.028536570102238867,-0.19952781787269114,-0.03816400518698304,-0.5729989568954014,1.0979172991119195,1.5054149876889134,-0.24480783467062395,-1.5631351872949506
0.764,-0.9816800059078117,-0.7592814355772148,0.6129609778357225,0.9583538823141741,0.25194759212815443,-2.514106817175521,-0.0051462223744913604,-0.07436838559256309,0.14162077132350015,0.19835529368202043,-0.029507778185708378,-0.20582059917523265,-0.03897159544033468,-0.5775255760617076,1.1042898583266125,1.5251488875121788,-0.24079620706239646,-1.5832554639549912
0.768,-0.9817009025700731,-0.7595835293241936,0.6135362952398831,0.9591595046800022,0.2518276346457551,-2.5149427656159338,-0.005303723936769811,-0.07668754113514253,0.14605067587523946,0.2044953570317226,-0.03046293975873804,-0.21219386158433107,-0.039779185698890496,-0.582052195233218,1.1106624175395707,1.5448827873406483,-0.2367845794533016,-1.603375740601154
0.772,-0.9817224356993058,-0.759894935906296,0.6141293832427244,0.9599898451704278,0.2517038886100845,-2.5158043680681956,-0.005464455860082484,-0.07902480315442884,0.15050607066381672,0.21071435598074562,-0.03140205482133479,-0.2186476051000419,-0.04058677595744631,-0.5865788144081979,1.1170349767490595,1.5646166871656486,-0.2327729518459415,-1.6234960172542556
0.776,-0.9817446182169538,-0.760215727749429,0.6147403438051936,0.9608452195278482,0.2515764182071844,-2.516691946456734,-0.005628418144429381,-0.08138017165040812,0.15498695568923193,0.2170122905290478,-0.03232512337350557,-0.2251818297223651,-0.041394366212532674,-0.5911054335779736,1.1234075359602829,1.5843505869854446,-0.22876132423858136,-1.6436162938934795
0.78,-0.9817674630444613,-0.7605459772794992,0.6153692788882382,0.9617259434946602,0.2514452876230965,-2.5176058227059745,-0.005795610789782746,-0.08375364662305262,0.15949333095149898,0.22338916067662917,-0.03323214541524344,-0.23179653545118972,-0.04220195646761904,-0.5956320527460146,1.1297800951715065,1.6040844868121795,-0.22474969663295596,-1.6637365705396423
0.784,-0.9817909831032721,-0.7608857569224134,0.6160162904528056,0.9626323328132612,0.25131056104386246,-2.5185463187403436,-0.005966033796170334,-0.08614522807237623,0.16402519645060398,0.22984496642354524,-0.03412312094656922,-0.23849172228668225,-0.04300954672444013,-0.600158671917525,1.1361526543809952,1.623818386640649,-0.22073806902819793,-1.6838568472204996
0.788,-0.9818151913148306,-0.7612351391040783,0.6166814804598431,0.9635647032260486,0.2511723026555239,-2.519513756484268,-0.006139687163578267,-0.08855491599839282,0.16858255218654694,0.23637970776975437,-0.034998049967469025,-0.24526739022895372,-0.043817136979526494,-0.6046852910890355,1.1425252135939534,1.6435522864621799,-0.21672644141910308,-1.7039771238805401
0.792,-0.9818401006005807,-0.7615941962504006,0.617364950870298,0.9645233704754193,0.2510305766441227,-2.5205084578621753,-0.0063165708920065455,-0.09098271040108852,0.1731653981593556,0.24299338471524268,-0.03585693247792204,-0.25212353927772657,-0.04462472723808231,-0.6092119102553417,1.1488977728069116,1.6632861862837105,-0.21271481380914087,-1.7240974005058862
0.796,-0.9818657238819667,-0.761963000787287,0.6180668036451179,0.9655086503037705,0.25088544719570055,-2.52153074479849,-0.006496684981482925,-0.09342861128043556,0.17777373436900223,0.24968599726002405,-0.03669976847794215,-0.2590601694330008,-0.045432317494903396,-0.6137385294251174,1.1552703320146656,1.683020086106976,-0.20870318620351547,-1.7442176771659268
0.8,-0.9818920740804326,-0.7623416251406441,0.61878714074525,0.9665208584534994,0.25073697849629917,-2.5225809392176393,-0.006680029431965773,-0.09589261863648946,0.18240756081547294,0.2564575454040985,-0.03752655796755017,-0.266077280695054,-0.046239907746520315,-0.6182651486000973,1.1616428912276238,1.7027539859354457,-0.20469155859875743,-1.7643379538329063
0.804,-0.9819191641174224,-0.7627301417363789,0.6195260641316417,0.9675603106670033,0.25058523473196015,-2.5236593630440503,-0.006866604243455088,-0.09837473246923634,0.18706687749882323,0.2633080291475076,-0.03833730094673221,-0.27317487306366406,-0.04704749799987196,-0.6227917677664035,1.1680154504423168,1.7224878857639152,-0.2006799309913973,-1.784458230479069
0.808,-0.9819470069143802,-0.763128623000398,0.6202836757652406,0.9686273226866795,0.2504302800887253,-2.5247663382021486,-0.007056409415964748,-0.10087495277862069,0.19175168441901147,0.2702374484902098,-0.039131997415481345,-0.28035294653888654,-0.04785508825842777,-0.6273183869327098,1.1743880096518056,1.7422217855837112,-0.19666830338403718,-1.8045785071321707
0.812,-0.9819756153927501,-0.7635371413586078,0.6210600776069938,0.969722210254925,0.2502721787526363,-2.5259021866163613,-0.00724944494952251,-0.10339327956469802,0.19646198157603767,0.2772458034321773,-0.03991064737380451,-0.2876115011207214,-0.04866267851524886,-0.6318450061094244,1.180760568863029,1.7619556854035072,-0.19265667577624337,-1.8246987837783335
0.8160000000000001,-0.9820050024739764,-0.7639557692369155,0.6218553716178489,0.9708452891141369,0.2501109949097349,-2.5270672302111143,-0.007445710844086739,-0.10592971282749608,0.2011977689699157,0.28433309397343787,-0.04067325082169129,-0.2949505368091132,-0.049470268770335224,-0.6363716252826696,1.1871331280725177,1.781689585231977,-0.18864504816888325,-1.8448190604314352
0.8200000000000001,-0.9820351810795028,-0.7643845790612278,0.6226696597587531,0.9719968750067125,0.24994679274606277,-2.5282617909108343,-0.007645207099685192,-0.10848425256695937,0.2059590466006178,0.2914993201140331,-0.041419807759155575,-0.3023700536041729,-0.050277859028891037,-0.6408982444507105,1.1935056872837413,1.8014234850604465,-0.18463342056282417,-1.8649393370914757
0.8240000000000001,-0.9820661641307739,-0.7648236432574512,0.6235030439906538,0.9731772836750492,0.24977963644766163,-2.5294861906399477,-0.007847933716317868,-0.11105689878310177,0.21074581446818563,0.29874448185392144,-0.042150318186193886,-0.309870051505845,-0.05108544928744685,-0.6454248636187515,1.1998782464966995,1.8211573848819773,-0.18062179295503036,-1.8850596137445774
0.8280000000000001,-0.9820979645492334,-0.7652730342514926,0.6243556262744986,0.9743868308615439,0.24960959020057322,-2.530740751322881,-0.008053890693984767,-0.11364765147590938,0.2155580725725914,0.30606857919308894,-0.04286478210279582,-0.3174505305141295,-0.05189303954079849,-0.6499514827867925,1.2062508057061883,1.8408912847052428,-0.17661016534767024,-1.905179890404618
0.8320000000000001,-0.9821305952563257,-0.7657328244692585,0.6252275085712345,0.9756258323085939,0.24943671819083926,-2.5320257948840608,-0.008263078032644255,-0.1162565106453961,0.22039582091383514,0.3134716121315634,-0.04356319950897525,-0.32511149062908196,-0.05270062979241541,-0.6544781019600376,1.2126233649191465,1.8606251845285082,-0.17259853774161116,-1.9253001670577197
0.836,-0.9821640691734945,-0.7662030863366558,0.6261187928418093,0.9768946037585964,0.24926108460450142,-2.5333416432479137,-0.00847549573232409,-0.11888347629158968,0.22525905949194458,0.320953580669317,-0.04424557040472871,-0.3328529318505913,-0.053508220052705946,-0.6590047211315481,1.2189959241321047,1.8803590843535083,-0.16858691013425103,-1.9454204436969436
0.84,-0.9821983992221843,-0.7666838922795912,0.6270295810471701,0.9781934609539484,0.24908275362760143,-2.5346886183388655,-0.008691143793065903,-0.12152854841444849,0.23014778830689198,0.32851448480639145,-0.044911894790049256,-0.3406748541786575,-0.05431581031126176,-0.6635313402978543,1.2253684833415934,1.9000929841837126,-0.1645752825268909,-1.9655407203569841
0.844,-0.982233598323839,-0.7671753147239714,0.6279599751482644,0.9795227196370475,0.24890178944618102,-2.536067042081343,-0.008910022214814184,-0.12419172701397252,0.23506200735867733,0.3361543245427867,-0.045562172664943834,-0.34857725761344716,-0.05491361427384378,-0.6655525635283072,1.2271355903977625,1.9125796280640428,-0.15999743261567792,-1.9781672662352867
0.848,-0.9822696793999028,-0.767677426095703,0.6289100771060395,0.9808826955502907,0.24871825624628188,-2.537477236399773,-0.009130452707256653,-0.12685296892267495,0.23996487303007408,0.3438151218309038,-0.04619187425097468,-0.3565001923085398,-0.05509680106770276,-0.6787115873103933,1.255264112662649,1.9400202646620983,-0.17341846897042656,-2.0069696613986276
0.852,-0.9823066419454971,-0.7681901384753528,0.629879694132505,0.9822732406116947,0.24853225445217322,-2.5389190436198112,-0.009350796623355806,-0.12962141971245567,0.24510412025997852,0.3516744866600835,-0.04694952041670725,-0.3646330149046362,-0.054068113760491476,-0.712819487562813,1.3348853548419275,1.9897171660999273,-0.2256899184816842,-2.06037241725493
0.856,-0.9823444857728897,-0.7687143974534026,0.6308709100681194,0.9836960914435714,0.24834266008294822,-2.54039430051901,-0.009562997617340585,-0.13255552482317745,0.2506439558688095,0.3597328591597032,-0.04799739359882815,-0.37298317164657924,-0.05206091681191072,-0.7409944941250135,1.405767596955945,2.015140543973337,-0.28224609861056055,-2.0889784716482396
0.86,-0.9823831459264358,-0.7692505826739382,0.6318848457794555,0.9851511034849724,0.2481482753033826,-2.541902908992984,-0.009767283957851092,-0.13554937566545577,0.2563502610356261,0.3677956110118702,-0.04920748920559173,-0.3813448426778221,-0.051241428171769354,-0.7485393475805541,1.4260476630077734,2.017323007676153,-0.3007283333094149,-2.092056194981373
0.864,-0.9824226240445525,-0.7697987924587263,0.6329217121564044,0.9866384563316664,0.2479490001693035,-2.5434450592604327,-0.00997292904271474,-0.13854383960382188,0.2620523371728717,0.37587144322111243,-0.05040322026530347,-0.3897196212064302,-0.0516997567725358,-0.7456967033928064,1.4178714678233366,2.016615773814401,-0.2922183727654438,-2.0910271720658846
0.868,-0.9824629293587775,-0.7703589333907688,0.6339812644768384,0.9881580750307413,0.24774504954126017,-2.5450206659626353,-0.010180882012031378,-0.14151494929259822,0.2676932327782128,0.3839285372023854,-0.05154523618771528,-0.39807306005434917,-0.052276727887518026,-0.7398581409953642,1.4025763348437386,2.011931216818613,-0.2787895884400274,-2.085692251907467
0.872,-0.9825040711006487,-0.7709309120530671,0.6350632580186301,0.9897098846292854,0.24753663827980177,-2.5466296437408675,-0.010391142865814884,-0.1444627047317848,0.2732729478516216,0.39196689295566134,-0.05263353697282369,-0.40640515922168996,-0.05285369899903081,-0.734019578597922,1.387281201860671,2.0072466598176213,-0.26536080411417723,-2.0803573317559887
0.876,-0.9825460585017041,-0.771514635028623,0.6361674480596514,0.9912938101743866,0.24732398124547758,-2.548271907236409,-0.010603711604023625,-0.1473871059213816,0.27879148239309814,0.39998651048092637,-0.0536681226206287,-0.4147159187083971,-0.05343067010533942,-0.7281810162022145,1.3719860688793384,2.002562102820099,-0.25193201978876073,-2.0750224115975713
0.88,-0.9825889007934809,-0.7721100089004381,0.6372935898777748,0.9929097767131329,0.24710729329883674,-2.5499473710905347,-0.0108185882266576,-0.1502881528614025,0.2842488364026563,0.40798738977822213,-0.05464899313113378,-0.42300533851447053,-0.054007641220321645,-0.7223424538065071,1.3566909358997403,1.997877545826046,-0.2385032354633443,-2.0696874914530317
0.884,-0.9826326072075173,-0.7727169402515143,0.6384414387508727,0.9945577092926123,0.2468867893004285,-2.5516559499445246,-0.011035772733786198,-0.15316584555183366,0.28964500988029607,0.41596953084753474,-0.055576148504335454,-0.43127341864002133,-0.054584612342242766,-0.7165038914107996,1.3413958029201423,1.9931929888319933,-0.22507445113706046,-2.064352571301553
0.888,-0.9826771869753512,-0.7733353356648528,0.6396107499568172,0.9962375329599131,0.24666268411080206,-2.553397558439655,-0.011255265125395542,-0.1560201839926889,0.29498000282601744,0.4239329336888781,-0.05644958874023026,-0.43952015908488296,-0.05516158345549027,-0.7106653290185616,1.3261006699422788,1.9885084318362056,-0.21164566681077662,-2.0590176511431357
0.892,-0.9827226493285205,-0.7739651017234558,0.6408012787734808,0.9979491727621234,0.24643519259050667,-2.5551721112172037,-0.01147706540143012,-0.15885116818398215,0.3002538152398343,0.4318775983022244,-0.05726931383882167,-0.4477455598491664,-0.05573855456526833,-0.7048267666228542,1.3108055369644156,1.983823874840418,-0.1982168824862275,-2.053682730998596
0.896,-0.9827690034985627,-0.7746061450103247,0.6420127804787359,0.9996925537463309,0.24620452960009148,-2.556979522918448,-0.011701173561917688,-0.16165879812567174,0.30546644712173276,0.4398035246876014,-0.05803532380012008,-0.4559496209328717,-0.05631552568372,-0.6989882042271467,1.2955104039830827,1.9791393178446304,-0.1847880981616784,-2.0483478108540565
0.9,-0.9828162587170158,-0.7752583721084612,0.6432450103504547,1.0014676009596242,0.2459709100001057,-2.5588197081846666,-0.01192758960689988,-0.16444307381779932,0.31061789847169896,0.44771071284498143,-0.058747618624115094,-0.46413234233599887,-0.05689249680217168,-0.6931496418314392,1.28021527100175,1.974454760840169,-0.17135931383539457,-2.0430128906887
0.904,-0.9828644242154179,-0.775921689600867,0.6444977236665095,1.0032742394490908,0.24573454865109856,-2.560692581657136,-0.012156313536335062,-0.16720399526032326,0.31570816928974677,0.4555991627743228,-0.05940619831080324,-0.4722937240583813,-0.05746946791021501,-0.6873110794287929,1.264920138022152,1.9697702038443814,-0.15793052950911074,-2.037677970523344
0.908,-0.9829135092253065,-0.7765960040705437,0.6457706757047726,1.0051123942618188,0.24549566041361928,-2.5625980579771337,-0.0123873453501816,-0.16994156245322967,0.3207372595758762,0.4634688744757365,-0.06001106286018798,-0.4804337661001856,-0.058046439018258345,-0.6814725170365549,1.2496250050442885,1.965085646853798,-0.14450174518412795,-2.032343050392682
0.912,-0.9829635229782193,-0.7772812221004929,0.6470636217431165,1.0069819904448967,0.24525446014821706,-2.5645360517859377,-0.012620685048481128,-0.1726557753966157,0.3257051693301011,0.47131984794915316,-0.06056221227227626,-0.4885524684615228,-0.05862341013671002,-0.6756339546477863,1.2343298720629559,1.9604010898510715,-0.13107296085914516,-2.0270081302412035
0.916,-0.9830144747056944,-0.7779772502737167,0.6483763170594135,1.008882953045412,0.24501116271544107,-2.566506477724826,-0.01285633263127528,-0.17534663409041196,0.3306118985523798,0.47915208319454505,-0.06105964654706114,-0.49664983114211525,-0.059200381255161694,-0.6697953922486094,1.2190347390781535,1.9557165328587534,-0.11764417653242765,-2.021673210075847
0.92,-0.9830663736392695,-0.7786839951732162,0.6497085169315355,1.010815207110453,0.24476598297584057,-2.5685092504350746,-0.013094288098522422,-0.17801413853460457,0.3354574472427263,0.4869655802120232,-0.06150336568453568,-0.5047258541421296,-0.0597773523684092,-0.6639568298511672,1.203739606102025,1.9510319758699046,-0.10421539220614381,-2.0163382899313076
0.924,-0.9831192290104825,-0.7794013633819935,0.6510599766373553,1.0127786776871082,0.2445191357899648,-2.570544284557963,-0.013334551450222554,-0.1806582887292213,0.340241815401196,0.4947603390015043,-0.06189336968471029,-0.5127805374615657,-0.06035432347992198,-0.6581182674571945,1.1884444731276311,1.946347418867178,-0.0907866078815947,-2.01100336977289
0.928,-0.9831730500508713,-0.78012926148305,0.6524304514547451,1.014773289822465,0.24427083601836289,-2.572611494734767,-0.013577122686361798,-0.18327908467426213,0.34496500302774735,0.5025363595629606,-0.06222965854758844,-0.5208138811003127,-0.06093129459143476,-0.6522797050597523,1.1731493401462982,1.9416628618644516,-0.07735782355617823,-2.0056684496144728
0.932,-0.9832278459919734,-0.7808675960593876,0.6538196966615772,1.0167989685636118,0.24402129852158408,-2.5747107956067654,-0.013822001806954032,-0.1858765263696993,0.3496270101223664,0.5102936418964199,-0.06251223227315972,-0.5288258850584815,-0.06150826570815171,-0.6464411426605754,1.1578542071649656,1.9369783048721334,-0.06392903923076176,-2.000333529483811
0.936,-0.9832836260653269,-0.7816162736940075,0.655227467535724,1.0188556389576364,0.2437707381601776,-2.576842101815235,-0.014069188812027011,-0.18845061381554673,0.3542278366850671,0.5180321860019377,-0.06274109086143453,-0.5368165493361832,-0.062085236826603385,-0.6406025802718068,1.1425590741853675,1.9322937478798152,-0.05050025490534529,-1.9949986093323324
0.9400000000000001,-0.9833403995024697,-0.782375200969912,0.6566535193550578,1.0209432260516274,0.2435193697946926,-2.579005328001455,-0.014318683701566859,-0.19100134701187377,0.35876748271584935,0.5257519918794584,-0.06291623431240248,-0.5447858739331402,-0.06266220793985089,-0.6347640178760994,1.1272639412023,1.9276091908805582,-0.03707147057949514,-1.9896636891530983
0.9440000000000001,-0.9833981755349395,-0.7831442844701025,0.6580976073974508,1.023061654892672,0.2432674082856784,-2.5812003888067,-0.014570486475545819,-0.19352872595855553,0.3632459482146855,0.5334530595289821,-0.0630376626260705,-0.552733858849408,-0.06323917904962895,-0.6289254554751877,1.111968808220967,1.9229246338847705,-0.02364268625451235,-1.9843287690154976
0.9480000000000001,-0.983456963394274,-0.7839234307775804,0.6595594869407753,1.0252108505278592,0.24301506849368404,-2.58342719887225,-0.01482459713396389,-0.19603275065567527,0.3676632331816171,0.5411353889505366,-0.06310537580243858,-0.5606605040852641,-0.06381615016114173,-0.6230868930846845,1.0966736752465733,1.9182400768855135,-0.010213901927794838,-1.978993848870958
0.9520000000000001,-0.9835167723120112,-0.7847125464753479,0.6610389132629038,1.0273907380042764,0.24276256527925888,-2.585685672839382,-0.015081015676834952,-0.198513421103233,0.37201933761665806,0.5487989801440663,-0.06311937384149285,-0.5685658096403756,-0.06539709312622377,-0.6390456579498383,1.1250110722588191,1.9720165858813643,-0.010845651774674808,-2.034313731878734
0.9560000000000001,-0.9835776115196887,-0.7855115381464063,0.6625356416417085,1.0296012423690117,0.2425101135029521,-2.587975725349373,-0.01534777387897368,-0.20114511591927398,0.37666332175968764,0.5569115216375875,-0.06319214101663598,-0.576935013940294,-0.06843084784761977,-0.7175758138574378,1.2847235670125634,2.1823097762323216,-0.06783770540533945,-2.2525310922269504
0.96,-0.983639554503043,-0.7863217074027021,0.6640522198369813,1.031846030177377,0.2422570281511258,-2.5903011529509046,-0.01562846245961591,-0.2042540276140925,0.38229712615275857,0.5662574583539248,-0.06366207548473557,-0.5865860583781912,-0.0718915901982975,-0.8464642973181336,1.5533422384576834,2.510973685952017,-0.17857609110882855,-2.5943032513214836
0.964,-0.9837026392193656,-0.787145570367319,0.6655940186509306,1.0341313020358431,0.2420008168990742,-2.5926684138163987,-0.01592290660056006,-0.20791683029781904,0.3890900596673491,0.5769993111252036,-0.0646207497455066,-0.5976894399508659,-0.07421593395395831,-0.9350418071589484,1.7381671914042107,2.733196335064081,-0.25543048536849283,-2.8255476313618355
0.968,-0.9837669377558474,-0.7879850420450847,0.66716494031432,1.0364620246663787,0.24174006215316174,-2.5950826684705115,-0.016222189931247577,-0.2117343620713641,0.39620246368399226,0.5881230290344375,-0.06570551936768351,-0.6091904394290859,-0.07377790539088436,-0.9332213149679247,1.7360239183174253,2.721185700275269,-0.258416444783114,-2.813387950460766
0.972,-0.9838324167388156,-0.7888394452638899,0.6687636383604025,1.0388362862681186,0.24147517274413274,-2.5975419373318314,-0.016513129843687135,-0.21538260081756244,0.4029782510138885,0.5987687967274058,-0.06668808130377152,-0.620196543554552,-0.07169205083409902,-0.8908980581364551,1.651869746630702,2.6016981462019526,-0.23286452326088877,-2.6896641123069776
0.976,-0.983899042794597,-0.7897081028516252,0.6703887663224312,1.041252175040198,0.24120655750273157,-2.600044240818948,-0.01679572633792037,-0.21886154653645573,0.40941742165703787,0.6089366142040531,-0.06756843555377062,-0.6307077523275417,-0.06960619628078313,-0.8485748013119243,1.5677155749457132,2.4822105921147584,-0.20731260173866353,-2.565940274153189
0.98,-0.983966782549519,-0.7905903376361816,0.6720389777336588,1.043707779181751,0.24093462525970258,-2.6025875993504517,-0.0170699794139334,-0.22217119922805784,0.4155199756134542,0.6186264814643239,-0.06834658211768083,-0.6407240657477775,-0.06752034171879362,-0.8062515444821894,1.4835614032572553,2.362723038031034,-0.1817606802164383,-2.442216435943889
0.984,-0.9840356026299084,-0.7914854724454496,0.6737129261273388,1.0462011868919125,0.24065978484579012,-2.60517003334493,-0.017335889071670718,-0.22531155889231325,0.4212859128830959,0.6278383985083014,-0.06902252099550213,-0.6502454838150928,-0.06543448716027356,-0.7639282876507197,1.3994072315653276,2.2432354839577173,-0.15620875869377937,-2.318492597755406
0.988,-0.9841054696620923,-0.7923928301073201,0.6754092650367236,1.0487304863698175,0.24038244509173856,-2.6077895632209724,-0.01759345531121559,-0.2282826255292636,0.42671523346597684,0.6365723653359856,-0.06959625218723106,-0.6592720065298208,-0.06334863260869239,-0.721605030826189,1.3152530598803391,2.123747929877462,-0.13065683717112045,-2.1947687595877396
0.992,-0.9841763502723981,-0.7933117334496838,0.6771266479950666,1.0512937658146004,0.24010301482829227,-2.6104442093971687,-0.017842678132540257,-0.23108439913892276,0.4318079373621386,0.6448283819473211,-0.07006777569287109,-0.6678036338917948,-0.061262778048437605,-0.679281774003393,1.2310988881970852,2.004260375800676,-0.10510491564932889,-2.0710449214061954
0.996,-0.9842482110871527,-0.7942415053004315,0.6788637285356207,1.053889113425396,0.2398219028861956,-2.613131992292107,-0.01808355753560309,-0.23371687972129074,0.4365640245715535,0.652606448342391,-0.07043709151242569,-0.6758403659010703,-0.05917692348471337,-0.6369585171753928,1.146944716510362,1.8847728217273596,-0.07955299412666997,-1.947321083238529
1.0,-0.984321018732683,-0.7951814684874541,0.680619160191639,1.0565146174013396,0.23953951809619287,-2.6158509323243773,-0.018316093520417964,-0.2361800672763259,0.4409834950942215,0.6599065645211399,-0.07070419964588445,-0.683382202557703,-0.057091068927928035,-0.5946352603439231,1.062790544820169,1.7652852676401654,-0.054001072603143685,-1.8235972450569848
1.004,-0.984394739835316,-0.7961309458386421,0.6823915964963745,1.0591683659415652,0.23925626928902852,-2.6185990499125684,-0.018540286087026514,-0.23847396180404212,0.4450663489301149,0.6667287304835123,-0.07086910009325084,-0.6904291438615262,-0.055005214374612144,-0.5523120035141882,0.9786363731334458,1.6457977135564406,-0.028449151081785806,-1.6998734068615629
1.008,-0.9844693410213792,-0.7970892601818864,0.68417969098308,1.0618484472452077,0.23897256529544686,-2.6213743654752695,-0.01875613523541486,-0.2405985633044394,0.4488125860792891,0.6730729462295915,-0.07093179285453874,-0.6969811898125955,-0.052919359817826805,-0.5099887466844533,0.8944822014501919,1.526310159483124,-0.0028972295604279275,-1.5761495686869575
1.012,-0.9845447889171993,-0.7980557343450776,0.6859820971850088,1.064552949511402,0.2386888149461922,-2.624174899431069,-0.01896364096556913,-0.24255387177751775,0.4522222065417164,0.6789392117593773,-0.07089227792973427,-0.7030383404110219,-0.05083350526104147,-0.4676654898581878,0.8103280297617338,1.4068226054028687,0.022654691962664675,-1.45242573052623
1.016,-0.9846210501491037,-0.7990296911561066,0.6877974686354137,1.0672799609392827,0.23840542707200899,-2.6269986721985576,-0.019162803277503193,-0.2443398872233049,0.45529521031738296,0.6843275270728144,-0.07075055531883742,-0.7086005956568053,-0.048747650702521406,-0.42534223303365704,0.7261738580732757,1.2873350513226134,0.048206613485323596,-1.3287018923446858
1.02,-0.9846980913434193,-0.800010453442864,0.6896244588675479,1.0700275697279844,0.2381228105036415,-2.6298437041963236,-0.0193536221711893,-0.245956609641787,0.4580315974063026,0.6892378921699582,-0.07050662502185168,-0.7136679555497794,-0.0466617961405319,-0.38301897620739156,0.6420196863865524,1.1678474972458275,0.07375853500798252,-1.2049780541562027
1.024,-0.9847758791264732,-0.8009973440332409,0.6914617214146641,1.0727938640766423,0.23784137407183417,-2.632708015842956,-0.01953609764662745,-0.24740403903296404,0.4604313678084754,0.693670307050781,-0.07016048703877356,-0.718240420090055,-0.044575941582011835,-0.34069571937939136,0.5578655147015638,1.0483599431655721,0.09931045653020776,-1.0812542159815974
1.028,-0.9848543801245924,-0.8019896857551277,0.6933079098100157,1.0755769321843907,0.23756152660733132,-2.635589627557044,-0.019710229703845394,-0.24868217539682214,0.4624945215239151,0.6976247717152828,-0.06971214136961001,-0.7223179892776321,-0.042490087028695944,-0.2983724625479217,0.4737113430148404,0.9288723890887862,0.124862378052433,-0.9575303778000532
1.032,-0.984933560964104,-0.8029868014364154,0.6951616775868554,1.0783748622503646,0.2372836769408773,-2.638486559757177,-0.019876018342857016,-0.24979101873334741,0.4642210585525941,0.7011012861634913,-0.0691615880143541,-0.7259006631124554,-0.040404232471910606,-0.2560492057181868,0.38955717132811707,0.8093848350085309,0.1504142995755256,-0.8338065396254479
1.036,-0.9850133882713352,-0.8039880139049945,0.6970216782784364,1.0811857424736986,0.2370082339032165,-2.6413968328619437,-0.02003346356362068,-0.25073056904256763,0.46561097889454006,0.7040998503953511,-0.06850882697300581,-0.7289884415946357,-0.03831837791165582,-0.21372594889365604,0.3054029996413937,0.6898972809248061,0.17596622109775084,-0.7100827014508426
1.04,-0.985093828672613,-0.804992645988756,0.6988865654180118,1.0840076610535274,0.23673560632509325,-2.644318467289934,-0.020182565366150262,-0.25150082632449666,0.46666428254972525,0.7066204644108898,-0.06775385824557209,-0.7315813247240621,-0.036232523356605206,-0.17140269206565584,0.22124882795120093,0.5704097268480202,0.2015181426195424,-0.5863588632623595
1.044,-0.9851748487942644,-0.8060000205155905,0.7007549925388342,1.0868387061889857,0.2364662030372519,-2.647249483459736,-0.02032332375047352,-0.2521017905790929,0.46738096951814967,0.7086631282101352,-0.06689668183204947,-0.7336793125007346,-0.03414666879981987,-0.12907943523592091,0.1370946562644776,0.4509221727747037,0.22707006414220132,-0.4626350250877542
1.048,-0.9852564152626168,-0.8070094603133887,0.702625613174157,1.0896769660792085,0.23620043287043685,-2.65018790178994,-0.02045573871654882,-0.25253346180638403,0.46776103979984107,0.7102278417930874,-0.06593729773243448,-0.7352824049247642,-0.03206081423783036,-0.08675617840965544,0.05294048457948897,0.3314346186979178,0.25262198566442656,-0.3389111869131489
1.052,-0.9853384947039968,-0.8080202882100416,0.704497080857233,1.0925205289233304,0.23593870465539243,-2.6531317426991343,-0.020579810264376164,-0.2527958400063701,0.4678044933947856,0.7113146051597186,-0.06487570594673406,-0.7363906019960398,-0.029974959679310298,-0.04443292158165524,-0.0312136871089691,0.21194706461072355,0.2781739071866518,-0.21518734872466583
1.056,-0.9854210537447318,-0.8090318270334397,0.7063680491213152,1.0953674829204862,0.23568142722286298,-2.6560790266059082,-0.020695538393983304,-0.25288892517903727,0.4675113303029693,0.7119234183099732,-0.06371190647494127,-0.7370039037145615,-0.027345453743402026,-0.004168786869526708,-0.10849748637714596,0.09626435723900095,0.29540099714389295,-0.09550249076284434
1.06,-0.9855040590111487,-0.8100433996114739,0.7082371714996567,1.0982159162698102,0.2354290094035929,-2.659027773928851,-0.02079857389432338,-0.25282919030132633,0.4669365135037684,0.7120847200176306,-0.06251249796958291,-0.7371546219221425,-0.02520777622402881,0.0036194368283753997,-0.11671917522076969,0.09024281741321083,0.28302655502880286,-0.08872334385928715
1.064,-0.9855874423358864,-0.8110544605558503,0.7101035412293454,1.1010641606806273,0.2351813272391063,-2.6619762635812854,-0.020897200603775534,-0.25285996968441027,0.46657757690120316,0.7126453608492789,-0.06144769403471084,-0.7377136904654358,-0.023847827775036468,-0.06442305828385786,0.03800973336770541,0.3318049948651536,0.1967208239092924,-0.3371385080899736
1.068,-0.9856712366159789,-0.8120662793689492,0.7119697921148663,1.1039170791566044,0.23493742785131522,-2.6649294834525743,-0.020989356516523672,-0.2533445747675972,0.46724059137071006,0.7147391599765518,-0.060938731378308575,-0.7398517299868623,-0.02210061330817914,-0.16151429794476757,0.2583526110908757,0.6476349628976863,0.07269998814323636,-0.6628133462568964
1.072,-0.9857553571880185,-0.8130812171539911,0.7138414659603111,1.1067820739604397,0.23469381738807985,-2.6678950774211803,-0.021074005510240967,-0.2541520840679684,0.46864439778993017,0.7178264405524604,-0.06086609412956495,-0.743016197235491,-0.02180593019693311,-0.2053621511056286,0.35593945217106404,0.7763453850617719,0.020547204025462423,-0.7959875318111487
