queristq/extract_pos_from_ROS_moveit_msgs/dropoff/final_trajectory_bspline.csv
time,pos_joint_1,pos_joint_2,pos_joint_3,pos_joint_4,pos_joint_5,pos_joint_6,vel_joint_1,vel_joint_2,vel_joint_3,vel_joint_4,vel_joint_5,vel_joint_6,acc_joint_1,acc_joint_2,acc_joint_3,acc_joint_4,acc_joint_5,acc_joint_6
0.0,-0.9813254540720229,-0.7618697539019255,0.6474476048099195,1.068605702768445,0.2343845652006802,-2.6276181720741807,1.4413492621656587e-07,0.0007813824481894827,-0.004800295264645316,-0.014437954498736083,0.0019963094939068338,0.014853233393230525,1.4506684048454233e-05,0.08707111762845665,-0.5314910663280215,-1.5883495246213353,0.22245987338527506,1.6342667836649616
0.004,-0.9813254534954832,-0.7618666283721327,0.6474284036288609,1.06854795095045,0.23439255043865584,-2.6275587591406078,2.021616624103828e-07,0.0011296669187033093,-0.0069262595299574015,-0.020791352597221424,0.002886148987447934,0.02139030052789037,2.2011411790479052e-05,0.1318710244700011,-0.8050438054050396,-2.4061256273869014,0.33691994093991773,2.475677657404196
0.008,-0.9813254524547296,-0.7618607165665758,0.6473921947336798,1.0684393719476672,0.2344076543925798,-2.6274470496699576,3.202262205403983e-07,0.0018363506439494914,-0.011240645707885633,-0.033686959517831294,0.004691669021426176,0.034658654652464094,3.0018895355587993e-05,0.1791996273384222,-1.0942109562716433,-3.271104411034509,0.4578402702229076,3.3656434948042824
0.012,-0.9813254509336734,-0.7618519375669811,0.6473384784631978,1.0682784552743074,0.23443008379082725,-2.627281489903388,4.4231282525508675e-07,0.002563263937410687,-0.01567994718013055,-0.046960187885497495,0.006548871149231195,0.04831544848632463,3.102440179758581e-05,0.1842570193817672,-1.1254397798317328,-3.365509772777775,0.47076079368393864,3.462753422042719
0.016,-0.981325448916227,-0.7618402104550765,0.6472667551562388,1.0680636904445833,0.23446004536177364,-2.627060526082067,5.684214349210848e-07,0.003310406799003629,-0.020244163946539495,-0.060611037700053494,0.008457755370897685,0.06236068202880585,3.202990130068972e-05,0.18931441142164274,-1.1566686033831486,-3.459915134514102,0.48368131714843915,3.5598633492603393
0.02,-0.9813254463863019,-0.7618254543125891,0.6471765251516255,1.067793566972707,0.23449774583379443,-2.6267826044471576,6.985520356606045e-07,0.004077779228783829,-0.024933296007195738,-0.07463950896161031,0.010418321686418708,0.07679435528040734,3.3035400803793635e-05,0.19437180346672245,-1.1878974269432379,-3.5543204962504293,0.4966018406120723,3.656973276519593
0.024,-0.9813254433278107,-0.7618075882212463,0.6470672887881812,1.0674665743728904,0.234543391935265,-2.6264461712398237,8.327046413514338e-07,0.004865381226737409,-0.0297473433620854,-0.08904560167005693,0.012430570095794263,0.09161646824096259,3.404091765413231e-05,0.19942919551700633,-1.2191262505120009,-3.6487258579902258,0.5095223640705012,3.754083203785785
0.028,-0.9813254397246648,-0.7617865312627752,0.6469385464047288,1.0670812021593465,0.23459719039456078,-2.62604967270123,9.70879376893663e-07,0.0056732127929198795,-0.034686306011291745,-0.10382931582553212,0.014494500598982718,0.10682702091069363,3.504643103502403e-05,0.20448658756902494,-1.2503550740790292,-3.7431312197439004,0.522442887529364,3.8511931310589165
0.032,-0.9813254355607757,-0.7617622025189029,0.6467897983400909,1.0666359398462861,0.23465934794005686,-2.625591555072538,1.113076089631626e-06,0.006501273927289608,-0.03975018395471763,-0.11899065142800813,0.016610113196029175,0.12242601328943392,3.605192359923404e-05,0.2095439796175741,-1.281583897635649,-3.837536581483697,0.5353634109955991,3.9483030582834755
0.036000000000000004,-0.9813254308200561,-0.7617345210713569,0.6466205449330911,1.0661292769479225,0.23473007130012902,-2.6250702645949144,1.2592947656875353e-06,0.007349564629860472,-0.04493897719237694,-0.1345296084774017,0.01877740788694751,0.13841344537696143,3.7057430041231854e-05,0.21460137166612325,-1.312812721199208,-3.9319419432234937,0.5482839344561965,4.045412985521912
0.04,-0.9813254254864175,-0.761703406001864,0.6464302865225519,1.065559702978467,0.23480956720315244,-2.6244842475095225,1.409535529961481e-06,0.008218084900618594,-0.0502526857243113,-0.15044618697379608,0.020996384671678747,0.15478931717360922,3.8062938217953146e-05,0.21965876370946824,-1.3440415447575627,-4.0263473049632905,0.5612044579150592,4.142522912795044
0.044,-0.9813254195437718,-0.7616687763921519,0.6462185234472966,1.064925707452132,0.23489804237750245,-2.6238319500575256,1.5637982714311605e-06,0.009106834739536218,-0.05569130955043744,-0.16674038691710802,0.023267043550267985,0.17155362867932178,3.906844119050401e-05,0.22471615575281323,-1.375270368317652,-4.120752666706556,0.574124981379126,4.239632840047358
0.048,-0.9813254129760314,-0.7616305513239477,0.6459847560461484,1.06422577988313,0.23499570355155458,-2.623111818480088,1.722083059485513e-06,0.0100158141466411,-0.06125484867085251,-0.18341220830744853,0.025589384522711756,0.18870637989398809,4.00739493672253e-05,0.2297735478013624,-1.4064991918846803,-4.215158028453292,0.5870455048410245,4.336742767278856
0.052000000000000005,-0.9813254057671074,-0.7615886498789788,0.6457284846579298,1.0634584097856725,0.23510275745368414,-2.6223222990183737,1.8843898663689629e-06,0.010945023121947117,-0.06694330308551488,-0.20046165114473435,0.02796340758899618,0.20624757081755263,4.1079454074499644e-05,0.234830939853381,-1.4377280154465044,-4.309563390189619,0.5999660283011882,4.43385269453811
0.056,-0.9813253979009124,-0.7615429911389722,0.6454492096214642,1.0626220866739722,0.23521941081226655,-2.6214618379135475,2.05071869208151e-06,0.011894461665468148,-0.07275667279442455,-0.21788871542896548,0.03038911274912126,0.22417720145029296,4.208496572066789e-05,0.23988833190193015,-1.4689568390100631,-4.403968751936355,0.6128865517622192,4.53096262181818
0.06,-0.9813253893613578,-0.761493494185655,0.6451464312755744,1.0617153000622408,0.2353458703556771,-2.6205288814067713,2.221069592134306e-06,0.012864129777162558,-0.07869495779759539,-0.2356934011602252,0.032866500003093935,0.24249527179209807,4.293756322715225e-05,0.24417664488442237,-1.4954366864116524,-4.484017863234241,0.6238422475147304,4.613305014562751
0.064,-0.9813253801323557,-0.7614400781007549,0.6448196499590835,1.0607365394646904,0.2354823428122913,-2.6195218757392107,2.394219197898728e-06,0.013847874824543527,-0.08472016628571777,-0.2537608583348394,0.035379850729239104,0.261083641566795,4.251131738297609e-05,0.2420327990890897,-1.4821986812213472,-4.443999107286295,0.6183651934002325,4.572139784018991
0.068,-0.9813253702076042,-0.7613827111870587,0.6444686699452886,1.059685213195562,0.23562890916151102,-2.618440212274237,2.5611601311981147e-06,0.014800392169875276,-0.09055254724736617,-0.27124539401851555,0.037813421550295795,0.27907239006425,3.96046979933562e-05,0.22741336674902968,-1.3919253409495902,-4.171100983951098,0.5810157617555483,4.291423557567509
0.07200000000000001,-0.9813253596430747,-0.7613216749633959,0.6440952295811045,1.0585665763125423,0.23578485018469367,-2.6172892966186967,2.7110567818455777e-06,0.015667181758535764,-0.09585556901331449,-0.2871296662064482,0.04002797682328349,0.29541503002733505,3.4961296010993514e-05,0.2040584192383732,-1.247711183108291,-3.735138684176492,0.5213490117030734,3.842971621870195
0.076,-0.98132534851915,-0.7612573737329904,0.6437018253931821,1.0573881758659105,0.2359491329760973,-2.6160768920340183,2.840850499286063e-06,0.01643285952378226,-0.1005342367122325,-0.3011265034919275,0.04198421364392038,0.30981616303921156,2.9934664122488464e-05,0.17877596119979244,-1.0915948658249408,-3.263195917015127,0.45675789650491055,3.357508434838341
0.08,-0.9813253369162707,-0.7611902120872056,0.6432909556874067,1.0561575642846068,0.23612072389384503,-2.614810767314383,2.9505340948254855e-06,0.017097389448134104,-0.10458832793991402,-0.3132352335425692,0.043682039995322774,0.3222750975060418,2.490712844305243e-05,0.1534890009605161,-0.9354507480158203,-2.7911691082987966,0.3921552791980205,2.8719587985628903
0.084,-0.9813253249148772,-0.7611205946174053,0.6428651187696628,1.05488229399757,0.23629858929605987,-2.61349869125397,3.0401075268304822e-06,0.01766077153146639,-0.10801784269635906,-0.32345585635831786,0.045121455877504546,0.3327918334277147,1.9879601437233774e-05,0.12820204071430086,-0.779306630204965,-2.319142299589405,0.32755266189113047,2.3864091622874395
0.088,-0.9813253125954104,-0.7610489259149539,0.6424268129458358,1.0535699174337403,0.23648169554086507,-2.6121484326469613,3.1095709063233556e-06,0.01812300577384851,-0.11082278098155374,-0.33178837193928445,0.04630246129045182,0.3413663708043413,1.4852081370309023e-05,0.10291508048543285,-0.6231625123923751,-1.847115490890422,0.26295004458207205,1.9008595260466832
0.092,-0.98132530003831,-0.7609756105712145,0.6419785365218104,1.0522279870220557,0.2366690089863835,-2.610767760287535,3.1589241777929544e-06,0.018484092175349853,-0.11300314279549806,-0.33823278028544124,0.04722505623416112,0.34799870963608814,9.84415500504543e-06,0.0780639887038026,-0.4695935954396324,-1.382525890967351,0.19946012387193554,1.4229680862232197
0.096,-0.981325287324017,-0.7609010531775511,0.6415227878034718,1.0508640551914568,0.23685949599073836,-2.6093644429698726,3.188324146363719e-06,0.01874751768347893,-0.1145795297450708,-0.34284857906702326,0.0478981422814273,0.35275011549412705,5.03463937207016e-06,0.05762442573803428,-0.34208890234768696,-0.9932100601822702,0.14723207157705392,1.0225870842595075
0.1,-0.9813252745317168,-0.7608256304297467,0.6410619002838498,1.0494851983895195,0.2370521941246349,-2.607945759363582,3.1992012927695157e-06,0.018945087581254128,-0.11573985401427955,-0.3461784607668994,0.048402912806777554,0.3561794063101642,6.405084795879645e-07,0.046420645195832666,-0.2691511201604463,-0.7614840765376996,0.118581370892306,0.7844785205948779
0.10400000000000001,-0.9813252617304067,-0.760749492476901,0.6405968689713576,1.0480946275053216,0.23724671929319258,-2.6065150077193913,3.193448214200423e-06,0.019118882845045593,-0.11673273870635437,-0.34894045167932486,0.04884679324856575,0.35902594365888607,-3.4391465369987273e-06,0.04220874874963365,-0.2375228339013269,-0.6490603777567494,0.10777973833645677,0.6692171644409606
0.108,-0.9813252489841311,-0.7606726793669863,0.640128038374199,1.0466936747760849,0.23744296847062343,-2.605073551814311,3.171688120473526e-06,0.019282757571251197,-0.11764003668549017,-0.3513709437889534,0.04926515071346921,0.3615331436256919,-7.440402460812123e-06,0.039740046283223696,-0.21619369792134913,-0.5663807398602339,0.10142817788091896,0.5845836778331504
0.112,-0.9813252363569017,-0.760595230416331,0.6396557486778737,1.04528365995501,0.23764084049890033,-2.6036227425703857,3.133924994513926e-06,0.019436803215311382,-0.11846228828972516,-0.35347149759820673,0.0496582186716131,0.3637026130815513,-1.1441158784264438e-05,0.03728277575554273,-0.1949321042117591,-0.48389616476643416,0.09510580119016093,0.5001510501242978
0.116,-0.9813252239127311,-0.7605171849412639,0.6391803400678812,1.0438659027952992,0.23784023421999634,-2.6021639309096587,3.0801588501994104e-06,0.01958101977729554,-0.11919949351918424,-0.35524211310708487,0.050025997122990495,0.36553435202668627,-1.544190296465242e-05,0.03482550524173955,-0.17367051051431215,-0.4014115896899817,0.08878342449636714,0.4157184224223842
0.12,-0.9813252117156309,-0.7604385822581127,0.6387021527297202,1.0424417230501533,0.23804104847588425,-2.6006984677541722,3.0103897707967064e-06,0.0197154072572453,-0.11985165237383966,-0.3566827903157266,0.05036848606758404,0.36702836046093035,-1.94426402061465e-05,0.0323682347296711,-0.1524089168099263,-0.31892701462046813,0.08246104780040495,0.3312857947274095
0.124,-0.981325199829613,-0.7603594616832059,0.6382215268488904,1.0410124404727734,0.238243182108537,-2.5992277040259713,2.9246177285502384e-06,0.019839965655132907,-0.12041876485366365,-0.3577935292240486,0.050685685505393735,0.36818463838450555,-2.344338612125796e-05,0.029910964208929025,-0.13114732310380572,-0.23644243953707678,0.0761386711057438,0.24685316703243476
0.128,-0.9813251883186891,-0.7602798625328716,0.6377388026108909,1.0395793748163609,0.2384465339599274,-2.597752990647096,2.8228426818266428e-06,0.01995469497091673,-0.1209008309586701,-0.3585743298320232,0.05097759543642999,0.3690031857971898,-2.744413897526332e-05,0.02745369368124806,-0.1098857293942157,-0.15395786444674653,0.06981629441455209,0.16242053928888778
0.132,-0.9813251772468715,-0.7601998241234386,0.6372543202012211,1.0381438458341172,0.23865100287202845,-2.5962756785395937,2.705064616748132e-06,0.020059595204582892,-0.12129785068881738,-0.3590251921396226,0.05124421586071015,0.36948400269881665,-3.12982313677157e-05,0.02547245978729018,-0.09158678584628155,-0.08050268040377118,0.0647132142018135,0.08727406214381617
0.136,-0.9813251666781722,-0.760119385771235,0.6367684198053803,1.0367071732792439,0.23885648768681308,-2.5947971186255057,2.572456830884917e-06,0.020158474649215052,-0.12163352524544035,-0.35921835127525337,0.0514953011500445,0.36970137829434035,-3.4099830598099956e-05,0.026907565524661448,-0.09454969189873208,-0.07184811197033514,0.06836057597292902,0.078770869105238
0.14,-0.9813251566672169,-0.7600385563262448,0.6362812519992576,1.0352700990239152,0.2390629652812288,-2.593318067513239,2.432265971963332e-06,0.020274855728780183,-0.12205424822400723,-0.35959997703538527,0.051791100468493584,0.37011416965165855,-3.499151489394503e-05,0.03454224125655492,-0.1360960935874872,-0.18078605393614944,0.0878872072692001,0.19120404373684785
0.14400000000000002,-0.9813251472200444,-0.7599571869254047,0.6357919858195883,1.0338303734629608,0.23927081649056103,-2.5918362052682924,2.292524711733357e-06,0.02043481257926749,-0.12272229399414025,-0.36066463970674256,0.0521983988081981,0.37123101064423514,-3.463407165227306e-05,0.046231575040467376,-0.2028769681330228,-0.3666321392419014,0.11779923753596142,0.3827323195454424
0.148,-0.9813251383270192,-0.7598750778256107,0.6352994736473044,1.0323847819062613,0.2394805524716944,-2.590348219428085,2.1551933987451477e-06,0.020644708329103922,-0.12367726396907142,-0.3625330341493205,0.052733494368781275,0.3731760282080221,-3.403147035008214e-05,0.05871669028073567,-0.2746104490573831,-0.5675724871895271,0.14974954272526514,0.5897840780685892
0.152,-0.9813251299784972,-0.7597920292587719,0.6348025677078357,1.0309301091897662,0.23969268444551128,-2.588850797042628,2.0202729489327e-06,0.020904546101513377,-0.12491917758659932,-0.3652052196042588,0.05339639515000022,0.37594928326878385,-3.3428754556141804e-05,0.07120219591358334,-0.34634635970483274,-0.768520240300441,0.1817008478846409,0.7968434522845347
0.156,-0.9813251221648356,-0.7597078414567986,0.6343001202266116,1.0294631401494272,0.2399077236328944,-2.587340625161935,1.8877633622960133e-06,0.02121432589641259,-0.12644803484671008,-0.368681196071724,0.0541871011518584,0.37955077582629837,-3.282602314969019e-05,0.08368770154990046,-0.4180822703592213,-0.9694679934391104,0.2136521530401135,1.0039028265212968
0.16,-0.9813251148763903,-0.7596223146516006,0.633790983429062,1.0279806596211924,0.24012618125472615,-2.585814390836018,1.7576647637351783e-06,0.02157404771391258,-0.1282638357494731,-0.37296096355177166,0.05510561237432113,0.3839805058809542,-3.222329174323857e-05,0.09617320719315647,-0.489818181018814,-1.1704157465673715,0.24560345819428508,1.2109622007858145
0.164,-0.9813251081035175,-0.7595352490750873,0.6332740095406159,1.026479452441013,0.24034856853188896,-2.5842687811148872,1.6299770283501047e-06,0.02198371155395784,-0.1303665802948606,-0.378044522044263,0.05615192881741268,0.3892384734325849,-3.162056901040433e-05,0.10865871282426942,-0.5615540916662637,-1.3713634996852242,0.27755476335279344,1.4180215750156377
0.168,-0.9813251018365741,-0.7594464449591689,0.6327480507867032,1.0249563034448383,0.24057539668526545,-2.582700483048557,1.5047002116519437e-06,0.022443317416506736,-0.1327562684828032,-0.38393187154925346,0.057326050481143476,0.39532467848107933,-3.101783933867619e-05,0.12114421846579071,-0.6332900023171828,-1.5723112528100158,0.30950606850869977,1.6250809492523999
0.17200000000000001,-0.9813250960659158,-0.7593557025357552,0.6322119593927534,1.023407997468619,0.2408071769357381,-2.5811061836870386,1.3818343136406952e-06,0.022952865301684167,-0.13543290031339805,-0.3906230120667431,0.05862797736548228,0.4022391210266041,-3.0415118340565428e-05,0.13362972411078144,-0.7050259129715714,-1.7732590059348075,0.3414573736637387,1.832140323489162
0.176,-0.9813250907818996,-0.7592628220367554,0.631664587584196,1.0218313193483044,0.2410444205041893,-2.5794825700803443,1.2613792649274203e-06,0.023512355209392988,-0.13839647578657577,-0.3981179435967319,0.060057709470453385,0.4099818010689926,-2.981775069910153e-05,0.14608463598866916,-0.7765837816402915,-1.973700486376101,0.37333018478198643,2.038678228108437
0.18,-0.9813250859748817,-0.7591676036940801,0.6311047875864608,1.0202230539198451,0.24128763861150174,-2.5778263292784867,1.143292308047883e-06,0.02412154238959352,-0.14164557056652038,-0.4064126159577519,0.06161461884373817,0.4185485468514716,-2.973065717226664e-05,0.15562067914517974,-0.8311551363583691,-2.1258398306689408,0.3977140872360278,2.195464097846933
0.184,-0.9813250816355611,-0.7590698496976387,0.6305314230196638,1.0185800184206424,0.24153733745493922,-2.5761341817055325,1.0235340075492871e-06,0.024757320642554426,-0.14504571687744272,-0.41512466224208344,0.06323942216834161,0.4275455138517681,-3.1547667256326406e-05,0.1542651396745781,-0.8223423387174189,-2.0977426670627795,0.3941535786826725,2.166603249927068
0.188,-0.9813250777866096,-0.7589695451289397,0.6299444218514413,1.0169020566219085,0.24179355398884847,-2.5744059651676725,8.909109699972717e-07,0.025355663506990145,-0.14822430927625974,-0.42319455729425415,0.06476784747319955,0.4358813728508881,-3.575755663787206e-05,0.13922225284949963,-0.7338752852255326,-1.8431440140451172,0.3554755970548544,1.9044419539357427
0.192,-0.9813250745082733,-0.7588670043895828,0.6293456285454537,1.0151944619622884,0.2420554802347248,-2.5726471307227254,7.374735544463107e-07,0.025871098665350423,-0.15091671915924698,-0.4298698143544444,0.06608322694478044,0.44278104948325403,-4.105525815145672e-05,0.11795691306007439,-0.6091963311808529,-1.485574724690436,0.300832737849116,1.5362191232229372
0.196,-0.9813250718868212,-0.7587625763396169,0.6287370880981673,1.013463098107073,0.2423222198044067,-2.5708637167718065,5.62468904785618e-07,0.02629931881147074,-0.15309787992570656,-0.43507915509177764,0.06717450937599248,0.4481711258366716,-4.644709963863569e-05,0.09615315998794116,-0.48138405203158874,-1.1190956439623145,0.2448084777595047,1.1588190534095322
0.2,-0.9813250700085221,-0.758656609839091,0.6281208455060481,1.0117138287215541,0.24259287630973275,-2.569061761716032,3.6589675733722515e-07,0.026640323945253952,-0.1547677915754997,-0.4388225795061429,0.06804169476685648,0.4520516019105303,-5.1838958473049424e-05,0.07434940691060377,-0.3535717728771204,-0.752616563234193,0.18878421766815867,0.7814189835544938
0.20400000000000001,-0.9813250689596471,-0.7585494537480548,0.6274989457655633,1.0099525174710238,0.24286655336254157,-2.5672473039565222,1.4775723700122256e-07,0.02689411406675557,-0.15592645410872352,-0.4411000875976512,0.06868478311733775,0.4544224777051076,-5.7230787817164064e-05,0.052545653840205264,-0.2257594937347951,-0.38613748251647984,0.13275995757421055,0.40401891375496657
0.20800000000000002,-0.9813250688264642,-0.758441456926557,0.6268734338731783,1.008185028020773,0.24314235457467145,-2.565426381894391,-9.194954520008736e-08,0.027060689175975594,-0.15657386752537805,-0.44191167936627473,0.06910377442745017,0.45528375322057,-6.262262930434304e-05,0.030741900764602592,-0.09794721458726563,-0.01965840179529721,0.07673569748459924,0.026618843941561554
0.212,-0.9813250696952435,-0.758332968234647,0.6262463548253603,1.0064172240360936,0.24341938355796117,-2.5636050339307577,-3.532237974335217e-07,0.02714004927287239,-0.15671003182542165,-0.44125735481201356,0.06929866869721454,0.45463542845664007,-6.801447599569244e-05,0.00893814769420409,0.029865064560263832,0.34682067892241597,0.020711437392385845,-0.35078122587878235
0.216,-0.9813250716522546,-0.758224336532374,0.6256197536185749,1.0046549691822768,0.24369674392424917,-2.561789298466738,-6.360653531656268e-07,0.027132194357529227,-0.15633494700889594,-0.4391371139348954,0.06926946592658925,0.45247750341353976,-7.340630533980708e-05,-0.012865605369255517,0.15767734370605857,0.7132997596505375,-0.035312822701995955,-0.7281812956783096
0.22,-0.9813250747837663,-0.7581159106797868,0.6249956752492891,1.0029041271246144,0.24397353928537388,-2.5599852139034494,-9.404742401519783e-07,0.027037124429918347,-0.15544861307577318,-0.43555095673480926,0.06901616611559858,0.4488099780912136,-7.8798150296433e-05,-0.03466935844485819,0.28548962285532276,1.0797788403803936,-0.09133708279117358,-1.1055813654986535
0.224,-0.9813250791760485,-0.7580080395369346,0.6243761647139687,1.0011705615283983,0.24424887325317396,-2.5581988186420084,-1.2664505555370908e-06,0.02685483948997036,-0.15405103002605336,-0.43049888321185226,0.06853876926425986,0.44363285248955053,-8.41712654436888e-05,-0.05638515331203575,0.4127814402284796,1.4447509965511556,-0.14713542974536392,-1.4814299327189917
0.228,-0.9813250849153707,-0.757901071963867,0.6237632670090807,0.9994601360589196,0.24452184943948796,-2.556436151083533,-1.6138443637014888e-06,0.02658604320342206,-0.15214636155394534,-0.4239929487624,0.06783908267763566,0.43695853862946166,-8.884552121779521e-05,-0.07481912623653886,0.5206542305884881,1.7534980660937476,-0.19450469794990086,-1.7993901547247448
0.232,-0.9813250920868034,-0.7577953511913073,0.6231589938215372,0.9977786179382991,0.24479158591459504,-2.5547031503329727,-1.9772147252794525e-06,0.02625628648007805,-0.14988579618134545,-0.4164708986831023,0.06698273168066066,0.4292377312517526,-9.135581180430563e-05,-0.08309117174344627,0.5683973895651007,1.8881481671055578,-0.2157739252967028,-1.9381032467027937
0.23600000000000002,-0.9813251007330885,-0.7576910216720264,0.6225641806396299,0.9961283688694548,0.24505771129293324,-2.553002249233519,-2.344690858135934e-06,0.02592131382947449,-0.14759918243742454,-0.40888776342555555,0.06611289127526204,0.4214537126558393,-9.15084015506995e-05,-0.08029153141311807,0.5506277416470612,1.8331150650370553,-0.2086064751286032,-1.8815218998588512
0.24,-0.9813251108443303,-0.7575879806806715,0.6219782003620378,0.9945075158308947,0.24532048904479714,-2.551331520631726,-2.7092819376850485e-06,0.025613954228773106,-0.14548077424816896,-0.40180597816280583,0.06531387987963183,0.41418555605288176,-9.073572448947687e-05,-0.07314680496896264,0.507147574929992,1.703640738591125,-0.1902790431754578,-1.7482971976442996
0.244,-0.981325122407344,-0.7574861100381962,0.6214003344456446,0.9929139210441523,0.2455802223319703,-2.549688764785096,-3.0705766540517487e-06,0.02533613938972279,-0.1435420018379846,-0.39525863751682655,0.06459065892985838,0.4074673350746849,-8.991163022442628e-05,-0.06576061456486926,0.46223863015525113,1.5700295843881078,-0.171331431710834,-1.610813291474944
0.248,-0.9813251354089435,-0.7573852915655537,0.6208298643473339,0.9913454467307601,0.245837214316236,-2.5480717819511285,-3.4285749794804588e-06,0.025087869312254152,-0.14178286520692696,-0.38924574148770097,0.06394322842594516,0.4012990497210822,-8.908753422465221e-05,-0.05837442416424532,0.4173296853787756,1.4364184301816212,-0.15238382024317446,-1.4733293853194662
0.252,-0.9813251498359439,-0.7572854070836982,0.6202660715239892,0.9897999551122507,0.24609176815937786,-2.546478372387327,-3.7832769278489664e-06,0.024869143996408827,-0.1402033643549544,-0.3837672900753736,0.06337158836791298,0.3956806999921292,-8.826343475543119e-05,-0.05098823375841721,0.3724207406161778,1.3028072759872777,-0.13343620877594858,-1.3358454791362329
0.256,-0.9813251656751589,-0.7571863384135824,0.6197082374324943,0.9882753084101571,0.2463441870231793,-2.5449063363511915,-4.134682457523908e-06,0.024679963442186814,-0.13880349928199753,-0.37882328327980275,0.06287573875573757,0.39061228588799235,-8.743933008203975e-05,-0.043602043359528,0.32751179584837586,1.16919612178773,-0.11448859731089112,-1.1983615729391217
0.26,-0.9813251829134035,-0.7570879673761607,0.6191556435297332,0.9867693688460123,0.24659477406942376,-2.5433534741002233,-4.482791568505284e-06,0.024520327649532603,-0.1375832699881674,-0.37441372110107174,0.062455679589425855,0.3860938074086162,-8.66152323475422e-05,-0.03621585295890406,0.28260285106843086,1.035584967577774,-0.09554098584323156,-1.0608776667628272
0.264,-0.9813252015374915,-0.7569901757923861,0.6186075712725889,0.9852799986413485,0.24684383245989472,-2.5418175858919225,-4.827604316304246e-06,0.02439023661851558,-0.1365426764734501,-0.37053860353918056,0.06211141086899172,0.38212526455388973,-8.579113981721509e-05,-0.028829662553075952,0.23769390629715947,0.9019738133782262,-0.07659337437643937,-0.9233937606004106
0.268,-0.9813252215342381,-0.7568928454832126,0.6180633021179456,0.9838050600176989,0.2470916653563757,-2.540296471983792,-5.169120687043005e-06,0.024289690349107995,-0.1356817187377901,-0.36719793059404593,0.06184293259441434,0.3787066573238129,-8.496703687854712e-05,-0.02144347215071729,0.1927849615258881,0.768362659182148,-0.05764576291094822,-0.7859098544171772
0.272,-0.981325242890457,-0.7567958582695933,0.6175221175226866,0.9823424151965962,0.24733857592065003,-2.538787932633332,-5.507340611332623e-06,0.024218688841309843,-0.13500039678124298,-0.36439170226572337,0.06165024476570413,0.3758379857185523,-8.40928091050408e-05,-0.014120962161731643,0.14824235312210776,0.6357723756900135,-0.03886142839774551,-0.64947810202165
0.276,-0.981325265592963,-0.7566990959724821,0.6169832989436956,0.9808899263995731,0.24758486731450133,-2.5372897680980437,-5.8418631598833315e-06,0.024176722651814142,-0.13449577991281325,-0.3621117515885258,0.061532041167232376,0.3735108325076397,-8.22184733489939e-05,-0.00806893043006629,0.11100846613286419,0.5235493290116355,-0.023334607665830703,-0.5340377104492977
0.28,-0.9813252896253623,-0.7566024444883788,0.6164461512833841,0.979445521183888,0.2478308322499879,-2.535799845973271,-6.165088398124574e-06,0.024154137397869313,-0.13411232905218007,-0.3602033076336303,0.061463567904377486,0.37156568403495793,-7.771597081152049e-05,-0.005355540908316692,0.09298089426006129,0.4648485807754593,-0.01636808533893655,-0.47375972937746536
0.28400000000000003,-0.9813253149136701,-0.7565058628732991,0.6159104003112782,0.978008299938504,0.24807657585773635,-2.534317242625764,-6.463590926375495e-06,0.02413387832454761,-0.13375193275873276,-0.35839296294232215,0.061401096484520884,0.36972075467262,-7.073131837176394e-05,-0.005795321070256598,0.09309266367149571,0.45669679168101884,-0.017486308746469947,-0.46557970591332154
0.28800000000000003,-0.9813253413340897,-0.7564093734617824,0.6153761358213142,0.9765783774803494,0.24832204102186406,-2.53284207993589,-6.730938945098686e-06,0.02410777482930726,-0.1333675877428081,-0.35654973330018214,0.06132367743440573,0.36784104638765136,-6.291702402128063e-05,-0.007289024933979094,0.09926737408808006,0.4654406192353827,-0.02130679876413341,-0.47481304040614125
0.292,-0.9813253687611817,-0.7563130006746647,0.6148434596093357,0.9751559020721026,0.2485671652772116,-2.531374514254663,-6.9669271185457404e-06,0.024075566125075776,-0.13295779376602812,-0.3546694379884391,0.06123064209440782,0.36592225034937087,-5.507706443697025e-05,-0.008815327181763144,0.10562961429497197,0.4747070366274697,-0.02521087123785737,-0.4845849787132872
0.296,-0.9813253970695066,-0.7562167689327818,0.614312473471186,0.9737410219764419,0.24881188615861932,-2.529914701933095,-7.171555460594448e-06,0.024037252211853155,-0.13252255082844833,-0.3527520770071624,0.06112199046450287,0.36396436655794506,-4.723711352627724e-05,-0.010341629433016641,0.11199185449492499,0.4839734540195567,-0.029114943709846602,-0.49435691702737206
0.3,-0.9813254261336254,-0.7561207026569698,0.6137832792027081,0.9723338854560453,0.24905614120092762,-2.5284627993221993,-7.344824026755958e-06,0.023992833089611643,-0.13206185893006872,-0.35079765035628263,0.060997722544729044,0.3619673950131519,-3.939715741141381e-05,-0.011867931679065968,0.11835409469314329,0.4932398714116437,-0.03301901617880007,-0.5041288553553347
0.304,-0.9813254558280988,-0.7560248262680649,0.6132559785997455,0.9709346407735916,0.24929986793897715,-2.5270189627729898,-7.486732719885758e-06,0.023942308758420627,-0.13157571807090318,-0.34880615803586923,0.06085783833507247,0.3599313357151024,-3.155719782710342e-05,-0.013394233925115295,0.12471633489136158,0.5025062887950571,-0.03692308865252403,-0.5139007936624806
0.308,-0.9813254860274871,-0.7559291641869025,0.6127306734581409,0.9695434361917583,0.2495430039076082,-2.5255833486364785,-7.597281609372786e-06,0.02388567921821072,-0.13106412825093783,-0.3467776000459222,0.06070233783550885,0.35785618866385205,-2.3717248651133893e-05,-0.014920536181572963,0.13107857509478404,0.5117727061923483,-0.04082716112494694,-0.5236727319904433
0.312,-0.9813255166063517,-0.7558337408343192,0.612207465573738,0.9681604199732242,0.24978548664166123,-2.524156113263679,-7.67647070909483e-06,0.023822944468968044,-0.1305270894701449,-0.34471197638633044,0.06053122104607289,0.35574195385917884,-1.5935232300368085e-05,-0.016568792541096777,0.13808026487309444,0.5226465245901368,-0.04503649172994326,-0.5351056183641734
0.316,-0.9813255474392528,-0.7557385806311507,0.6116864567423798,0.9667857403806677,0.2500272536759768,-2.522737413005605,-7.72476346777573e-06,0.023753128877881946,-0.12995948613195307,-0.3425964278492011,0.060342045901669306,0.35357534371693866,-9.774597797829188e-06,-0.021629620412452755,0.1629753024548486,0.5784993159455715,-0.057787684182124266,-0.5930158535893959
0.32,-0.9813255784044594,-0.7556437158032961,0.6111677896846823,0.9654196485504306,0.2502682230088746,-2.5213275105139434,-7.754667491477463e-06,0.02364990750566842,-0.12922328705050612,-0.34008398185876587,0.0600689195726159,0.35099782703046367,-8.291176772923237e-06,-0.036534684492994796,0.23948723404561278,0.7641028339899075,-0.09517956333499056,-0.7849991765646047
0.324,-0.9813256094765928,-0.7555493813711054,0.6106526704459757,0.9640650685257975,0.2505078050325577,-2.5199294303893613,-7.791092881959116e-06,0.023460851401937988,-0.12804358825958817,-0.3364836051772818,0.05958060939498938,0.3472953503044218,-1.1608311534239135e-05,-0.0615435945799242,0.3689772878831543,1.082878833465542,-0.1578619474159812,-1.114591330286796
0.328,-0.9813256407332025,-0.7554560289920806,0.6101434409786056,0.9627277797090124,0.2507448678840345,-2.518549147711508,-7.847533983751376e-06,0.023157558749029028,-0.12627146874744088,-0.33142095119104154,0.05880602399328805,0.3420810963881693,-1.669076682420112e-05,-0.09026800357886389,0.5179490475248211,1.450626502631086,-0.2298444379510156,-1.4947865375619651
0.332,-0.9813256722568646,-0.7553641209011132,0.6096424986959962,0.9614137009162692,0.250978253224504,-2.517192781618256,-7.924619016552725e-06,0.022738707373307077,-0.1238999958793896,-0.32487859315623313,0.057741853891381256,0.3353370580039261,-2.185173743340929e-05,-0.11915768427690765,0.6677873864938816,1.820552514773116,-0.3022406130032476,-1.8772326545457574
0.336,-0.9813257041301546,-0.7552741193330942,0.6091522410115705,0.9601287509637625,0.25120680271516554,-2.5158664512474767,-8.02234788321865e-06,0.022204297274813767,-0.12092916965548983,-0.3168565310728566,0.05638809908926207,0.32706323515180324,-2.7012702838447034e-05,-0.14804736497148197,0.8176257254629421,2.1904785269134113,-0.3746367880580817,-2.259678771508733
0.34,-0.9813257364356477,-0.7551864865229146,0.6086750653387523,0.9588788486676864,0.2514293580172181,-2.5145762757370416,-8.140720639260302e-06,0.02155432845353522,-0.11735899007568606,-0.30735476494092584,0.0547447595869166,0.31725962783185624,-3.217367171293173e-05,-0.1769370456608521,0.9674640644320026,2.5604045390537067,-0.4470329631146505,-2.6421248884647697
0.34400000000000003,-0.9813257692559197,-0.7551016847054659,0.608213369090965,0.9576699128442351,0.2516447607918609,-2.513328374224822,-8.279737256922104e-06,0.02078880090952695,-0.11318945714003381,-0.29637329476042695,0.05281183538434486,0.3059262360440851,-3.731438595611092e-05,-0.20582106684263746,1.1172745363347696,2.9302643138086335,-0.5194155818450188,-3.0245024659619757
0.34800000000000003,-0.9813258026735457,-0.7550201761156384,0.607769549681632,0.9565078623096029,0.25185185270029287,-2.512128865848689,-8.439235726909189e-06,0.01990775991879412,-0.10842079378500791,-0.28391265043045677,0.05058943493215645,0.29306360810416043,-3.627412779871886e-05,-0.23297799695704002,1.258580918770194,3.2799106691704103,-0.5876612680566148,-3.3859641058384127
0.352,-0.9813258367698056,-0.7549424226261156,0.607346002740685,0.9553986116407914,0.25204947627131813,-2.5109838653599885,-8.569930279311855e-06,0.01892497693387063,-0.10312080978987226,-0.27013400940706367,0.048110545239891944,0.2788385231973778,-8.190469136248879e-06,-0.2525784527744601,1.3626796899236793,3.5411180383648073,-0.6378067946358201,-3.655913058897564
0.356,-0.981325871232988,-0.7548687763001675,0.606944583203313,0.9543467902343464,0.252236737062212,-2.50989815766311,-8.50475947999918e-06,0.01788713229659844,-0.09751935626561847,-0.2555837061235383,0.04548698057506989,0.2638163036329799,5.7684962709303456e-05,-0.26161912156444367,1.4147827239706368,3.678736439697433,-0.6626582722346965,-3.797977704403377
0.36,-0.9813259048078814,-0.7547993255677428,0.60656584789056,0.9533539419918031,0.2524133721159187,-2.5088733349309247,-8.108450577637427e-06,0.01683202396135508,-0.09180254799810716,-0.2407041178894842,0.04280927906201437,0.24845470156215077,0.00014263636625988507,-0.26532957241552635,1.4406400950812275,3.753971373188919,-0.6747421823190616,-3.875490742072385
0.364,-0.9813259361005926,-0.7547341201084766,0.6062101628193282,0.9524211572912306,0.2525792112947081,-2.5079105200506127,-7.363668549920099e-06,0.01576449571727423,-0.08599423550496865,-0.22555193513802696,0.0400890431165174,0.23281237769640084,0.00022975466321129012,-0.2684345496248991,1.463516151484559,3.8221200025362334,-0.6853757904294252,-3.945671190781763
0.368,-0.9813259637172298,-0.7546732096020046,0.6058778940065203,0.9515495265106989,0.2527340844608508,-2.5070108359093535,-6.270413271947106e-06,0.014684547564355888,-0.08009441878623069,-0.21012715786919434,0.03732627273857897,0.21688933203589666,0.00031687298444882384,-0.2715395268290677,1.4863922078792169,3.890268631864466,-0.6960093985415235,-4.015851639463386
0.372,-0.9813259862638988,-0.7546166437279618,0.6055694074690383,0.950740140028277,0.25287782147661675,-2.5061754053943255,-4.828684674329509e-06,0.013592179502641688,-0.07410309784193492,-0.19442978608311123,0.03452096792818521,0.20068556458069375,0.00040399129180856974,-0.2746445040297668,1.5092682642738746,3.958417261194433,-0.7066430066510199,-4.086032088151947
0.376,-0.9813260023467072,-0.7545644721659834,0.6052850692237848,0.949994088222034,0.2530102522042763,-2.505405351392708,-3.0384829374785483e-06,0.012487391532117753,-0.0680202726720397,-0.17845981977963887,0.03167312868537081,0.18420107533068109,0.0004911095835558044,-0.2777494812408743,1.532144320677206,4.026565890540012,-0.7172766147605161,-4.156212536861325
0.38,-0.9813260105717623,-0.7545167445957048,0.605025245287662,0.9493124614700399,0.2531312065060997,-2.50470179679168,-8.998080058830737e-07,0.011370183652714694,-0.06184594327651727,-0.16221725895879113,0.02878275501010108,0.16743586428580315,0.0005711483994086386,-0.28030865137883276,1.5516487685256901,4.085482130430224,-0.7263099271997281,-4.216869262177458
0.384,-0.9813260095451712,-0.7544735106967617,0.6047903016775726,0.9486963501503637,0.2532405142443571,-2.5040658644784215,1.5307042577905605e-06,0.010244922321087091,-0.05560708252383417,-0.14577596273619708,0.025862649267772986,0.15046612123326142,0.0005954696319365738,-0.2785721586930773,1.5446176616865785,4.07173673985968,-0.7227484402792458,-4.202571472856908
0.388,-0.9813259983261282,-0.7544347852171361,0.6045803886274713,0.9481462537681503,0.2533381077002419,-2.503498067821814,3.863949049609516e-06,0.009141606383170076,-0.04948900198302464,-0.1296433650399137,0.023000767487867113,0.13381529250294788,0.0005144775508392208,-0.2687163173677176,1.4874309841751003,3.920651633364594,-0.6953811819455924,-4.046600125102994
0.392,-0.9813259786335788,-0.7544003778456964,0.6043943896617084,0.9476592032300444,0.25342452038426005,-2.502995342138398,5.6465246645043266e-06,0.00809519178214535,-0.04370763465043337,-0.11441074966928033,0.020299599812208247,0.11809332023243746,0.0003616720378046834,-0.25332387220723673,1.3960430994639643,3.6759142362334516,-0.651780709433683,-3.7940212288326003
0.396,-0.9813259531539309,-0.754370023682879,0.6042307275502679,0.9472309677707961,0.25350050449873957,-2.5025533212599544,6.757325352046983e-06,0.007115015405512182,-0.03832065718731292,-0.10023605115004608,0.01778652181239765,0.10346312267228708,0.00019370669131213436,-0.23676264941825675,1.2974353364222229,3.4114068309994834,-0.6047534037451757,-3.521048469255772
0.4,-0.981325924574976,-0.7543434577224523,0.6040878244042099,0.946857314820844,0.25356681255875924,-2.5021676371570196,7.1961781950014014e-06,0.006201090586799296,-0.033328151959055585,-0.08711949502128447,0.01546157258224684,0.08992493247839128,2.5719737103968576e-05,-0.2201997599329819,1.1988172777081807,3.1468712333778543,-0.557721211334565,-3.2480466276574305
0.404,-0.9813258955845053,-0.7543204149581846,0.6039641023345954,0.9465340118106258,0.25362419707939754,-2.5018339218001273,6.963083248878732e-06,0.005353417326048326,-0.028730118965647478,-0.07506108128302325,0.013324752121721128,0.07747874965102763,-0.00014226720843057983,-0.20363687043903345,1.1001992189889342,2.882335635751021,-0.5106890189265564,-2.9750447860243945
0.40800000000000003,-0.98132586887031,-0.7543006303838439,0.6038579834524848,0.9462568261705798,0.253673410575733,-2.5015478071598114,6.058040527556763e-06,0.0045719956232870285,-0.02452655820714411,-0.0640608099352763,0.01137606043083439,0.06612457419019613,-0.0003102541643734691,-0.18707398094508498,1.0015811602714224,2.6178000381241877,-0.46365682651594575,-2.7020429444052363
0.41200000000000003,-0.9813258471201811,-0.7542838389931983,0.6037678898689383,0.9460215253311436,0.2537152055628442,-2.5013049252066057,4.481049933890979e-06,0.0038568254784876466,-0.020717469683476097,-0.05411868097802974,0.009615497509593562,0.055862406095785744,-0.00047824112725525225,-0.17051109145460597,0.9029631015608497,2.3532644405042933,-0.4166246341044677,-2.429041102793017
0.41600000000000004,-0.9813258330219106,-0.754269775780016,0.603692243695017,0.9458238767227556,0.25375033455580975,-2.501100907911045,2.232111509514745e-06,0.0032079068916501807,-0.017302853394657314,-0.04523469441124195,0.008043063357998648,0.04669224536785199,-0.0006462280710550772,-0.15394820196239223,0.8043450428363991,2.0887288428809296,-0.36959244169559174,-2.1560392611877366
0.42,-0.981325829263289,-0.7542581757380651,0.603629467041781,0.9456596477758537,0.2537795500697082,-2.500931387243663,-6.887746345496382e-07,0.0026252398627885087,-0.014282709340784905,-0.037408850234982305,0.0066587579760288285,0.03861409200628385,-0.0008142150165896256,-0.13738531246844377,0.7057269841136832,1.8241932452523617,-0.32256024928758315,-1.883037419589395
0.424,-0.9813258385321076,-0.7542487738611137,0.6035779820202907,0.9455246059208757,0.253803604619618,-2.500791995174995,-4.28160862320226e-06,0.0021088243919026306,-0.011657037521747848,-0.030641148449223055,0.0054625813636979825,0.03162794601113683,-0.0009822019812061322,-0.12082242297969947,0.6071089254048451,1.5596576476324675,-0.27552805687697246,-1.6100355779702369
0.428,-0.981325863516158,-0.7542413051429299,0.603536210741607,0.9454145185882599,0.2538232507206178,-2.500678363675574,-8.546390484198696e-06,0.001658660478950913,-0.009425837937546144,-0.024931589053922565,0.004454533521013049,0.025733807382521956,-0.0011501889336795745,-0.10425953348922046,0.5084908666873333,1.295122050007369,-0.22849586446636178,-1.3370337363441398
0.432,-0.9813259069032315,-0.7542355045772821,0.6035025753167903,0.9453251532084443,0.2538392408877861,-2.5005861247159347,-1.3483120092638856e-05,0.001274748123988867,-0.007589110588249182,-0.020280172049164102,0.0036346144479670883,0.020931676120383713,-0.0013181758826835699,-0.08769664399700672,0.4098728079698216,1.0305864523822705,-0.18146367205488373,-1.0640318947388594
0.436,-0.9813259713811188,-0.754231107157938,0.603475497856901,0.9452522772118666,0.2538523276362015,-2.5005109102666108,-1.9091797545667255e-05,0.0009570873269748592,-0.006146855473787571,-0.0166868974348644,0.003002824144573979,0.01722155222461108,-0.001480204439921473,-0.07125065865434821,0.3121924501883061,0.7687114244748355,-0.13490942119952914,-0.7937748714090254
0.44,-0.9813260596376119,-0.7542278478786663,0.603453400473,0.9451916580289654,0.2538632634809427,-2.5004483522981378,-2.532475561201064e-05,0.0007047428547540813,-0.005091570986742733,-0.014130480653365418,0.002555339078370855,0.01458147714911151,-0.0015562385182604777,-0.05649188958636864,0.22804543807139477,0.5452350035108078,-0.09525305005256973,-0.5631323702626201
0.444,-0.9813261739791637,-0.7542254692150999,0.6034347652890071,0.9451392333666396,0.2538727703488285,-2.500394258449418,-3.1541705691751076e-05,0.0005051522102839101,-0.004322491969216413,-0.012325017406777938,0.002240799744153421,0.01271649326251012,-0.001427978379639483,-0.0457413844804494,0.1760491481032911,0.4129808842991134,-0.0719837438050916,-0.4266007806036365
0.448,-0.9813263119712574,-0.754223806660984,0.6034188205372463,0.9450930578897112,0.2538811898788959,-2.5003466203520377,-3.6748582649126504e-05,0.0003388117789104861,-0.003683177801916404,-0.010826633578972511,0.0019794691279301224,0.011168670904282418,-0.0011243290985729626,-0.0384320240163355,0.15165465450106552,0.3590422500733548,-0.06278293737931734,-0.3708645834599178
0.452,-0.9813264679678249,-0.7542227587208686,0.6034052998665917,0.9450526202980079,0.25388860610185193,-2.5003049090821836,-4.053633848033478e-05,0.00019769601815322613,-0.003109254733207889,-0.0094526794061911,0.0017385362451188824,0.009749576594830778,-0.0007685983134664287,-0.032144505335285345,0.13545646521638532,0.32835925980849445,-0.05775974694626623,-0.33912043436584716
0.456,-0.9813266362619653,-0.7542222250928388,0.6033939464993806,0.9450174364544617,0.25389509816885686,-2.500268623739279,-4.2897369156857934e-05,8.165573622820332e-05,-0.0025995260801853215,-0.008199759500504555,0.0015173911523599926,0.008455707429355641,-0.00041191703520349066,-0.025875635620287163,0.11940786130183734,0.29810069301396125,-0.052812799435780766,-0.30781414837172116
0.46,-0.9813268111467781,-0.7542221054749788,0.6033845036579503,0.9449870222220038,0.2539007452310708,-2.5002372634227488,-4.38316747619627e-05,-9.309066809071176e-06,-0.0021539918427931903,-0.00706787386207941,0.0013160338496326363,0.0072870634078570085,-5.5235756940552605e-05,-0.01960676590008481,0.1033592573907588,0.267842126207285,-0.04786585192616266,-0.27650786238453406
0.464,-0.9813269869153634,-0.7542222995653732,0.6033767145646383,0.944960893463565,0.2539056264396539,-2.500210327232016,-4.3339255212382355e-05,-7.519839097247516e-05,-0.0017726520210592511,-0.0060570224908462755,0.0011344643369506913,0.006243644530279369,0.0003014455317307263,-0.013337896179882458,0.08731065347447609,0.23758355940581288,-0.04291890441741192,-0.24520157639040807
0.468,-0.9813271578608198,-0.7542227070621066,0.6033703224417818,0.944938566042077,0.2539098209457664,-2.5001873142665065,-4.142011050811689e-05,-0.00011601223624813084,-0.0014555066149973817,-0.005167205386832907,0.0009726826142933409,0.005325450796733744,0.0006581268082589409,-0.0070690264631495525,0.07126204956166282,0.20732499260260606,-0.03797195690952854,-0.21389529038934318
0.47200000000000003,-0.9813273182762474,-0.7542232276632632,0.6033650705117183,0.9449195558204704,0.25391340790056827,-2.5001677236256423,-3.807424074631083e-05,-0.00013175060267767158,-0.0012025556245659486,-0.004398422550025427,0.000830688681674463,0.004532482207164623,0.0010148080882566024,-0.0008001567481513705,0.05521344565058428,0.17706642580980758,-0.03302500939817571,-0.18258900440215609
0.47600000000000003,-0.9813274624547458,-0.754223761066928,0.6033607019967853,0.9449033786616768,0.2539164664552198,-2.500151054408849,-3.330164580206407e-05,-0.0001224134902333418,-0.0010137990497927074,-0.0037506739803544464,0.0007084825391079352,0.003864738761516495,0.0013714893786626048,0.005468712968581535,0.03916484173603629,0.14680785901874382,-0.02807806188682288,-0.15128271842190788
0.48,-0.9813275846894138,-0.7542242069711851,0.6033569601193199,0.9448895504286275,0.25391907576088113,-2.50013680571555,-2.710232571700999e-05,-8.80008989290193e-05,-0.0008892368906776582,-0.0032239596778754764,0.0006060641865798799,0.00332222045978936,0.0017281706551908194,0.01173758268011027,0.023116237826692476,0.116549292215537,-0.023131114375470052,-0.11997643243472078
0.484,-0.9813276792733515,-0.7542244650741194,0.6033535881016598,0.9448775869842538,0.25392131496871245,-2.500124476645171,-1.9476280560537518e-05,-2.8512828792459644e-05,-0.0008288691471791676,-0.0028182796426301504,0.0005234336241041748,0.002904927302038729,0.0020848519334537574,0.018006452402047346,0.007067633910409765,0.08629072540539129,-0.01818416686671931,-0.0886701464336559
0.488,-0.9813277404996583,-0.7542244350738154,0.6033503291661425,0.9448670041914865,0.25392326322987396,-2.500113566297134,-1.042351024937993e-05,5.605072028735947e-05,-0.0008326958193943801,-0.002533633874632346,0.00046059085164612545,0.002612859288320113,0.00244153322385976,0.02427532212745387,-0.008980970009342393,0.05603215860912336,-0.01323721935970329,-0.0573638604395299
0.492,-0.9813277626614335,-0.7542240166683571,0.6033469265351047,0.9448573179132568,0.2539249996955256,-2.5001035737708643,5.5985230340560577e-08,0.0001656897482271713,-0.0009007169072539067,-0.0023700223737571635,0.0004175358692265485,0.0024460164185224897,0.0027982145073268683,0.030544191840717327,-0.025029573922155657,0.025773591819794328,-0.008290271849217823,-0.026057574445403908
0.496,-0.9813277400517765,-0.7542231095558296,0.6033431234308845,0.9448480440124964,0.2539266035168278,-2.5000939981657857,1.1962205809235016e-05,0.0003004042550130981,-0.0010329324107716253,-0.0023274451400739915,0.00039426867685238287,0.0024043986927568817,0.0031548957855898063,0.036813061559184956,-0.041078177836703644,-0.0044849749886166634,-0.003343324339599718,0.005248711534844297
0.5,-0.981327666963787,-0.754221613434317,0.6033386630758185,0.9448386983521362,0.25392815384494044,-2.5000843385813223,2.529515151505901e-05,0.00046019424070065096,-0.001229342329947536,-0.002405902173666097,0.00039078927450975076,0.002488006110801244,0.003511577062118021,0.043081931272448415,-0.057126781742578014,-0.03474354179008876,0.0016036231717531102,0.0365549975150925
0.504,-0.9813275376905644,-0.754219428001904,0.6033332886922449,0.9448287967951071,0.25392972983102385,-2.5000740941168993,4.005482230617918e-05,0.0006450597051926854,-0.0014899466647122495,-0.0026053934743947016,0.00040709766222640775,0.0026968386728776217,0.003868258343850406,0.04935080098571187,-0.073175385657126,-0.06500210857768307,0.0065505706831059385,0.06786128352309628
0.508,-0.9813273465252086,-0.7542164529566755,0.6033267435025008,0.944817855204341,0.25393141062623825,-2.5000627638719393,5.624121826586226e-05,0.000855000648586346,-0.001814745415204544,-0.0029259190422875614,0.00044319383997459827,0.0030308963789860144,0.004224939637725855,0.05561967071458784,-0.08922398958208233,-0.09526067538609406,0.011497518189254596,0.09916756952416117
0.512,-0.9813270877608182,-0.7542125879967153,0.6033187707289233,0.9448053894427688,0.25393327538174365,-2.5000498469458674,7.385433940798602e-05,0.0010900170709093882,-0.002203738581368908,-0.003367478877483454,0.0004990778077404445,0.003490179229070911,0.004581620917723517,0.06188854043305547,-0.10527259348969142,-0.12551924218930088,0.0164444656988727,0.13047385550440938
0.516,-0.9813267556904933,-0.7542077328201082,0.6033091135938499,0.9447909153733212,0.2539354032487002,-2.5000348424381067,9.289418560765039e-05,0.0013501089720507897,-0.0026569261631220753,-0.0039300729798019685,0.0005747495655655799,0.004074687223021289,0.0049315794382193134,0.06805551524061149,-0.12110665038693458,-0.15543663437964095,0.021339264516875844,0.161426631034578
0.52,-0.9813263446073334,-0.7542017871249389,0.6032975153196183,0.9447739488589304,0.2539378733782682,-2.5000172494480832,0.00011330697491374053,0.00163446119283428,-0.0031725917844643847,-0.004610971952520582,0.0006697919238754513,0.004781592277347535,0.005112874512658294,0.07166610256105488,-0.13155805012390887,-0.17679447651512692,0.024925732078177887,0.1835103690603357
0.524,-0.981325849234694,-0.7541946571305655,0.6032837328595742,0.944754027597701,0.2539407615840912,-2.499996589699888,0.00013379718170891675,0.0019234377925392288,-0.0037093905641133462,-0.005344428791922984,0.000774155422191003,0.005542770175503975,0.004821461787110626,0.06811198254019768,-0.12692364481300955,-0.17416273515903635,0.024845380527244165,0.1807371327391949
0.528,-0.9813252742298797,-0.7541863996225986,0.6032678401951054,0.944731193428595,0.2539440666216457,-2.499972907286679,0.00015187866921062554,0.0021793570531558615,-0.004187980942968461,-0.0060042738337928725,0.0008685549680934046,0.006227489339261094,0.004056943848571026,0.05738713195445333,-0.1071907521667248,-0.1475212428186934,0.021095127262192592,0.1530860253701194
0.532,-0.9813246342053403,-0.7541772222741403,0.6032502290120304,0.9447059934070307,0.2539477100238359,-2.499946769785174,0.00016625273249748496,0.0023825348481748554,-0.004566916581447145,-0.006524598734472531,0.0009429164402885437,0.00676745837846493,0.0031232988105533988,0.044098866790881486,-0.08206040635547196,-0.11229667167683699,0.016032946371577483,0.11654150099821292
0.536,-0.9813239442080197,-0.7541673393438132,0.6032313048624538,0.9446789966387192,0.253951609953168,-2.4999187676196515,0.00017686505969505273,0.0025321479874829134,-0.004844464193812237,-0.006902647207207568,0.0009968185390660245,0.0071598213472467975,0.002182864786495764,0.03070770286835167,-0.05671339982707413,-0.0767275646941512,0.010918103018030256,0.07963998341353751
0.54,-0.9813232192848628,-0.7541569650902404,0.6032114732984799,0.944650772229373,0.25395568457214845,-2.499889491214396,0.00018371565078945107,0.0026281964711216688,-0.005020623780063738,-0.007138419252025741,0.0010302612644327858,0.00740457824577323,0.001242430779785364,0.017316538959699646,-0.03136639330041102,-0.041158457727077935,0.005803259661880944,0.04273846587743435
0.544,-0.9813224744828134,-0.7541463137720442,0.6031911398722133,0.944621889284703,0.2539598520432835,-2.4998595309936853,0.00018680450593333564,0.0026706802991605105,-0.005095395340215525,-0.007231914869024192,0.001043244616361072,0.007501729074266272,0.00030199678348330483,0.003925375049312896,-0.006019386775482638,-0.005589350765208834,0.0006884163031295465,0.005836948320514512
0.548,-0.9813217248488153,-0.7541355996478472,0.6031707101357582,0.9445929169104208,0.25396403052907934,-2.4998294773818017,0.0001861316250573175,0.002659599471516172,-0.005068778874267599,-0.007183134058147411,0.0010357685948578221,0.007451273832337346,-0.000638437237104883,-0.009465788878421089,0.019327619754649916,0.029979756215742226,-0.004426427050417681,-0.031064569271099796
0.552,-0.9813209854298129,-0.7541250369762721,0.6031505896412191,0.9445644242122379,0.25396813819204234,-2.4997999208030266,0.00018169700803649658,0.002594953988133142,-0.004940774382178326,-0.006992076819298254,0.0010078331999577306,0.007253212520097474,-0.0015788712524889004,-0.022856952795746732,0.04467462628478247,0.06554886319322384,-0.00954127040483227,-0.06796608683495853
0.556,-0.981320271272751,-0.7541148400159421,0.6031311839407008,0.9445369802958664,0.253972093194679,-2.499771451681641,0.0001735006550374063,0.002476743849150198,-0.004711381863989339,-0.0066587431526016205,0.000959438431619164,0.006907545137657678,-0.002519305257464577,-0.03624811670613348,0.07002163280971085,0.10111797015682766,-0.014656113762716305,-0.10486760440575615
0.56,-0.9813195974245726,-0.7541052230254789,0.6031128985863072,0.944511154267017,0.2539758136994953,-2.4997446604419253,0.00016154256597677996,0.002304969054484074,-0.004380601319700639,-0.006183133058043633,0.0008905842898560001,0.006414271684851425,-0.0034597392815222117,-0.04963928063213274,0.09536863934331286,0.136687077136044,-0.01977095711539617,-0.14176912200430936
0.5640000000000001,-0.9813189789322232,-0.7540964002635062,0.6030961391301431,0.9444875152314021,0.25397921786899785,-2.499720137508162,0.0001458227407852286,0.002079629604093136,-0.003948432749242836,-0.0055652465355132685,0.0008012707746959946,0.005773392161623203,-0.004400173288232612,-0.06303044454251949,0.12071564587518013,0.1722561841135256,-0.024885800472412845,-0.1786706395542903
0.5680000000000001,-0.9813184308426464,-0.7540885859886461,0.6030813111243133,0.9444666322947329,0.25398222386569286,-2.4996984733046324,0.00012634117967091907,0.001800725498143918,-0.0034148761526991978,-0.004805083585135428,0.0006914978860766974,0.004984906568417102,-0.005340607286269394,-0.07642160845117152,0.1460626523914349,0.20782529107712944,-0.030000643832031604,-0.21557215707651567
0.5720000000000001,-0.9813179682027858,-0.7540819944595211,0.6030688201209216,0.944449074562721,0.25398474985208647,-2.499680258255615,0.00010309788249507346,0.001468256736483764,-0.002779931530111357,-0.003902644206896233,0.0005612656240397418,0.004048814905011078,-0.006281041305122859,-0.08981277238064023,0.17140965891983273,0.24339439804940688,-0.03511548718557883,-0.25247367466813
0.5760000000000001,-0.9813176060595864,-0.7540768399347543,0.6030590716720724,0.9444354111410778,0.2539867139906852,-2.4996660827853923,7.60928492299362e-05,0.0010822233190987962,-0.002043598881340536,-0.002857928400740173,0.00041057398859206673,0.0029651171710720625,-0.0072214753187721525,-0.10320393629449642,0.1967566654586389,0.27896350502341904,-0.04023033053999342,-0.2893751922528054
0.58,-0.981317359459992,-0.7540733366729683,0.6030524713298708,0.9444262111355151,0.2539880344439952,-2.499656537318246,4.5326079944896236e-05,0.0006426252461277926,-0.0012058782064422457,-0.0016709361667088807,0.00023942297971979443,0.0017338133669886346,-0.008161909327217276,-0.11659510020141373,0.22210367198183256,0.31453261199222704,-0.04534517389614273,-0.32627670980278634
0.584,-0.9813172434509468,-0.7540716989327853,0.6030494246464209,0.9444220436517441,0.25398862937452293,-2.4996522122784564,1.0797574612197991e-05,0.0001494625174874864,-0.0002667695054858754,-0.0003416675048023565,4.7812597422924874e-05,0.00035490349264977183,-0.009102343339131846,-0.12998626412567826,0.24745067850676095,0.3501017189662392,-0.050460017252292044,-0.36317822737358396
0.588,-0.9813172730793951,-0.7540721409728284,0.603050337173827,0.9444234777954766,0.2539884169447746,-2.499653698090305,-2.7492666768158536e-05,-0.0003972648668776335,0.0007737272216118418,0.001129877585021033,-0.00016425715829854193,-0.001171612452000037,-0.010042777356250587,-0.1433774280499428,0.2727976850438324,0.38567082594719027,-0.05557486060670663,-0.40007974496519827
0.592,-0.981317463392281,-0.7540748770517203,0.6030556144641938,0.9444310826724243,0.25398731531725655,-2.4996615851780724,-6.954464423780671e-05,-0.000997556906912056,0.0019156119748647837,0.0027436991027751656,-0.0003967862874307282,-0.0028457344670718143,-0.010983211369899881,-0.15676859196726844,0.29814469157396495,0.42123993292120243,-0.060689703961988584,-0.4369812625429348
0.596,-0.981317829436549,-0.7540801214280837,0.6030656620696259,0.9444454273882988,0.25398524265447514,-2.4996764639660416,-0.00011535835772735759,-0.001651413602615781,0.0031588847542035614,0.004499797048390652,-0.0006497747899944506,-0.004667462552343515,-0.011923645373140834,-0.17015975587592047,0.32349169809195444,0.45680903988480626,-0.06580454731987262,-0.47388278007209905
0.6,-0.9813183862591428,-0.7540880883605412,0.6030808855422274,0.9444670810488114,0.2539821171189366,-2.499698924878491,-0.00016493380722293338,-0.0023588349539194198,0.004503545559600419,0.006398171421853616,-0.0009232226659897091,-0.006636796707648607,-0.012864079381585958,-0.1835509197845725,0.34883870461861755,0.4923781468570837,-0.07091939067602193,-0.5107842976359578
0.604,-0.9813191489070068,-0.754098992107715,0.6031016904341027,0.9444966127596737,0.2539778568731472,-2.499729558339703,-0.00021827099278004525,-0.003119820960892361,0.005949594391152502,0.008438822223247322,-0.001217129915402626,-0.008753736933431178,-0.013804513391765805,-0.19694208370883703,0.37418571115221955,0.5279472538293611,-0.07603423403043652,-0.5476858152275721
0.608,-0.981320132427085,-0.7541130469282283,0.6031284822973566,0.9445345916265974,0.25397238007961337,-2.4997689547739586,-0.0002753699143570598,-0.003934371623590116,0.007497031248818176,0.010621749452488505,-0.0015314965382332013,-0.011018283229469183,-0.014744947408884546,-0.21033324763310157,0.3995327176823521,0.563516360805108,-0.08114907738571847,-0.5845873327844919
0.612,-0.9813213518663216,-0.7541304670807037,0.6031616666840932,0.9445815867552936,0.25396560490084136,-2.4998177046055385,-0.0003362305720511216,-0.004802486941957174,0.009145856132611319,0.012946953109688186,-0.0018663225344883738,-0.013430435595707113,-0.015685381420799116,-0.2237244115417536,0.4248797242090152,0.5990854677791202,-0.08626392074273515,-0.6214888503414118
0.616,-0.9813228222716615,-0.754151466823764,0.6032016491464175,0.9446381672514749,0.25395744949933746,-2.499876398258724,-0.00040085296572345275,-0.005724166915924145,0.010896069042490297,0.015414433194721466,-0.0022216079041750825,-0.015990194032200478,-0.01662576484991185,-0.23711500628069426,0.4502257502786433,0.6346530674883333,-0.09137869267338006,-0.6583888110048286
0.62,-0.9813245586900474,-0.7541762604160311,0.6032488352364331,0.9447049022208514,0.25394783203760796,-2.499945626157796,-0.0004692366908504164,-0.006699406992202728,0.012747662134840465,0.018024177649594852,-0.0025973520758754143,-0.018697546083745742,-0.017557633869361156,-0.2504097765584218,0.47540670927020967,0.6699669099358152,-0.09648143945925614,-0.6950266539101912
0.624,-0.9813265761651883,-0.7542050620797016,0.6033036304434962,0.9447823606726716,0.25393667068273046,-2.500025978627394,-0.000541314036678342,-0.007727445128391519,0.014699322716651975,0.020774168474207988,-0.0029934594198491316,-0.021550407263482008,-0.018454878422322074,-0.2633148705501187,0.49991641255450747,0.7042488323876633,-0.10153528524382838,-0.7305985783995217
0.628,-0.9813288892023408,-0.7542380799770583,0.6033664298181663,0.944871095568645,0.25392388436224916,-2.500118029415904,-0.000616875718228993,-0.008805925956603677,0.016746993435276525,0.02365816830869616,-0.0034096343578260413,-0.024542334710941915,-0.01930596475914481,-0.2757004833545823,0.5235312584249419,0.7371550923961773,-0.10652394063798837,-0.7647495168724983
0.632,-0.9813315111709341,-0.7542755094873544,0.6034376063909784,0.9449716260191412,0.25390939360786785,-2.5002223173050817,-0.0006957617547515005,-0.009933048995228178,0.01888757278405151,0.026671409213377406,-0.0038456509449530385,-0.027668403398461994,-0.020134803236163124,-0.2878357105995377,0.5467147905311581,0.7693982946727074,-0.11148117481148828,-0.798215551996162
0.636,-0.9813344552963789,-0.7543175443690201,0.6035175304004388,0.945084466842352,0.25389311915468954,-2.5003393766430917,-0.000777954144118298,-0.01110861164139998,0.02112071175952579,0.029813354666077818,-0.0043014837563179475,-0.03092805912691121,-0.020961391452439804,-0.29994561249156726,0.5698546972215945,0.8015744316861723,-0.1164352308718336,-0.8316123122562025
0.64,-0.981337734804087,-0.7543643783804856,0.6036065720850546,0.9452101328564698,0.2538749817378173,-2.500469741778097,-0.0008634528863710189,-0.012332613895160716,0.023446410361824266,0.033084004666866784,-0.004777132791927707,-0.03432130189651161,-0.021787979663512314,-0.31205551438012735,0.5929946039172351,0.8337505687083108,-0.12138928693131157,-0.8650090725439985
0.644,-0.9813413629194698,-0.7544162052801814,0.6037051016833334,0.945349138879687,0.2538549020923541,-2.500613947058264,-0.0009522579814263965,-0.013605055756440998,0.02586466859086367,0.036483359215744304,-0.00527259805176844,-0.0378481317072632,-0.022614567864176482,-0.3241654162582791,0.6161345106059368,0.8659267057200409,-0.12634334298992217,-0.8984058328109779
0.648,-0.9813453528679384,-0.7544732188265372,0.6038134894337815,0.9455019997301958,0.25383280095340316,-2.500772526831755,-0.0010443694292844308,-0.014925937225226948,0.02837548644667176,0.04001141831262711,-0.005787879535847085,-0.041508548558999436,-0.023441156082187886,-0.3362753181485739,0.6392744173033121,0.8981028427283017,-0.13129739904940013,-0.931802593091835
0.652,-0.9813497178749041,-0.7545356127779832,0.6039321055749067,0.945669230226188,0.25380859905606734,-2.500946015446736,-0.0011397872300838996,-0.01629525830162959,0.030978863929290168,0.04366818195757072,-0.006322977244163641,-0.04530255245199788,-0.024267744298464566,-0.3483852200440729,0.662414323997218,0.9302789797504402,-0.13625145510714337,-0.9651993533865699
0.656,-0.9813544711657791,-0.7546035808929502,0.6040613203452159,0.9458513451858563,0.25378221713544985,-2.501134947251371,-0.0012385113836721473,-0.01771301898557953,0.033674801038649504,0.04745365015063063,-0.006877891176704232,-0.049230143386091996,-0.02509433249565929,-0.3604951219239594,0.6855542306824502,0.9624551167691092,-0.1412055111674887,-0.9985961136535493
0.66,-0.9813596259659735,-0.7546773169298678,0.6042015039832159,0.946048859427393,0.2537535759266537,-2.5013398565938245,-0.001340541890049174,-0.019179219277021264,0.03646329777474977,0.05136782289172359,-0.007452621333503551,-0.053291321361226274,-0.025920920715405416,-0.3726050238159889,0.7086941373798256,0.9946312537808394,-0.14615956722956874,-1.0319928739482842
0.664,-0.9813651955008995,-0.7547570146471664,0.6043530267274139,0.9462622877689901,0.2537225961647818,-2.501561277822261,-0.0014458787493953906,-0.020693859176107443,0.03934435413768811,0.05541070018087735,-0.008047167714540782,-0.05748608637767827,-0.026747508926477925,-0.38471492570801846,0.7318340440754662,1.0268073907943043,-0.15111362328817934,-1.0653896342291413
0.668,-0.9813711929959686,-0.7548428678032767,0.6045162588163174,0.94649214502884,0.2536891985849374,-2.501799745284846,-0.0015545219614609973,-0.022256938682685412,0.0423179701273535,0.059582282018078025,-0.008661530319808985,-0.061814438435059404,-0.027574097121937924,-0.39682482758270077,0.7549739507589637,1.0589835278095039,-0.15606767934678994,-1.0987863944683651
0.672,-0.9813776316765912,-0.7549350701566279,0.6046915704884327,0.9467389460251348,0.25365330392222335,-2.5020557933297414,-0.001666471526370894,-0.02386845779676905,0.04538414574375982,0.06388256840335338,-0.009295709149315101,-0.06627637753342519,-0.028400685343418774,-0.4089347294747303,0.778113857456339,1.0911596648229687,-0.16102173540540055,-1.1321831547631
0.676,-0.9813845247681796,-0.7550338154656508,0.6048793319822675,0.9470032055760669,0.25361483291174286,-2.5023299563051133,-0.0017817274442083475,-0.025528416518483255,0.04854288098700421,0.06831155933666178,-0.00994970420305219,-0.0708719036731642,-0.029227273559695455,-0.421044631371964,0.8012537641537143,1.1233358018364337,-0.16597579146401115,-1.1655799150647739
0.68,-0.9813918854961449,-0.7551392974887757,0.6050799135363287,0.947285438499828,0.25357370628859893,-2.5026227685591267,-0.0019002897148484577,-0.02723681484774476,0.05179417585698953,0.07286925481804485,-0.01062351548102719,-0.07560101685394338,-0.03005386176382907,-0.43315453325531994,0.8243936708406813,1.1555119388603068,-0.17092984752435647,-1.1989766753248143
0.684,-0.9813997270858984,-0.7552517099844328,0.6052936853891234,0.9475861596146112,0.25352984478789464,-2.502934764439945,-0.00202215833831898,-0.028993652784525814,0.05513803035372966,0.07755565484754423,-0.011317142983247042,-0.08046371707576272,-0.030880449973166857,-0.44526443513867586,0.8475335775345871,1.1876880758755064,-0.1758839035847018,-1.2323734355987326
0.6880000000000001,-0.9814080627628514,-0.7553712467110519,0.6055210177791586,0.9479058837386084,0.25348316914473296,-2.503266478295733,-0.0021473333146337925,-0.030798930328854168,0.05857444447726623,0.0823707594250489,-0.012030586709704805,-0.08546000433873324,-0.03170703818423937,-0.4573743370289707,0.870673484228493,1.2198642128837671,-0.1808379596433124,-1.2657701958934675
0.6920000000000001,-0.9814169057524155,-0.7554981014270636,0.6057622809449416,0.9482451256900116,0.253433600094217,-2.5036184444746548,-0.002275814643792895,-0.03265264748075758,0.062103418227557605,0.08731456855061437,-0.01276384666039354,-0.09058987864291046,-0.032533626390107706,-0.46948423891753077,0.8938133909171947,1.2520403498989667,-0.18579201570279036,-1.2991669561743246
0.6960000000000001,-0.9814262692800018,-0.755632467890898,0.606017845124979,0.9486044002870133,0.2533810583714498,-2.503991197324876,-0.002407602325754654,-0.034554804240194414,0.06572495160460379,0.09238708222424064,-0.013516922835327128,-0.09585333998812784,-0.03336021460291494,-0.48159414080609086,0.9169532976093658,1.2842164869124317,-0.19074607176313568,-1.332563716434365
0.7000000000000001,-0.9814361665710215,-0.7557745398609852,0.6062880805577784,0.9489842223478056,0.2533254647115344,-2.50438527119456,-0.0025426963606162145,-0.036505400607206306,0.06943904460843253,0.09758830044591382,-0.014289815234498626,-0.10125038837438538,-0.03418680281572217,-0.4937040426911815,0.940093204301537,1.3163926239276313,-0.19570012782261365,-1.3659604767082834
0.704,-0.9814466108508867,-0.7559245110957556,0.6065733574818465,0.9493851066905806,0.2532667398495738,-2.504801200431871,-0.0026810967482804315,-0.038504436581723867,0.07324569723901608,0.10291822321566169,-0.015082523857908037,-0.1067810238017941,-0.03501339102159051,-0.5058139445728027,0.9632331109971776,1.3485687609445656,-0.20065418388122425,-1.3993572369891405
0.708,-0.9814576153450078,-0.756082575353639,0.6068740461356905,0.9498075681335308,0.2532048045206711,-2.505239519384974,-0.0028228034887889386,-0.04055191216378873,0.07714490949640995,0.10837685053347035,-0.01589504870554842,-0.1124452462702985,-0.03583997923613247,-0.5179238464683017,0.9863730176945529,1.3807448979632346,-0.20560823993983485,-1.4327539972908143
0.712,-0.981469193278797,-0.756248926393066,0.6071905167578178,0.9502521214948484,0.25313957945992943,-2.5057007624020335,-0.0029678165821694913,-0.04264782735347028,0.0811366813805725,0.11396418239936756,-0.016727389777426716,-0.11824305578012062,-0.0366665674489397,-0.5300337483603312,1.0095129243815197,1.412921034980169,-0.21056229600018017,-1.4661507575786104
0.716,-0.9814813578776651,-0.7564237579724667,0.6075231395867351,0.9507192815927258,0.2530709854024517,-2.506185463831215,-0.0031161360283804562,-0.04479218215067138,0.08522101289146211,0.1196802188133117,-0.01757954707354986,-0.12417445233092739,-0.03749315565827749,-0.5421436502402177,1.0326528310702214,1.4450971719884298,-0.21551635205965813,-1.499547517824773
0.72,-0.981494122367024,-0.7566072638502713,0.6078722848609495,0.9512095632453549,0.25299894308334103,-2.506694158020681,-0.003267761827435711,-0.04698497655539202,0.08939790402913428,0.125524959775275,-0.01845152059390398,-0.1302394359227188,-0.038319743862411104,-0.5542535521253084,1.0557927377675969,1.47727330900016,-0.2204704081191361,-1.5329442780986913
0.724,-0.9815074999722846,-0.7567996377849099,0.6082383228189682,0.951723481270928,0.2529233732377005,-2.507227379318597,-0.003422693979279745,-0.049226210567673845,0.09366735479360289,0.13149840528531298,-0.01934331033850295,-0.13643800655571692,-0.03914633207521834,-0.5663634540208073,1.0789326444615026,1.5094494460205636,-0.22542446417861406,-1.5663410383934262
0.728,-0.9815215039188583,-0.7570010735348127,0.6086216236992983,0.9522615504876374,0.252844196600633,-2.5077856620731267,-0.003580932484037458,-0.05151588418755848,0.0980293651848263,0.1376005553434395,-0.020254916307332893,-0.14277016422986621,-0.03997292029322974,-0.5784733559128369,1.1020725511519391,1.5416255830427021,-0.2303785202363573,-1.5997377986812222
0.732,-0.9815361474321569,-0.7572117648584104,0.6090225577404468,0.9528242857136755,0.2527613339072418,-2.508369540632436,-0.003742477341625583,-0.05385399741497654,0.1024839352028184,0.1438314099496546,-0.02118633850039381,-0.1492359089451667,-0.04079950849215919,-0.5905832577927234,1.1252124578423754,1.5738017200526977,-0.23533257629756998,-1.6331345589412627
0.736,-0.9815514437375913,-0.7574319055141325,0.6094414951809208,0.9534122017672346,0.25267470589262986,-2.508979549344688,-0.003907328551974731,-0.05624055024990027,0.1070310648475653,0.1501909691038611,-0.022137576917713453,-0.15583524070139632,-0.041616274324210445,-0.6025052044326962,1.1479787777098764,1.6055274215196618,-0.24017371895359435,-1.6660613900779109
0.74,-0.9815674060605727,-0.7576616892604096,0.6098788062592273,0.9540258134665064,0.2525842332919001,-2.509616222558047,-0.0040754075362192665,-0.05867403905043811,0.11166776542449741,0.1566756293218119,-0.023107728252022564,-0.16256440006578998,-0.04232800006678805,-0.6124171651727267,1.1667499749644372,1.632436183280142,-0.24380737015904097,-1.6939628178017085
0.744,-0.981584046997881,-0.757901297826536,0.6103348373043168,0.9546656068018091,0.2524898440666137,-2.5102800645452144,-0.004245952552509036,-0.06113988757128208,0.1163650646472808,0.16325045857010223,-0.02408803587898578,-0.16938694324380998,-0.04281518373172588,-0.6180324204768661,1.176980880951417,1.6490478722906015,-0.24485979179759282,-1.7111215441234506
0.748,-0.9816013736809928,-0.7581508083609798,0.6108097267764055,0.9553318171350672,0.2523915290048682,-2.5109713181039974,-0.004417929006073074,-0.06361829841425304,0.12108361247210875,0.1698680123001367,-0.025066606586403306,-0.1762533724187776,-0.043128752236221146,-0.6203254776637052,1.1806084625979456,1.6576978994573692,-0.2439164154587406,-1.7199740500600802
0.752,-0.9816193904299296,-0.7584102442138501,0.6113035062040937,0.9560245509002102,0.25228931121392245,-2.5116900915245646,-0.004590982570398805,-0.06610249139259172,0.12580993234806437,0.17651204176576119,-0.026039367202655705,-0.18314673564429063,-0.043397668078939966,-0.6217640875095382,1.1825377130101482,1.6643002399892997,-0.24245973310587504,-1.7266902512108606
0.756,-0.981638101541556,-0.7586796282921205,0.6118162062351901,0.9567439134691933,0.252183214067247,-2.5124364919891518,-0.004765110350704593,-0.06859241111432934,0.13054391417618993,0.1831824142200511,-0.027006284451250306,-0.19006689442846447,-0.04366622206875004,-0.6231957733714155,1.1844532010439612,1.6708859871504556,-0.2409988911940275,-1.733389140855246
0.76,-0.9816575113127353,-0.7589589835027647,0.6123478575175032,0.9574900102139706,0.25207326093831245,-2.5132106266799923,-0.004940312346948805,-0.07108805757956305,0.13528555795641606,0.18987912966296483,-0.027967358332207926,-0.1970138487711326,-0.04393477606029483,-0.6246274592437012,1.1863686890708351,1.6774717343116112,-0.23953804928304734,-1.7400880304996313
0.764,-0.9816776240403315,-0.759248332752757,0.6128984906988414,0.958262946506497,0.2519594752005893,-2.514012602779321,-0.005116588559186952,-0.07358943078827895,0.14003486368875662,0.196602188094544,-0.028922588845514685,-0.20398759867246152,-0.044203330060513246,-0.6260591451073133,1.1882841771029133,1.6840574814727671,-0.23807720737033244,-1.7467869201578945
0.768,-0.9816984440212088,-0.7595476989490709,0.6134681364270133,0.959062827718727,0.25184188022754833,-2.514842527469372,-0.005293938987432911,-0.07609653074042155,0.14479183137323937,0.20335158951474697,-0.029871975991170585,-0.21098814413239575,-0.044471884058996936,-0.6274908309691907,1.1901996651401958,1.6906432286321882,-0.23661636545761755,-1.7534858098230965
0.772,-0.981719975552231,-0.7598571049986804,0.6140568253498273,0.959889759222615,0.25172049939265995,-2.51570050793238,-0.0054723636316589275,-0.07860935743603248,0.14955646100987818,0.2101273339236015,-0.030815519769175626,-0.2180154851510463,-0.04474043805401118,-0.6289225168328028,1.1921151531740086,1.6972289757950787,-0.23515552354490266,-1.7601846994813597
0.776,-0.981742222930262,-0.7601765738085592,0.6146645881150923,0.9607438463901158,0.2515953560693949,-2.5165866513505804,-0.005651862491865001,-0.08112791087508398,0.15432875259863144,0.2169294213211076,-0.031753220179529806,-0.22506962172824663,-0.04500899205249487,-0.6303542026981496,1.1940306412026174,1.7038147229544998,-0.2336946816356572,-1.7668835891188062
0.78,-0.9817651904521659,-0.7605061282856811,0.6152914553706164,0.9616251945931839,0.2514664736312237,-2.517501064906206,-0.005832435568078886,-0.08365219105761768,0.15910870613949912,0.2237578517072375,-0.03268507722226088,-0.23215055386399674,-0.045277546045774386,-0.6317858885652311,1.195946129232961,1.7104004701139208,-0.2322338397255444,-1.7735824787770693
0.784,-0.9817888824148067,-0.7608457913370201,0.6159374577642083,0.9625339092037737,0.25133387545161684,-2.5184438557814923,-0.006014082860231196,-0.08618219798360582,0.16389632163249512,0.23061262508201896,-0.03361109089733416,-0.23925828155846318,-0.04554610003558446,-0.6332175744253737,1.1978616172633043,1.7169862172768113,-0.23077299781196214,-1.7802813684283936
0.788,-0.9818133031150478,-0.7611955858695499,0.6166026259436763,0.96347009559384,0.25119758490404503,-2.5194151311586737,-0.006196804368363562,-0.08871793165302067,0.16869159907760556,0.237493741445452,-0.03453126120475658,-0.2463928048114239,-0.04581465403580287,-0.6346492602889858,1.1997771052971173,1.723571964437967,-0.22931215590098197,-1.7869802580797178
0.792,-0.9818384568497536,-0.7615555347902443,0.6172869905568291,0.9644338591353373,0.2510576253619788,-2.5204149982199837,-0.006380600092517619,-0.09125939206591771,0.17349453847487206,0.2444012007975227,-0.03544558814454202,-0.2535541236231009,-0.04608320803428656,-0.6360809461578021,1.2016925933343996,1.730157711599123,-0.22785131398913444,-1.7936791477587977
0.796,-0.9818643479157879,-0.7619256610060773,0.6179905822514753,0.9654253052002202,0.2509140201988887,-2.5214435641476585,-0.0065654700326378546,-0.09380657922228308,0.17830513982428076,0.251335003138245,-0.036354071716669656,-0.2607422379934943,-0.04635176202409663,-0.6375126320214142,1.2036080813664778,1.736743458758544,-0.22639047207641955,-1.8003780373962441
0.8,-0.9818909806100147,-0.7623059874240226,0.6187134316754234,0.9664445391604433,0.25076679278824543,-2.5225009361239317,-0.006751414188710392,-0.09635949312208902,0.18312340312580389,0.25829514846759105,-0.037256711921153374,-0.2679571479222709,-0.046620316019110875,-0.6389443178850263,1.205523569393352,1.7433292059162302,-0.22492963016543938,-1.8070769270336906
0.804,-0.9819183592292976,-0.762696536951054,0.6194555694764817,0.9674916663879609,0.25061596650351947,-2.5235872213310366,-0.0069384325607907416,-0.09891813376536329,0.18794932837942757,0.2652816367855748,-0.03815350875799317,-0.2751988534097638,-0.04688887001932929,-0.6403760037469036,1.2074390574219607,1.7499149530756513,-0.2234687882544592,-1.8137758167058315
0.808,-0.981946488070501,-0.7630973324941455,0.6202170263024588,0.9685667922547279,0.2504615647181815,-2.52470252695121,-0.007126525148865026,-0.10148250115206425,0.19278291558517957,0.27229446809219626,-0.03904446222718905,-0.28246735445591753,-0.047157424012608806,-0.6418076896070463,1.2093545454575083,1.7565007002368072,-0.2220079463443464,-1.820474706350217
0.812,-0.9819753714304885,-0.7635083969602705,0.6209978328011632,0.9696700221326985,0.25030361080570196,-2.525846960166684,-0.007315691952891612,-0.10405259528221966,0.19762416474308764,0.27933364238746927,-0.03992957232874794,-0.28976265106056553,-0.047425978011092496,-0.6432393754758625,1.211270033493056,1.7630864474066366,-0.22054710443076414,-1.8271735960015412
0.8160000000000001,-0.9820050136061241,-0.7639297532564032,0.6217980196204035,0.9708014613938276,0.2501421281395515,-2.5270206281596943,-0.007505932972953766,-0.10662841615587115,0.20247307585312402,0.28639915967144935,-0.04080883906263516,-0.29708474322392986,-0.047694532009576185,-0.6446710613446788,1.2131855215216647,1.769672194569527,-0.2190862625167482,-1.8338724856667432
0.8200000000000001,-0.9820354188942721,-0.7643614242895175,0.6226176174079882,0.9719612154100701,0.24997714009320088,-2.5282236381124754,-0.0076972482089682215,-0.10920996377297709,0.20732964891526096,0.2934910199440255,-0.04168226242888193,-0.3044336309458995,-0.04796308599765153,-0.6461027472048214,1.215101009552008,1.776257941716805,-0.21762542060793644,-1.8405713753180675
0.8240000000000001,-0.9820665915917959,-0.764803432966587,0.6234566568117256,0.9731493895533798,0.24980867004012045,-2.5294560972072615,-0.007889637660934978,-0.11179723813350972,0.21219388392954008,0.3006092232051838,-0.04254984242749865,-0.3118093142264744,-0.04823163999613522,-0.6475344330684335,1.2170164975892905,1.7828436888796955,-0.21616457869652259,-1.8472702649693917
0.8280000000000001,-0.9820985359955596,-0.7652558021945856,0.6243151684794245,0.9743660891957115,0.2496367413537809,-2.530718112626287,-0.008083101328937303,-0.11439023923752456,0.21706578089597528,0.30775376945506305,-0.04341157905845411,-0.3192117930656546,-0.04850019399288419,-0.6489661189337803,1.2189319856213687,1.7894294360477903,-0.21470373678294033,-1.853969154613777
0.8320000000000001,-0.9821312564024274,-0.7657185548804872,0.6251931830588934,0.9756114197090203,0.2494613774076528,-2.5320097915517867,-0.008277639212878052,-0.11698896708497997,0.22194533981451103,0.3149246586935661,-0.044267472321762175,-0.3266410674633846,-0.04876874798269426,-0.6503978047956577,1.2208474736482426,1.7960151832037419,-0.21324289487282752,-1.8606680442720402
0.836,-0.9821647571092627,-0.7661917139312654,0.6260907311979406,0.9768854864652601,0.2492826015752068,-2.5333312411659943,-0.008473251312798857,-0.11959342167588982,0.22683256068516122,0.322121890920693,-0.04511752221743673,-0.33409713741983094,-0.0490373019846474,-0.6518294906644739,1.2227629616820557,1.8026009303666324,-0.21178205296228103,-1.8673669339372423
0.84,-0.9821990424129298,-0.7666753022538944,0.6270078435443747,0.9781883948363859,0.24910043722991332,-2.5346825686511454,-0.008669937628755231,-0.12220360301029576,0.23172744350796748,0.3293454661364992,-0.04596172874546042,-0.34158000293488255,-0.04930585598139636,-0.6532611765263513,1.2246784497176033,1.8091866775243186,-0.21032121104999982,-1.8740658235746888
0.844,-0.9822341166102927,-0.7671693427553478,0.6279445507460043,0.9795202501943521,0.2489149077452431,-2.5360638811894733,-0.008867698160650028,-0.12481951108810063,0.23662998828290205,0.33659538434088754,-0.04680009190583673,-0.34908966400842845,-0.04957440996947171,-0.6546928623847592,1.226593937746212,1.8157724246837397,-0.20886036913815229,-1.880764713232952
0.848,-0.982269983998215,-0.7676738583425992,0.6289008834506379,0.980881157911113,0.24872603649466662,-2.537475285963213,-0.009066532908511005,-0.12744114590937383,0.24154019500993718,0.3438716455339691,-0.04763261169856564,-0.35662612064074617,-0.04985333847649931,-0.6561964749924459,1.2286256291793585,1.8226169819449827,-0.20736843656284087,-1.8877296023497858
0.852,-0.9823066488735608,-0.7681888719226228,0.6298768723060838,0.9822712233586238,0.24853384685165458,-2.5389168901545993,-0.009266524868462023,-0.1300690828880402,0.24645899331633692,0.3511763201964474,-0.048459039398339454,-0.36419150082722673,-0.050232248945472624,-0.6583932654676689,1.2317772049609543,1.8319557636269772,-0.20557687467831834,-1.8972580016970997
0.856,-0.9823441161971627,-0.7687144110057035,0.6308725553971686,0.9836905684726845,0.2483383641794799,-2.5403888179698306,-0.009468390900074786,-0.13270829203311518,0.2513944126496248,0.3585272916429849,-0.04927722669599219,-0.37180418465432297,-0.05081653886400417,-0.662013957821242,1.2372292082351437,1.8464180944598867,-0.2031698246784605,-1.9120522747398394
0.86,-0.9823823960007614,-0.7692505382588877,0.6318880276072808,0.9851394416917677,0.24813962903808665,-2.541891323631834,-0.009673057179374056,-0.13536519455061014,0.25635682698221807,0.3659476649521265,-0.05008439799576714,-0.37948791902514545,-0.05155333539924589,-0.6666919829482337,1.2443894172372432,1.8646849686190097,-0.2003057377425281,-1.930756775632425
0.864,-0.9824215006545977,-0.7697973325621084,0.6329234100130263,0.9866181497923016,0.24793768899551377,-2.543424721322032,-0.009880817583268753,-0.13804182789670105,0.26134952798752276,0.373444771391937,-0.05087967259793241,-0.38725023885938237,-0.05232706207398963,-0.6716260457350492,1.2519632755728787,1.8838731292193656,-0.1973309773570242,-1.9504081549201469
0.868,-0.9824614425414275,-0.7703548728820613,0.633978823831181,0.9881269998629032,0.24773259165730319,-2.544989325542709,-0.010091673675965973,-0.14073820291649053,0.2663725331868011,0.3810186499858814,-0.05166304581462333,-0.3950911842645066,-0.05310098426941634,-0.6765614641527501,1.2595393240662915,1.9030661677528482,-0.19435563098800165,-1.9700645476281031
0.872,-0.9825022340440054,-0.7709232381854403,0.6350543902785207,0.9896662989921886,0.24752438462899679,-2.546585450796148,-0.010305625457424084,-0.14345431960992305,0.2714258425800531,0.3886693007339598,-0.052434517645836426,-0.4030107552404072,-0.0538749064683125,-0.6814968825756551,1.267115372549296,1.9222592062863308,-0.1913802846189791,-1.989720940356876
0.876,-0.9825438875450869,-0.7715025074389407,0.6361502305718214,0.9912363542687749,0.2473131155161365,-2.548213411584632,-0.010522672927712473,-0.14619017797709577,0.27650945616719547,0.39639672363617207,-0.053194088091575165,-0.41100895178736163,-0.054648828674147554,-0.686432301005499,1.274691421030566,1.941452244821548,-0.18840493824995655,-2.0093773331064657
0.88,-0.9825864154274271,-0.772092759609257,0.6372664659278583,0.992837472781278,0.24709883192426418,-2.5498735224104467,-0.010742816086817264,-0.14894577801796705,0.2816233739482976,0.40420091869253216,-0.05394175715183608,-0.4190857739052589,-0.05542275087651316,-0.6913677194318735,1.2822674695257135,1.9606452833619696,-0.18542959188050032,-2.0290337258282998
0.884,-0.9826298300737815,-0.7726940736630844,0.6384032175634078,0.9944699616183151,0.2468815814589218,-2.5515660977758743,-0.010966054934724578,-0.15172111973255076,0.2867675959234012,0.4120818859030678,-0.05467752482661917,-0.42724122159398803,-0.0561966730736746,-0.6963031378530438,1.2898435180104528,1.9798383218919828,-0.1824542455132125,-2.048690118529317
0.888,-0.9826741438669049,-0.7733065285671175,0.6395606066952455,0.9961341278685025,0.24666141172565123,-2.5532914521831986,-0.01119238947140666,-0.1545162031207914,0.29194212209238124,0.420039625267668,-0.05540139111594178,-0.43547529485349346,-0.056970595272570757,-0.7012385562724793,1.2974195664917225,1.9990313604272003,-0.1794788991450573,-2.06834651125809
0.892,-0.9827193691895527,-0.7739302032880507,0.6407387545401468,0.9978302786204565,0.24643837032999427,-2.5550499001347022,-0.011421819696905144,-0.1573310281827306,0.29714695245533496,0.4280741367864854,-0.056113356019779626,-0.44378799368405275,-0.05774451747667109,-0.7061739747005885,1.304995614981666,2.018224398965887,-0.1765035527747337,-2.0880029040076797
0.896,-0.9827655184244801,-0.7745651767925793,0.6419377823148882,0.9995587209627944,0.246212504877493,-2.556841756132671,-0.01165434561122003,-0.1601655949183961,0.30238208701223457,0.4361854204593951,-0.05681341953813965,-0.4521793180855549,-0.05851843967730197,-0.7111093931304324,1.3125716634664053,2.0374174374941654,-0.17352820640614483,-2.1076592967364527
0.9,-0.9828126039544425,-0.7752115280473979,0.6431578112362447,1.0013197619841316,0.24598386297368915,-2.5586673346793867,-0.01188996721432356,-0.16301990332777405,0.3076475257630662,0.44437347628643875,-0.057501581671028784,-0.46064926805794437,-0.05929236186578979,-0.716044811549868,1.3201477119494098,2.0566104760311177,-0.170552860038857,-2.12731568943747
0.904,-0.9828606381621947,-0.7758693360192015,0.6443989625209927,1.003113708773086,0.24575249222412476,-2.5605269502771346,-0.012128684506146348,-0.16589395341079505,0.31294326870782985,0.45263830426764406,-0.058177842418450504,-0.46919784360105465,-0.06006628405948178,-0.7209802299640994,1.3277237604306795,2.0758035145628657,-0.16757751367156917,-2.1469720821384874
0.908,-0.9829096334304916,-0.7765386796746843,0.6456613573859074,1.0049408684182728,0.24551844023434155,-2.562420917428195,-0.012370497486799414,-0.16878774516748685,0.31826931584651164,0.4609799044029417,-0.05884220178040134,-0.47782504471505227,-0.060840206272255726,-0.725915648395678,1.3352998089240924,2.094996553098083,-0.16460216730167926,-2.166628474888077
0.912,-0.9829596021420891,-0.7772196379805414,0.6469451170477648,1.0068015480083095,0.24528175460988155,-2.564349550634855,-0.012615406156324394,-0.17170127859796047,0.3236256671792226,0.46939827669242873,-0.05949465975686394,-0.48653087140015927,-0.061614128481560226,-0.7308510668307261,1.3428758574175053,2.1141895916419737,-0.16162682093178934,-2.186284867630728
0.916,-0.9830105566797422,-0.777912289903468,0.6482503627233411,1.0086960546318122,0.24504248295628664,-2.5663131643993964,-0.012863410514651896,-0.17463455370213266,0.3290123227058517,0.47789342113607747,-0.06013521634785565,-0.4953153236560981,-0.062388050680456386,-0.7357864852518964,1.3504519058970403,2.1333826301754564,-0.15865147456320047,-2.205941260352562
0.92,-0.9830625094262063,-0.7786167144101585,0.6495772156294116,1.010624695377398,0.2448006728790987,-2.568312073224104,-0.013114510561768045,-0.17758757047997564,0.3344292824263989,0.4864653377338324,-0.06076387155336954,-0.5041784014829798,-0.06316197287067893,-0.7407219036695972,1.3580279543800449,2.15257566870547,-0.15567612819417792,-2.225597653081335
0.924,-0.9831154727642364,-0.7793329904673078,0.6509257969827523,1.0125877773336829,0.24455637198385968,-2.5703465916112602,-0.013368706297617328,-0.18056032893148943,0.33987654634089204,0.4951140264857212,-0.061380625373409076,-0.5131201048807488,-0.0639358950626362,-0.7456573220890328,1.3656040028647842,2.1717687072354828,-0.15270078182775745,-2.245254045789291
0.928,-0.9831694590765873,-0.7800611970416104,0.6522962280001388,1.0145856075892838,0.24430962787611143,-2.57241703406315,-0.013625997722269134,-0.1835528290566879,0.3453541144493172,0.5038394873917162,-0.0619854778079916,-0.5221404338492941,-0.06470981727020597,-0.7505927405188767,1.3731800513529928,2.1909617457689654,-0.14972543545960226,-2.2649104384972474
0.932,-0.9832244807460145,-0.7808014130997613,0.6536886298983469,1.0166184932328166,0.24406048816139575,-2.5745237150820546,-0.013886384835778975,-0.18656507085564045,0.350861986751716,0.512641720451873,-0.0625784288570859,-0.5312393883887268,-0.06548373947777575,-0.7555281589504553,1.3807560998464057,2.2101547843128566,-0.14675008908711026,-2.284566831246837
0.936,-0.9832805501552735,-0.7815537176084555,0.6551031238941525,1.0186867413528988,0.24380900044525475,-2.5766669491702596,-0.01414986763809134,-0.18959705432829155,0.35640016324808843,0.5215207256662191,-0.06315947852068848,-0.5404169684992688,-0.06625766167320246,-0.7604635773664215,1.3883321483276756,2.2293478228463393,-0.14377474272025612,-2.3042232239894878
0.9400000000000001,-0.9833376796871193,-0.7823181895343876,0.6565398312043316,1.0207906590381464,0.24355521233323024,-2.5788470508300487,-0.014416446129164595,-0.19264877947457182,0.3619686439383374,0.5304765030346437,-0.06372862679884794,-0.5496731741806427,-0.06703158386862917,-0.765398995785857,1.3959081968037412,2.2485408613763522,-0.140799396354703,-2.323879616697444
0.9440000000000001,-0.9833958817243068,-0.7830949078442521,0.6579988730456592,1.022930553377176,0.24329917143086396,-2.5810643345637048,-0.014686120309040374,-0.1957202462945784,0.36756742882251836,0.5395090525572299,-0.06428587369152611,-0.5590080054328483,-0.06780550607793367,-0.7703344142209051,1.4034842453023582,2.2677338999202434,-0.1378240499826447,-2.343536009419278
0.9480000000000001,-0.9834551686495916,-0.7838839515047442,0.6594803706349117,1.0251067314586042,0.24304092534369803,-2.5833191148735115,-0.014958890177788065,-0.19881145478833906,0.37319651790075625,0.5486183742340056,-0.0648312191987091,-0.5684214622559969,-0.06857942827856456,-0.7752698326455448,1.4110602937940364,2.286926938453726,-0.13484870361318846,-2.363192402141112
0.9520000000000001,-0.9835155528457291,-0.7846853994825588,0.6609844451888652,1.027319500371048,0.2427805216772743,-2.5856117062617527,-0.01523475573526889,-0.20192240495574276,0.37885591117287065,0.5578044680648597,-0.06536466332043162,-0.5779135446499772,-0.06934954663133375,-0.780157814874588,1.4185482007378347,2.305976642937718,-0.1318608716391681,-2.3827007891927265
0.9560000000000001,-0.9835770466954737,-0.7854993307443902,0.6625112179242947,1.029569167203123,0.24251800803713458,-2.5879424232307113,-0.015513686550838734,-0.20505271730733576,0.38454490350665893,0.5670661873775074,-0.06588610617182244,-0.5874830685695387,-0.06989212406917356,-0.7822082221387028,1.4207635889891546,2.3164522797679274,-0.12812616585798978,-2.3933556572292014
0.96,-0.9836396623381358,-0.7863258212210175,0.6640608044169185,1.031856029870068,0.2422534328278997,-2.590311570810309,-0.01579389272782228,-0.20818007073285238,0.3902220198847839,0.5763360863030031,-0.06638967264729553,-0.5970603899078109,-0.06965482170391557,-0.7745330496567587,1.4049078067672471,2.297540929629277,-0.12183160498242113,-2.373665739269226
0.964,-0.9837033978372963,-0.787164771310253,0.665632994083373,1.034179855893547,0.24198689065595622,-2.592718906349974,-0.01607092512447006,-0.21124898170458983,0.3957841659607969,0.5854465148145416,-0.06686075901168181,-0.6064723944836925,-0.06849678686922378,-0.7553757782833431,1.3677170530371208,2.243935062595792,-0.1125148582693282,-2.3181505191052776
0.968,-0.9837682297391316,-0.7880158130746542,0.6672270777446049,1.0365396019885844,0.24171854675580626,-2.5951633499661786,-0.01634186702277607,-0.21422307695911913,0.40116375630908085,0.5942875668037695,-0.06728979151345016,-0.6156055940606531,-0.06694578199607781,-0.7313179293932243,1.3214205005426805,2.1755215222386823,-0.1019082379784958,-2.2473450046814336
0.972,-0.9838341327734785,-0.7888785559259259,0.6688423041338456,1.0389341564279773,0.24144857232384861,-2.597643751102459,-0.01660649138043868,-0.21709952513973563,0.40635552996513835,0.602850686992451,-0.06767602491550978,-0.624451154521144,-0.06536639684563694,-0.7069061609098204,1.2744663274964763,2.106038572091684,-0.09120846304958019,-2.175435225577893
0.976,-0.9839010816701751,-0.7897526092757721,0.670477921984326,1.041362407484524,0.24117713855648218,-2.6001589592023477,-0.016864798197541164,-0.2198783262463977,0.41135948692905266,0.611135875380503,-0.0680194592178468,-0.6330090758652762,-0.06378701168305301,-0.6824943924246818,1.2275121544606804,2.0365556219273384,-0.08050868812239931,-2.103525446495169
0.98,-0.9839690511590589,-0.7906375825358971,0.672133180029278,1.0438232434310213,0.24090441665010584,-2.6027078237093813,-0.017116787473903106,-0.22255948027913308,0.4161756272008238,0.6191431319678697,-0.06832009442048897,-0.6412793580931053,-0.06220762651006073,-0.6580826239464821,1.1805579814179457,1.967072671773401,-0.06980891319695315,-2.0316156673985675
0.984,-0.9840380159699663,-0.7915330851180051,0.6738073270019326,1.046315552540267,0.24063057780111827,-2.6052891940670926,-0.01736245920962165,-0.22514298723796955,0.42080395078039623,0.6268724567546902,-0.06857793052342243,-0.6492620012044648,-0.06062824136308931,-0.6336708554682824,1.133603808375211,1.897589721629872,-0.05910913826847122,-1.9597058883089047
0.988,-0.9841079508327358,-0.7924387264338009,0.6754996116355212,1.0488382230850588,0.24035579320591846,-2.607901919719017,-0.01760181340480782,-0.22762884712287934,0.4252444576678255,0.6343238497409087,-0.06879296752663674,-0.6569570051995766,-0.059048856210913714,-0.6092590869831438,1.0866496353324762,1.8281067714724653,-0.04840936334042298,-1.8877961092261808
0.992,-0.9841788304772048,-0.7933541158949882,0.6772092826632752,1.0513901433381942,0.24008023406090517,-2.610544850108689,-0.01783485005930896,-0.2300170599338347,0.42949714786305604,0.6414973109264699,-0.06896520543014581,-0.6643643700782742,-0.05746947103445199,-0.5848473184980052,1.039695462286272,1.7586238213046501,-0.03770958841454314,-1.8158863301087624
0.996,-0.9842506296332103,-0.7942788629132715,0.6789355888184256,1.0539702015724706,0.2398040715624773,-2.613216834679643,-0.018061569173083436,-0.23230762567086338,0.43356202136611566,0.6483928403113459,-0.06909464423395309,-0.6714840958404467,-0.05589008587360278,-0.5604355500215402,0.9927412892470067,1.6891408711507128,-0.027009813486928574,-1.7439765510190997
1.0,-0.9843233230305894,-0.7952125769003551,0.6806777788342041,1.056577286060685,0.23952747690703355,-2.6159167228754128,-0.018281970746297782,-0.23450054433400702,0.4374390781770321,0.6550104378956756,-0.06918128393804124,-0.678316182486427,-0.054310700726631356,-0.53602378154681,0.9457871162025372,1.6196579210037143,-0.016310038558012968,-1.6720667719502535
1.004,-0.9843968853991807,-0.7961548672679436,0.6824351014438419,1.059210285075636,0.23925062129097296,-2.6186433641395346,-0.018496054778896487,-0.23659581592323786,0.44112831829573595,0.6613501036793756,-0.0692251245424172,-0.6848606300160487,-0.052731315570986315,-0.5116120130651408,0.8988329431632719,1.5501749708532464,-0.005610263630398404,-1.6001569928536519
1.008,-0.9844712914688206,-0.797105343427741,0.68420680538057,1.06186808689012,0.2389736759106942,-2.621395607915541,-0.018703821270865673,-0.23859344043852815,0.44462974172233827,0.6674118376625016,-0.06922616604708443,-0.6911174384292562,-0.0511519304101371,-0.48720024458173694,0.8518787701257413,1.4806920207027785,0.005089511297216159,-1.528247213770928
1.012,-0.9845465159693476,-0.7980636147914518,0.6859921393776206,1.064549579776936,0.2386968119625963,-2.6241723036469686,-0.018905270222177584,-0.24049341787989176,0.4479433484567419,0.6731956398449979,-0.06918440845203946,-0.6970866077262161,-0.04957254524408372,-0.46278847609833307,0.8049245970760677,1.4112090705384328,0.01578928622352968,-1.4563374346743263
1.016,-0.984622533630598,-0.7990292907707801,0.6877903521682239,1.06725365200888,0.2384202006430779,-2.626972300777351,-0.019100401632818342,-0.2422957482473148,0.4510691384989468,0.678701510226809,-0.06909985175729619,-0.7027681379066508,-0.04799316008496923,-0.43837670761839864,0.7579704240368024,1.3417261203844955,0.026489061151144244,-1.3844276555707857
1.02,-0.9846993191824102,-0.8000019807774303,0.6896006924856122,1.0699791918587505,0.23814401314853792,-2.629794448750222,-0.019289215502857338,-0.24400043154083895,0.4540071118490363,0.6839294488080738,-0.06897249596283031,-0.7081620289707824,-0.04641377492758947,-0.4139649391384642,0.7110162509940676,1.2722431702270887,0.03718883607919249,-1.3125178764880618
1.024,-0.9847768473546209,-0.8009812942231068,0.6914224090630162,1.0727250875993446,0.23786842067537525,-2.632637597009117,-0.019471711832239058,-0.24560746776042253,0.45675726850689935,0.6888794555886257,-0.06880234106866265,-0.7132682809185553,-0.044834389770209704,-0.3895531706533256,0.6640620779461287,1.2027602200696819,0.04788861100550601,-1.2406080973845213
1.028,-0.9848550928770681,-0.8019668405195137,0.6932547506336674,1.0754902275034595,0.23759359441998862,-2.6355005949975703,-0.019647890621019015,-0.24711685690606555,0.45931960847260533,0.6935515305686313,-0.06858938707478626,-0.7180868937498586,-0.04325500460936049,-0.36514140217686064,0.6171079049085981,1.1332772699296223,0.058588385933987935,-1.1686983182879196
1.032,-0.984934030479589,-0.8029582290783553,0.6950969659307971,1.0782734998438936,0.23731970557877696,-2.638382292159116,-0.019817751869113942,-0.2485285989778374,0.46169413174616813,0.6979456737480627,-0.06833363398119074,-0.7226178674648587,-0.04167561944851128,-0.3407296337021304,0.5701537318710675,1.0637943197722155,0.06928816086203618,-1.0967885392190735
1.036,-0.985013634892021,-0.8039550693113364,0.6969483036876367,1.081073792893444,0.2370469253481391,-2.641281537937289,-0.019981295576607105,-0.2498426939756826,0.4638808383275739,0.702061885126809,-0.06803508178788997,-0.7268612020636112,-0.04009623429807041,-0.3163178652169918,0.5231995588265981,0.9943113696148087,0.07998793578921706,-1.0248787601432885
1.04,-0.9850938808442019,-0.8049569706301608,0.6988080126374177,1.0838899949249081,0.23677542492447384,-2.644197181775625,-0.020138521743498505,-0.25105914189957335,0.4658797282167809,0.7059001647049812,-0.06769373049487701,-0.730816897546005,-0.03851684913375175,-0.29190609673011847,0.4762453857803939,0.9248284194643408,0.09068771071683163,-0.9529689810189312
1.044,-0.985174743065969,-0.805963542446533,0.700675341513371,1.0867209942110838,0.23650537550418008,-2.647128073117657,-0.02028943036967712,-0.25217794274952354,0.467690801413817,0.7094605124825237,-0.06730958010215532,-0.7344849539117626,-0.03693746396769837,-0.2674943282536535,0.4292912127411286,0.855345469306934,0.10138748564314515,-0.8810592019153907
1.048,-0.9852561962871593,-0.806974394172157,0.7025495390487282,1.0895656790247683,0.2362369482836566,-2.650073061406919,-0.020434021455240092,-0.2531990965256026,0.46931405791870995,0.7127429284594367,-0.06688263060973185,-0.7378653711613281,-0.035358078815522775,-0.2430825597771885,0.38233703970012856,0.7858625191495272,0.11208726057032603,-0.8091494228604224
1.052,-0.9853382152376109,-0.8079891352187378,0.7044298539767206,1.0924229376387593,0.23597031445930222,-2.653030996086948,-0.0205722950002013,-0.25412260322774105,0.47074949773141805,0.71574741263572,-0.06641288201759271,-0.740958149294646,-0.03377869365814301,-0.2186707912903152,0.33538286665392436,0.7163795689955899,0.12278703549967532,-0.7372396437638207
1.056,-0.9854207746471609,-0.8090073749979789,0.7063155350305795,1.095291658325854,0.23570564522751586,-2.656000726601276,-0.020704251004505236,-0.2549484628559251,0.47199712085194134,0.7184739650114014,-0.06590033432573444,-0.7437632883114387,-0.03219930849902852,-0.19425902281038077,0.28842869361292434,0.6468966188416525,0.1334868104268562,-0.6653298646533412
1.06,-0.9855038492456469,-0.8100287229215852,0.7082058309435362,1.0981707293588505,0.23544311178469635,-2.6589811023934393,-0.02082988946819353,-0.2556766754102241,0.47305692728032145,0.7209225855864532,-0.06534498753417786,-0.7462807882118727,-0.03066874318391477,-0.17057160978280195,0.24286144280870336,0.5793412050231206,0.1438789527020458,-0.5954196956314828
1.064,-0.9855874137629065,-0.8110527884012607,0.7100999904488221,1.1010590390105457,0.23518288532724244,-2.661970972906971,-0.020949600949976555,-0.2563130357341875,0.47394001239441097,0.7231086946515863,-0.06474930270411808,-0.7485266458764905,-0.029510392221890336,-0.15240685777122287,0.20786842230662017,0.5264817940706101,0.15192562931656828,-0.5407550371164249
1.068,-0.9856714460532467,-0.8120792272074587,0.7119973510426915,1.1039555989160632,0.2349251173630634,-2.6649693155604512,-0.021065972605968653,-0.2568959302723939,0.4747198746587744,0.725134439939018,-0.06412958249964532,-0.7506068285088041,-0.029045927168666608,-0.14453750841157686,0.19258799294555318,0.5010188259130244,0.15559986421900818,-0.5145112192961321
