queristq/extract_pos_from_ROS_moveit_msgs/pickup/final_trajectory_bspline.csv
time,pos_joint_1,pos_joint_2,pos_joint_3,pos_joint_4,pos_joint_5,pos_joint_6,vel_joint_1,vel_joint_2,vel_joint_3,vel_joint_4,vel_joint_5,vel_joint_6,acc_joint_1,acc_joint_2,acc_joint_3,acc_joint_4,acc_joint_5,acc_joint_6
0.0,1.0692498858715331,-1.6029583816499984,1.8091395973970774,-4.474072168929544e-05,1.3645504927221377,0.28655609647596175,0.011482411007845972,0.0021488665202240576,-0.0030543957533768484,-0.01769602541670992,0.005961000892118484,0.028575410814760116,-2.060141913874658,-0.3855742266231643,0.5480260891685407,3.174859357432091,-1.0695875872004934,-5.126815172224256
0.004,1.0692958155155645,-1.6029497861839175,1.809127379814064,-0.00011552482335613512,1.3645743367257062,0.2866703981192208,0.00324184335234734,0.0006065696137314003,-0.0008622913967026857,-0.004996587986981557,0.0016826505433165106,0.008068150125863094,-3.0871154221845387,-0.5777816652723089,0.8212151898223663,4.757515446868882,-1.6027733516464637,-7.682514388969961
0.008,1.069275820618352,-1.6029535290930885,1.8091326990659038,-8.471342558514789e-05,1.3645639539264842,0.28662064167696866,-0.013214512369630338,-0.0024733868019544136,0.003515325765202082,0.02036409815824114,-0.0068611859210532256,-0.03288470429699958,-4.10789403319789,-0.7688297545896394,1.0927564026083636,6.3306243577471655,-2.1327430577804116,-10.222796866981957
0.012,1.0691900994166075,-1.6029695732783331,1.8091555024201855,4.7387961909794004e-05,1.3645194472383377,0.2864073204848448,-0.029621308913235778,-0.005544068422985715,0.007879759824164223,0.045648406874995766,-0.015379293918926784,-0.07371422480999257,-4.095504238597891,-0.7665110559121335,1.0894606268692375,6.311530000630151,-2.126310941163306,-10.191963389513669
0.016,1.069038850147046,-1.6029978816404724,1.809195737144497,0.00028047382941481824,1.3644409195751328,0.2860309278784887,-0.04597854627841347,-0.008605475249251482,0.012231010780155982,0.07085633816328235,-0.023871673450359676,-0.11442041141310894,-4.083114444029118,-0.7641923572103415,1.086164851119703,6.292435643513147,-2.1198788245670173,-10.161129912045382
0.02,1.0688222710463802,-1.6030384170803271,1.8092533505064268,0.0006142386672160528,1.3643284738507349,0.2854919571935399,-0.06228622446546872,-0.011657607280668447,0.016569078633121848,0.09598789202310094,-0.032338324515462924,-0.15500326410635562,-4.070724649470753,-0.7618736585154884,1.0828690753666992,6.273341286396137,-2.1134467079776673,-10.130296434577094
0.024,1.0685405603513223,-1.6030911424987178,1.809328289773562,0.0010483769655996258,1.364182212979009,0.28479090176563787,-0.07854434347417949,-0.014700464517375389,0.020893963383089575,0.12104306845445145,-0.040779247114181016,-0.19546278288972568,-4.058334854874223,-0.759554959834513,1.079573299634512,6.254246929279119,-2.1070145913779093,-10.099462957108805
0.028,1.0681939162985867,-1.6031560207964661,1.8094205022134915,0.0015825832148516645,1.3640022398738214,0.2839282549304221,-0.09475290330446251,-0.01773404695934455,0.025205665030197943,0.1460218674573339,-0.0491944412464862,-0.23579896776322606,-4.045945060291572,-0.7572362611431294,1.076277523895386,6.235152572162124,-2.1005824747816204,-10.068629479640517
0.032,1.0677825371248866,-1.6032330148743925,1.8095299350938037,0.002216551905258297,1.3637886574490372,0.28290451002353206,-0.11091190395651207,-0.020758354606520424,0.029504183574252663,0.17092428903174844,-0.05758390691243398,-0.2760118187268498,-4.033555265726268,-0.7549175624586846,1.0729817481319737,6.2160582150451065,-2.0941503581783927,-10.037796002170495
0.036000000000000004,1.0673066210669346,-1.6033220876333183,1.8096565356820855,0.002949977527105652,1.363541568618522,0.2817201603806073,-0.12702134543027266,-0.023773387459014028,0.03378951901525373,0.19575033317769475,-0.06594764411191334,-0.31610133578059,-4.021165471150556,-0.7525988637707703,1.0696859723859087,6.196963857928034,-2.087718241578634,-10.006962524702207
0.04,1.0667663663614444,-1.6034232019740646,1.8098002512459257,0.003782554570679855,1.363261076296142,0.28037569933728734,-0.14308122772571652,-0.026779145516686587,0.03806167135333993,0.22049999989517272,-0.07428565284506305,-0.3560675189244675,-4.008775676578313,-0.7502801650689783,1.066390196650252,6.177869500811052,-2.081286124992754,-9.97612904723652
0.044,1.066161971245129,-1.6035363207974518,1.8099610290529122,0.004713977526267034,1.3629472833957614,0.2788716202292116,-0.15909155084289917,-0.029775628779565855,0.04232064058845575,0.24517328918418316,-0.08259793311185537,-0.3959103681584822,-3.996385881995662,-0.7479614663775946,1.0630944209145954,6.158775143694152,-2.0748540083860565,-9.945295569768232
0.048,1.0654936339547012,-1.6036614070043012,1.8101388163706333,0.00574394088415332,1.362600292831247,0.2772084163920195,-0.17505231478168182,-0.032762837247707344,0.046566426720656695,0.26977020104472593,-0.09088448491215151,-0.43562988348261333,-3.983996087399133,-0.7456427677035582,1.0597986451789387,6.139680786577107,-2.068421891768951,-9.914462092295608
0.052000000000000005,1.0647615527268754,-1.6037984234954334,1.8103335604666775,0.006872139134624841,1.3622202075164642,0.2753865811613507,-0.19096351954209223,-0.03574077092119432,0.05079902974988726,0.2942907354768,-0.09914530824600698,-0.47522606489684704,-3.9716062928303595,-0.7433240690121745,1.0565028694155265,6.120586429459965,-2.061989775179601,-9.88362861482818
0.056,1.0639659257983645,-1.6039473331716707,1.8105452086086324,0.00809826676796772,1.361807130365279,0.2734066078728447,-0.2068251651243247,-0.03870942979980474,0.05501844967598091,0.31873489248040565,-0.10738040311358832,-0.5146989124012388,-3.9592164982719944,-0.7410053702999742,1.0532070936625226,6.101492072342985,-2.0555576586006596,-9.852795137364229
0.06,1.0631069514058809,-1.6041080989338319,1.8107737080640853,0.009422018274468086,1.3613611642915555,0.27126898986214076,-0.2226372515282682,-0.041668813883594114,0.05922468649918744,0.3431026720555439,-0.11558976951481226,-0.5540484259957609,-3.9468267036928126,-0.7386866716189988,1.049911317926866,6.082397715226083,-2.049125541997432,-9.821961659894212
0.064,1.0621848277861383,-1.6042806836827395,1.811019006100626,0.010843088144412072,1.3608824122091605,0.2689742204648786,-0.2383997787538672,-0.04461892317275673,0.06341774021939584,0.3673940742022143,-0.12377340744956777,-0.5932746056803925,-3.9344369091032227,-0.7363679729380235,1.0466155421773315,6.063303358109027,-2.0426934253907345,-9.79112818242593
0.068,1.06119975317585,-1.604465050319214,1.8112810499858405,0.0123611708680858,1.360370977031959,0.2665227930166976,-0.25411274680109397,-0.0475597576670983,0.06759761083660609,0.3916090989204161,-0.13193131691793814,-0.6323774514551683,-3.922047114517102,-0.7340492742466398,1.043319766441675,6.044209000991909,-2.0362613087909764,-9.760294704956776
0.07200000000000001,1.0601519258117296,-1.6046611617440762,1.8115597869873188,0.0139759609357754,1.359826961673817,0.2639152008532373,-0.269776155670004,-0.05049131736672985,0.07176429835092923,0.4157477462101496,-0.14006349791989559,-0.6713569633200467,-3.9096573199483284,-0.731730575562195,1.0400239906990794,6.025114643874986,-2.029829192191218,-9.729461227486746
0.076,1.0590415439304899,-1.6048689808581478,1.811855164372648,0.015687152837766997,1.3592504690485998,0.26115193731013725,-0.2853900053606806,-0.05341360227159586,0.07591780276219873,0.439810016071416,-0.14816995045546788,-0.7102131412750623,-3.8972675253795552,-0.7294118768638724,1.036728214949545,6.006020286758111,-2.02339707559146,-9.698627750020187
0.08,1.0578688057688441,-1.605088470562249,1.8121671294094164,0.01749444106434673,1.3586416020701733,0.2582334957230368,-0.30095429587304046,-0.05632661238164083,0.0800581240705256,0.4637959085042145,-0.15625067452462726,-0.7489459853202082,-3.884877730796904,-0.7270931781724888,1.0334324392104188,5.986925929640993,-2.0169649589917014,-9.667794272551905
0.084,1.0566339095635056,-1.605319593757201,1.8124956293652121,0.019397520105800713,1.3580004636524028,0.2551603694275756,-0.31646902720705583,-0.05923034769697577,0.08418526227588208,0.48770542350854396,-0.1643056701274015,-0.7875554954554775,-3.872487936217722,-0.724774479488044,1.030136663457415,5.96783157252384,-2.0105328424023514,-9.636960795084928
0.088,1.0553370535511877,-1.6055623133438248,1.8128406115076234,0.02139608445241508,1.357327156709154,0.25193305175939296,-0.33193419936278223,-0.06212480821754518,0.08829921737818491,0.5115385610844052,-0.17233493726384608,-0.8260416716808876,-3.860098141648949,-0.7224557807897214,1.0268408876974722,5.9487372154068545,-2.004100725816471,-9.606127317616188
0.092,1.0539784359686033,-1.6058165922229413,1.8132020231042376,0.023489828594475955,1.356621784154292,0.24855203605412848,-0.3473498123402474,-0.06500999394329354,0.09239998937746186,0.5352953212317988,-0.18033847593393326,-0.864404513996407,-3.847708347069767,-0.7201370820913988,1.0235451119618155,5.929642858289993,-1.9976686092063045,-9.575293840146173
0.096,1.0525582550524657,-1.6060823932953712,1.8135798114226431,0.02567844702226947,1.3558844489016826,0.2450178156474217,-0.36271586613934037,-0.06788590487427637,0.09648757827387944,0.5589757039507252,-0.1883162861374965,-0.902644022402057,-3.8353185524836464,-0.7178183834104235,1.0202493362330978,5.9105485011730625,-1.9912364925926684,-9.544460362678322
0.1,1.0510767090394886,-1.6063596794619355,1.8139739237304287,0.027961634226081757,1.355115253865192,0.24133088387491203,-0.3780323607601166,-0.07075254101057693,0.10056198406732664,0.5825797092411833,-0.1962683678746746,-0.9407601968978336,-3.8229287579114035,-0.715499684736387,1.0169535604870328,5.891454144055688,-1.984804375999849,-9.513626885209597
0.10400000000000001,1.0495339961663848,-1.6066484136234558,1.8143843072951817,0.030339084696198938,1.3543143019586852,0.23749173407223903,-0.3932992962026316,-0.07360990235216747,0.1046232067577757,0.6061073371031707,-0.2041947211454953,-0.9787530374837338,-3.8105389633322218,-0.7131809860380645,1.0136577847305595,5.872359786938716,-1.978372259410499,-9.482793407743051
0.108,1.0479303146698675,-1.6069485586807528,1.8148109093844909,0.03281049292290712,1.353481696096028,0.23350085957504216,-0.40851667246677437,-0.07645798889888145,0.10867124634517111,0.629558587536693,-0.2120953459499586,-1.016622544159778,-3.798149168746101,-0.7108622873432113,1.010362008987964,5.85326542982223,-1.971940142803802,-9.451959930273881
0.112,1.0462658627866506,-1.6072600775346468,1.815253677265943,0.03537555339649248,1.3526175391910855,0.2293587537189608,-0.4236844895526004,-0.07929680065091316,0.11270610282967941,0.6529334605417485,-0.21997024228792572,-1.0543687169259248,-3.7857593741773274,-0.7085435886691749,1.0070662332557767,5.834171072704799,-1.9655080261971047,-9.42112645280299
0.116,1.0445408387534467,-1.6075829330859601,1.8157125582071283,0.03803396060724111,1.3517219341577247,0.22506590983963476,-0.438802747460193,-0.08212633760823485,0.11672777621121733,0.6762319561183314,-0.22781941015953544,-1.091991555782202,-3.7733695796085542,-0.7062248899673829,1.0037704575027728,5.815076715587591,-1.9590759096181631,-9.390292975338193
0.12,1.042755440806969,-1.6079170882355127,1.8161874994756328,0.04078540904543913,1.3507949839098092,0.2206228212727032,-0.45387144618946884,-0.08494659977065222,0.1207362664897016,0.6994540742664492,-0.23564284956487103,-1.1294910607286304,-3.760979785025903,-0.7039061912655908,1.0004746817532384,5.795982358471105,-1.9526437930184048,-9.359459497870759
0.124,1.040909867183931,-1.6082625058841253,1.816678448339046,0.043629593201372704,1.3498367913612057,0.21602998135380572,-0.4688905857404002,-0.08775758713835957,0.12473157366524323,0.7225998149861003,-0.24344056050368268,-1.166867231765168,-3.748589990446721,-0.7015874925846155,0.9971789060071734,5.776888001353966,-1.9462116764082382,-9.328626020399854
0.128,1.0390043161210458,-1.6086191489326196,1.8171853520649548,0.046566207565327936,1.3488474594257798,0.21128788341858185,-0.4838601661130426,-0.09055929971132914,0.12871369773775898,0.745669178277281,-0.25121254297613693,-1.2041200688918292,-3.736200195871009,-0.6992687939001707,0.9938831302645779,5.757793644236925,-1.9397795598154188,-9.297792542931143
0.132,1.0370389858550266,-1.608986980281816,1.817708157920948,0.04959494662759095,1.3478270910173966,0.20639702080267108,-0.4987801873073683,-0.09335173748956094,0.13268263870735986,0.7686621641399957,-0.25895879698220603,-1.2412495721086172,-3.7238104012883575,-0.696950095208787,0.9905873545254518,5.738699287120105,-1.933347443212191,-9.266959065463737
0.136,1.0350140746225869,-1.609365962832536,1.8182468131746137,0.0527155048784479,1.3467757890499221,0.2013578868417129,-0.5136506493233495,-0.09613490047299944,0.1366383965739626,0.7915787725742418,-0.26667932252183446,-1.278255741415539,-3.7114206067057065,-0.6946313965174034,0.9872915787828562,5.7196049300027445,-1.9269153266159023,-9.236125587995442
0.14,1.0329297806604398,-1.6097560594856,1.8188012650935397,0.05592757680818489,1.345693656437222,0.19617097487134677,-0.5284715521610139,-0.09890878866170016,0.1405809713376227,0.8144190035800176,-0.27437411959513325,-1.3151385768125807,-3.6990308121404025,-0.6923126978294891,0.9839958030367912,5.700510572885162,-1.9204832100230829,-9.205292110525843
0.14400000000000002,1.0307863022052988,-1.6101572331418297,1.8193714609453147,0.05923085690708804,1.344580796093161,0.19083677822721226,-0.5432428958204727,-0.10167340205563535,0.14451036299825692,0.8371828571573231,-0.2820431882020191,-1.3518980782997458,-3.686641017571629,-0.6899939991276971,0.9807000272803179,5.681416215768342,-1.9140510934198551,-9.174458633058851
0.148,1.028583837493876,-1.610569446702045,1.8199573479975257,0.06262503966544347,1.3434373109316058,0.1853557902449488,-0.557964680301587,-0.10442874065472174,0.14842657155586525,0.8598703333061644,-0.2896865283424921,-1.3885342458770515,-3.6742512229785693,-0.6876753004432523,0.9774042515377224,5.662321858652175,-1.9076189768270357,-9.143625155591446
0.152,1.026322584762886,-1.6109926630670675,1.8205588735177616,0.06610981957353736,1.3422633038664211,0.17972850426019585,-0.5726369056043012,-0.10717480445918137,0.1523295970105587,0.8824814320265405,-0.2973041400166354,-1.4250470795444774,-3.6618614283993876,-0.6853566017692159,0.9741084758055352,5.643227501535244,-1.901186860223808,-9.112791678122289
0.156,1.0240027422490416,-1.6114268451377185,1.8211759847736102,0.0696848911216558,1.3410588778114727,0.17395541360859298,-0.5872595717287821,-0.10991159346887547,0.15621943936230953,0.9050161533184463,-0.30489602322428255,-1.4614365793020299,-3.6494716338340836,-0.6830379030708933,0.9708127000560007,5.62413314441787,-1.8947547436136414,-9.08195820065441
0.16,1.0216245081890558,-1.6118719558148185,1.82180862903266,0.07334994880008493,1.3398241356806269,0.1680370116257796,-0.6018326786749739,-0.11263910768374852,0.1600960986110067,0.9274744971818835,-0.31246217796554454,-1.4977027451497127,-3.6370818392514326,-0.6807192043725707,0.9675169242995274,5.605038787300509,-1.8883226270277609,-9.051124723185728
0.164,1.0191880808196419,-1.6123279579991885,1.8224567535624983,0.07710468709911086,1.3385591803877483,0.16197379164739528,-0.6163562264427935,-0.11535734710385603,0.16395957475670575,0.9498564636168504,-0.32000260424050464,-1.5338455770875157,-3.624692044668781,-0.6784005056777176,0.9642211485638708,5.585944430183592,-1.881890510431472,-9.020291245716571
0.168,1.0166936583775135,-1.6127948145916493,1.8231203056307137,0.08094880050901973,1.3372641148467028,0.15576624700907948,-0.6308302150323242,-0.11806631172917026,0.16780986779951768,0.9721620526233522,-0.3275173020489963,-1.5698650751154453,-3.6123022500965383,-0.6760818069967423,0.9609253728282141,5.566850073066662,-1.8754583938247749,-8.989457768248693
0.17200000000000001,1.0141414390993833,-1.6132724884930219,1.8237992325048944,0.08488198352009768,1.3359390419713564,0.14941487104647172,-0.6452546444435658,-0.12076600155982997,0.17164697773933146,0.9943912642013837,-0.33500627139110284,-1.6057612392335052,-3.599912455520826,-0.6737631083122975,0.9576295970717408,5.547755715949301,-1.8690262772319555,-8.958624290780842
0.176,1.011531621221965,-1.613760942604128,1.8244934814526284,0.0889039306226308,1.334584064675574,0.14292015709521144,-0.6596295146764908,-0.12345641659566864,0.1754709045760916,1.0165440983509466,-0.34246951226685196,-1.641534069441692,-3.5875226609416444,-0.6714444096174443,0.9543338213222063,5.528661358833009,-1.8625941606321972,-8.92779081331213
0.18,1.0088644029819713,-1.6142601398257872,1.8252029997415031,0.09301433630690525,1.3331992858732216,0.13628259849093818,-0.673954825731099,-0.12613755683676953,0.17928164830990911,1.0386205550720478,-0.3499070246761604,-1.6771835657400023,-3.575132866365932,-0.6691257109329996,0.9510380455830802,5.509567001715871,-1.856162044032439,-8.896957335844697
0.184,1.0061399826161161,-1.614770043058822,1.8259277346391076,0.09721289506320718,1.3317848084781647,0.12950268856929142,-0.6882305776074182,-0.12880942228313264,0.18307920894075624,1.0606206343646736,-0.35731880861911147,-1.7127097281284496,-3.5627430717902198,-0.6668070122381464,0.9477422698439542,5.490472644598316,-1.8497299274326806,-8.866123858375957
0.188,1.003358558361112,-1.6152906152040523,1.8266676334130292,0.10149930138182264,1.3303407354042687,0.12258092066591059,-0.7024567703054208,-0.1314720129346747,0.18686358646866075,1.0825443362288343,-0.36470486409562186,-1.74811255660701,-3.550353277204099,-0.6644883135467627,0.9444464941048281,5.4713782874824535,-1.8432978108329223,-8.835290380905525
0.192,1.0005203284536728,-1.6158218191622995,1.827422643330857,0.10587324975303786,1.3288671695653997,0.11551778811643534,-0.716633403825051,-0.13412532879150674,0.19063478089359487,1.1043916606645332,-0.37206519110577485,-1.7833920511756938,-3.5379634826301216,-0.662169614862318,0.9411507183518242,5.452283930364871,-1.8368656942435724,-8.8044569034392
0.196,0.9976254911305116,-1.6163636178343843,1.828192711660178,0.11033443466713891,1.3273642138754225,0.10831378425650504,-0.7307604781664617,-0.13676936985357324,0.19439279221547534,1.1261626076717532,-0.37939978964957044,-1.8185482118345235,-3.525573688061348,-0.6598509161709343,0.9378549426022897,5.433189573246843,-1.8304335776403446,-8.773623425971987
0.2,0.9946742446283411,-1.616915974121128,1.8289777856685807,0.11488255061441188,1.3258319712482032,0.10096940242175916,-0.7448379933295418,-0.1394041361208742,0.1981376204344132,1.147857177250508,-0.3867086597268976,-1.8535810385834697,-3.513183893478697,-0.6575322174726117,0.9345591668562248,5.414095216130788,-1.824001461037117,-8.742789948502166
0.20400000000000001,0.9916667871838752,-1.6174788509233513,1.8297778126236532,0.11951729208514297,1.3242705445976073,0.09348513594783728,-0.7588659493142913,-0.14202962759335414,0.20186926555032514,1.1694753694007995,-0.3939918013378674,-1.8884905314225409,-3.500794098899515,-0.655213518781228,0.9312633911101598,5.395000859013455,-1.817569344440828,-8.711956471033039
0.20800000000000002,0.9886033170338268,-1.618052211141875,1.8305927397929833,0.12423835356961828,1.3226800368375002,0.08586147817037883,-0.7728443461207379,-0.14464584427112404,0.20558772756329446,1.1910171841226156,-0.40124921448242423,-1.923276690351734,-3.4884043043255373,-0.6528948200967832,0.9279676153710337,5.375906501895428,-1.8111372278445392,-8.681122993564744
0.212,0.9854840324149093,-1.6186360176775203,1.8314225144441596,0.1290454295581239,1.321060550881748,0.0780989224250234,-0.7867731837488956,-0.1472527861541284,0.2092930064732934,1.212482621415963,-0.4084808991606237,-1.9579395153710588,-3.4760145097480906,-0.6505761214123384,0.9246718396319076,5.35681214478001,-1.804705111244781,-8.650289516098614
0.216,0.9823091315638356,-1.619230233431108,1.8322670838447697,0.13393821454094598,1.3194121896442152,0.07019796204741036,-0.8006524621987227,-0.14985045324242274,0.21298510228034973,1.2338716812808557,-0.4156868553723825,-1.992479006480523,-3.4636247151637045,-0.6482574227313631,0.921376063889312,5.337717787663953,-1.7982729946415532,-8.619456038630124
0.22,0.9790788127173196,-1.6198348213034597,1.8331263952624024,0.13891640300837074,1.3177350560387688,0.062159090373179224,-0.8144821814702052,-0.1524388455359793,0.2166640149844079,1.2551843637172746,-0.4228670831177561,-2.0268951636801,-3.451234920587992,-0.6459387240295711,0.9180802881328387,5.318623430545288,-1.7918408780487338,-8.588622561159859
0.224,0.975793274112074,-1.6204497441953958,1.834000395964645,0.14397968945068418,1.3160292529792732,0.05398280073796956,-0.8282623415634266,-0.1550179630346593,0.22032974458541243,1.276420668725218,-0.43002158239677235,-2.0611879869698018,-3.4387971513030053,-0.6436110238025594,0.9147717393888366,5.299455222729121,-1.7853837936433747,-8.55766977240241
0.228,0.9724527139848121,-1.621074965007737,1.8348890332190857,0.14912776835817249,1.3142948833795947,0.04566958647742081,-0.8419925586806293,-0.15758773372639978,0.2239821888995186,1.2975800054991076,-0.4371501534669031,-2.095356521859319,-3.425917858264696,-0.6412004802461291,0.9113456374103268,5.279607347811327,-1.7786969240159156,-8.52561893094922
0.232,0.9690573336426289,-1.621710446065207,1.835792253475841,0.15436032949467704,1.312532051751538,0.037219948563095004,-0.8556696844295442,-0.16014756687662834,0.22762050968469505,1.3186575275077086,-0.4442511577888997,-2.1293929384173955,-3.412148003194282,-0.6386228400268035,0.9076824282507057,5.258388571062228,-1.7715465730934465,-8.491353295744796
0.23600000000000002,0.9656073565093758,-1.62235614554275,1.8367099972965633,0.15967702857823415,1.3107408741172835,0.028634442970081646,-0.8692897427061835,-0.1626967164466142,0.23124364832552424,1.3396471140676054,-0.4513225260516507,-2.1632873482252775,-3.397729052993792,-0.6359234096947608,0.9038464011332237,5.236170598640288,-1.7640584091607736,-8.455473385703572
0.24,0.9621030157009794,-1.62301201979678,1.8376422026624453,0.16507750640721788,1.3089214715431248,0.019913649777292784,-0.8828515168534945,-0.16523495415418643,0.23485128089376084,1.360546892296831,-0.45836362506218586,-2.197036725503024,-3.3831573771937737,-0.6331953233580656,0.8999697116533756,5.21371752544661,-1.75649076121151,-8.419213652902268
0.244,0.9585445443745478,-1.6236780251759835,1.8385888075437133,0.1705614037166088,1.307073965116786,0.01105814916605745,-0.8963550017237337,-0.16776227903347873,0.23844340601875125,1.3813568542711783,-0.46537445214134276,-2.2306410574484956,-3.368585057920634,-0.6304671163123721,0.8960928508730537,5.19126346172627,-1.7489227783600014,-8.382952319831272
0.248,0.9549321756871896,-1.6243541180290477,1.8395497499105953,0.1761283612413873,1.305198475925994,0.002068521317704817,-0.9098001973168596,-0.1702786910846854,0.24202002370074527,1.402076999990641,-0.4723550072890659,-2.2641003440616743,-3.3540127386422895,-0.6277389092666785,0.8922159900927318,5.168809398005486,-1.7413547955119624,-8.34669098675872
0.252,0.951266142796013,-1.625040254704661,1.8405249677333193,0.18177801971653393,1.3032951250584734,-0.007054653586435944,-0.923187103632872,-0.17278419030761216,0.2455811339394931,1.4227073294552222,-0.47930529050543846,-2.2974145853425654,-3.33944041936568,-0.6250107022071072,0.8883391293020015,5.146355334286007,-1.7337868126639233,-8.310429653687113
0.256,0.9475466788581266,-1.6257363915515086,1.8415143989821112,0.1875100198770291,1.3013640336019505,-0.016310795365035706,-0.936515720671785,-0.17527877670234226,0.24912673673516128,1.4432478426649291,-0.48622530179037726,-2.330583781291171,-3.3248681000942746,-0.6222824951614137,0.884462268532088,5.1239012705669715,-1.7262188298124148,-8.274168320615448
0.26,0.9437740170306387,-1.6264424849182797,1.8425179816272006,0.19332400245785336,1.2994053226441504,-0.025699323836765313,-0.9497860484336262,-0.17776245026890347,0.2526568320877498,1.463698539619758,-0.4931150411439378,-2.363607931907489,-3.310295780824604,-0.6195542880949034,0.8805854077378883,5.101447206845299,-1.718650846974784,-8.237906987543287
0.264,0.9399483904706576,-1.6271584911536598,1.8435356536388132,0.19921960819398715,1.297419113272799,-0.03521965882029562,-0.9629980869183818,-0.1802352110071015,0.2561714199970644,1.4840594203196915,-0.49997450856617554,-2.3964870371915175,-3.2957234615497293,-0.616826081042271,0.8767085469436886,5.078993143123683,-1.7110828641302145,-8.201645654472344
0.268,0.9360700323352916,-1.6278843666063365,1.8445673529871771,0.2051964778204109,1.295405526575621,-0.04487122013429745,-0.9761518361260241,-0.18269705891724164,0.2596705004632993,1.5043304847647474,-0.5068037040569795,-2.4292210971432677,-3.2811511422748545,-0.6140978740000469,0.8728316861633667,5.0565390794046206,-1.7035148812752365,-8.165384321401458
0.272,0.9321391757816494,-1.6286200676249978,1.8456130176425196,0.21125425207210513,1.2933646836403432,-0.05465342759744176,-0.9892472960565807,-0.18514799399910187,0.2631540734863713,1.5245117329549285,-0.5136026276163774,-2.461810111762729,-3.2665788230034494,-0.6113696669300672,0.8689548253795754,5.034085015685141,-1.6959468984341364,-8.12912298832813
0.276,0.928156053966839,-1.6293655505583293,1.846672585575068,0.21739257168405032,1.29129670555469,-0.06456570102839929,-1.0022844667100517,-0.18758801625268218,0.2666221390663359,1.5446031648902285,-0.5203712792444526,-2.4942540810498928,-3.2520065037268258,-0.6086414598809042,0.8650779646061924,5.0116309519652456,-1.6883789155860973,-8.09286165525619
0.28,0.924120900047969,-1.6301207717550192,1.8477459947550503,0.22361107739122696,1.2892017134063876,-0.0746074602458409,-1.0152633480863953,-0.1900171256781491,0.27007469720322086,1.5646047805706504,-0.5271096589410662,-2.5265530050047786,-3.2374341844519647,-0.6059132528352107,0.8612011038189316,4.989176888245322,-1.6808109327311194,-8.05660032218597
0.28400000000000003,0.9200339471821478,-1.6308856875637545,1.8488331831526938,0.22990940992861553,1.2870798282831615,-0.08477812506843752,-1.0281839401856674,-0.19243532227536386,0.27351174789688737,1.584516579996191,-0.5338177667063015,-2.5587068836273805,-3.2228618651805596,-0.6031850457756394,0.8573242430212624,4.966722824523234,-1.6732429498900192,-8.020338989112474
0.28800000000000003,0.9158954285264836,-1.6316602543332221,1.8499340887382254,0.2362872100311965,1.2849311712727371,-0.09507711531485995,-1.0410462430078398,-0.19484260604435422,0.27693329114739096,1.6043385631668363,-0.5404956025401864,-2.5907157169176784,-3.208289545905685,-0.600456838716068,0.8534473822340016,4.9442687608024505,-1.6656749670523885,-7.984077656040589
0.292,0.9117055772380851,-1.6324444284121093,1.851048649481873,0.24274411843395022,1.28275586346284,-0.10550385080377894,-1.0538502565529129,-0.1972389769850924,0.2803393269547594,1.6240707300826107,-0.5471431664427207,-2.6225795048757052,-3.193717226636028,-0.5977286316634356,0.8495705214571492,4.92181469708472,-1.6581069842078189,-7.947816322972645
0.296,0.9074646264740603,-1.6332381661491029,1.8521768033538635,0.24927977587185737,1.2805540259411954,-0.11605775135386559,-1.066595980820928,-0.1996244350976617,0.28372985531904815,1.643713080743514,-0.5537604584138489,-2.6542982475014596,-3.179144907362874,-0.595000424624681,0.8456936606768273,4.8993606333656565,-1.6505390013493715,-7.911554989901259
0.3,0.9031728093915177,-1.6340414238928906,1.8533184883244254,0.25589382307989833,1.2783257797955292,-0.12673823678379062,-1.0792834158118159,-0.20199898038208985,0.287104876240174,1.663265615149536,-0.5603474784535156,-2.6858719447949153,-3.1645725880845297,-0.5922722175651096,0.8418167998826276,4.8769065696448735,-1.642971018497863,-7.875293656828097
0.304,0.8988303591475658,-1.6348541579921596,1.8544736423637849,0.26258590079305366,1.2760712461135673,-0.1375447269122249,-1.0919125615256042,-0.20436261283818258,0.2904643897181092,1.682728333300673,-0.5669042265618318,-2.7173005967560844,-3.1500002688148454,-0.5895440104951299,0.8379399390988362,4.854452505923256,-1.6354030356671712,-7.83903232375599
0.308,0.8944375088993128,-1.635676324795596,1.8556422034421702,0.2693556497463037,1.2737905459830345,-0.1484766415578393,-1.1044834179623346,-0.2067153324660509,0.2938083957529647,1.702101235196922,-0.573430702738853,-2.7485842033849632,-3.1354279495399706,-0.5868158034494364,0.8340630783219838,4.831998442203333,-1.627835052819132,-7.802770990683494
0.312,0.8899944918038671,-1.636507880651888,1.8568241095298086,0.27620271067462904,1.2714838004916564,-0.15953340053930462,-1.116995985121924,-0.20905713926577807,0.29713689434468504,1.7213843208382997,-0.5799269069843849,-2.7797227646815523,-3.1208556302599053,-0.5840875964072123,0.8301862175451313,4.8095443784847145,-1.6202670699537458,-7.766509657613218
0.316,0.8855015410183374,-1.6373487819097223,1.8580192985969277,0.2831267243130101,1.2691511307271595,-0.17071442367529172,-1.1294502630044139,-0.2113880332373086,0.30044988549332574,1.7405775902247997,-0.586392839298483,-2.810716280645869,-3.1062833109919694,-0.5813593893511104,0.8263093567578705,4.787090314764375,-1.6126990871195845,-7.730248324543276
0.32,0.8809588896998318,-1.6381989849177865,1.8592277086137552,0.29012733139642743,1.2667926577772686,-0.18201913078447157,-1.1418462516098598,-0.21370801438058695,0.303747369198748,1.7596810433564147,-0.5928284996813415,-2.8415647512778985,-3.0917109917240335,-0.5786311822846002,0.8224324959532625,4.7646362510431475,-1.6051311042819538,-7.693986991470336
0.324,0.8763667710054586,-1.639058446024767,1.8604492775505177,0.29720417265986143,1.2644085027297087,-0.1934469416855149,-1.1541839509382061,-0.2160170826955854,0.30702934546095184,1.778694680233145,-0.5992338881327386,-2.8722681765776317,-3.077138672447438,-0.5759029752250289,0.8185556351694712,4.742182187321947,-1.5975631214235064,-7.657725658397007
0.328,0.8717254180923262,-1.6399271215793512,1.8616839433774428,0.3043568888382926,1.2619987866722067,-0.20499727619709263,-1.1664633609894393,-0.21831523818238718,0.3102958142801038,1.7976185008549903,-0.6056090046527296,-2.9028265565450746,-3.0625663531708147,-0.5731747681793353,0.8146787743891493,4.719728123600719,-1.5899951385858757,-7.621464325324012
0.332,0.867035064117543,-1.6408049679302261,1.8629316440647585,0.31158512066670135,1.259563630692487,-0.2166695541378755,-1.1786844817635727,-0.22060248084102008,0.31354677565606504,1.8164525052219507,-0.6119538492414256,-2.9332398911802238,-3.0479940338976608,-0.5704465611336418,0.8108019136088274,4.6972740598821,-1.5824271557378367,-7.585202992254125
0.336,0.8622959422382176,-1.6416919414260793,1.8641923175826913,0.3188885088800682,1.2571031558782753,-0.22846319532653442,-1.1908473132606205,-0.22287881067145632,0.3167822295889744,1.8351966933340471,-0.6182684218986323,-2.9635081804831076,-3.0334217146228135,-0.5677183540775399,0.8069250528354444,4.67481999616437,-1.5748591728828587,-7.548941659185126
0.34,0.8575082856114581,-1.6425879984155978,1.8654659019014703,0.32626669421337373,1.2546174833172978,-0.24037761958174036,-1.2029518554805552,-0.2251442276736404,0.3200021760787486,1.8538510651912656,-0.6245527226244885,-2.993631424453705,-3.018847386454887,-0.5649897716099306,0.8030476579268253,4.652362834473372,-1.5672901485831725,-7.51267532487404
0.34400000000000003,0.8526723273943732,-1.6434930952474684,1.8667523349913213,0.3337193174015983,1.2521067340972794,-0.25241224672216406,-1.2149980923522596,-0.22739872884433576,0.323206610852389,1.872415596009834,-0.6308067430872977,-3.0236095830821,-3.003416122184993,-0.5621010500181378,0.7989424257170974,4.628584167860356,-1.5592768691091718,-7.474275606892733
0.34800000000000003,0.84778830087264,-1.6444071882463525,1.8680515547882894,0.3412460189814524,1.2495710293725995,-0.26456649624639716,-1.226979184458035,-0.2296410360737855,0.32639371548448537,1.8908797385341485,-0.6370269375773618,-3.0534256293088466,-2.984102590596754,-0.5584868333664839,0.7938049982891826,4.598818549218592,-1.5492509339680438,-7.426210797624622
0.352,0.8428564939187089,-1.6453302235360587,1.8693634847151972,0.3488463553098715,1.2470105185966605,-0.27683965175663483,-1.2388709130770337,-0.23186662351126763,0.32955705083870246,1.9092061444035828,-0.643200750559042,-3.083019269463097,-2.959245819509154,-0.5538367290267021,0.7871937657520645,4.560504547298727,-1.536351257394597,-7.364345826872509
0.356,0.8378773335680237,-1.6462621212344426,1.870688011194999,0.35651966813668107,1.2444254233681271,-0.28923065040210194,-1.2506531510141083,-0.23407172990599912,0.3326912656105019,1.9273637749125383,-0.6493177476365186,-3.1123403959238267,-2.9315316714059736,-0.5486526550337045,0.7798228300326393,4.517784105074169,-1.5219702515813227,-7.2953672785279755
0.36,0.832851268710596,-1.6472027973753067,1.8720250148400812,0.3642652655091718,1.2418159766155683,-0.30173837492402544,-1.2623231664482815,-0.23625584475153727,0.3357956334789636,1.9453484172441762,-0.6553765125716926,-3.1413822076913207,-2.903476045670178,-0.5434047677561893,0.7723611041982048,4.474537060747408,-1.5074122159987324,-7.225538605222514
0.364,0.8277787482364375,-1.648152167992455,1.8733743762628308,0.3720824554746345,1.2391824112675536,-0.3143617080636325,-1.2738809593794698,-0.23841896804804863,0.3388701544440875,1.9631600713985176,-0.6613770453645085,-3.170144704765607,-2.875420419943042,-0.5381568804647963,0.7648993783290758,4.431290016422396,-1.4928541804196116,-7.155709931915332
0.368,0.8226602210355602,-1.6491101491196911,1.874735976075634,0.37997054608035996,1.2365249602526522,-0.3270995325621503,-1.2853265298078258,-0.24056109979525564,0.3419148285055962,1.9807987373755553,-0.6673193460150495,-3.1986278871466434,-2.847364794222873,-0.532908993156056,0.7574376524634163,4.388042972096495,-1.4782961448439602,-7.085881258604709
0.372,0.8174961359979749,-1.650076656790817,1.8761096948908755,0.3879288453736389,1.2338438564994332,-0.33995073116080565,-1.2966598777332528,-0.24268223999329708,0.34492965566379485,1.9982644151752895,-0.6732034145232602,-3.2268317548344445,-2.819309168483608,-0.5276611058750713,0.7499759266324513,4.344795927772371,-1.4637381092648394,-7.016052585298415
0.376,0.8122869420136942,-1.6510516070396375,1.8774954133209443,0.3959566614017623,1.2311393329364662,-0.35291418660082585,-1.3078810031556947,-0.2447823886422562,0.3479146359186558,2.0155571047977343,-0.6790292508891682,-3.2547563078290307,-2.791253542754751,-0.5224132185836783,0.7425142007702612,4.301548883447359,-1.4491800736926574,-6.946223911992067
0.38,0.8070330879727293,-1.652034915899955,1.8788930119782248,0.4040533022120208,1.2284116224923198,-0.3659887816234379,-1.3189899060752908,-0.2468615457419665,0.35086976926995694,2.0326768062428684,-0.6847968551128014,-3.282401546130381,-2.763197917034582,-0.5171653312922853,0.7350524749080711,4.258301839122291,-1.4346220381100672,-6.876395238685773
0.384,0.8017350227650919,-1.6530264994055732,1.880302371475104,0.4122180758517052,1.2256609580955637,-0.3791733989698689,-1.3299865864919713,-0.2489197112925945,0.35379505571792036,2.0496235195107126,-0.6905062271940487,-3.309767469738517,-2.7351422913056975,-0.5119174440043617,0.7275907490562894,4.215054794796391,-1.4200640025240074,-6.8065665653803675
0.388,0.7963931952807936,-1.6540262735902957,1.8817233724239681,0.4204502903681065,1.2228875726747674,-0.39246692138134603,-1.3408710444057363,-0.2509568852940014,0.35669049526240726,2.0663972446012395,-0.6961573671329935,-3.336854078653424,-2.7070866655751202,-0.5066695566990909,0.7201290231975688,4.171807750468825,-1.4055059669518255,-6.736737892070632
0.392,0.791008054409846,-1.6550341544879252,1.8831558954372032,0.42874925380851514,1.2200916991584998,-0.4058682315990963,-1.3516432798165723,-0.2529730677461872,0.3595560879035009,2.0829979815144632,-0.7017502749296634,-3.363661372875082,-2.6790310398462633,-0.5014216694007589,0.7126672973492565,4.128560706144646,-1.3909479313761741,-6.666909218762617
0.396,0.785580049042261,-1.6560500581322652,1.8845998211271962,0.4371142742202222,1.2172735704753301,-0.4193762123643467,-1.3623032927245065,-0.25496825864920747,0.3623918336412013,2.0994257302503967,-0.7072849505840029,-3.390189352403525,-2.6509754141191277,-0.4961737821232437,0.7052055714974748,4.085313661823076,-1.3763898957935838,-6.59708054545971
0.4,0.78010962806805,-1.657073900557119,1.8860550301063328,0.4455446596505183,1.2144334195538278,-0.4329897464183245,-1.3728510831295253,-0.25694245800317317,0.3651977324754807,2.115680490809048,-0.712761394096012,-3.4164380172387596,-2.6229197883920197,-0.4909258948353201,0.6977438456318152,4.04206661749723,-1.3618318602179325,-6.5272518721516954
0.404,0.7745972403772248,-1.6581055977962906,1.887521402987,0.4540397181466946,1.211571479322562,-0.44670771650225677,-1.3832866510316426,-0.25889566580789003,0.36797378440625583,2.1317622631903745,-0.7181796054657463,-3.4424073673807385,-2.5948641626631628,-0.4856780075300493,0.6902821197765641,3.9988195731687215,-1.347273824642281,-6.45742319884196
0.40800000000000003,0.7690433348597968,-1.659145065883582,1.8889988203815828,0.4625987577560413,1.2086879827101018,-0.4605290053573704,-1.3936099964308306,-0.26082788206341356,0.3707199894336932,2.1476710473943976,-0.7235395846931503,-3.4680974028294953,-2.5668085369343063,-0.4804301202386563,0.6828203939317212,3.9555725288445975,-1.3327157890596908,-6.387594525537332
0.41200000000000003,0.7634483604057781,-1.660192220852798,1.8904871629024695,0.47122108652584976,1.2057831626450168,-0.47445249572489273,-1.403821119327117,-0.2627391067697993,0.3734363475577096,2.1634068434211313,-0.7288413317782239,-3.493508123585037,-2.5387529112106675,-0.4751822329437938,0.6753586680660617,3.912325484516088,-1.3181577534840394,-6.31776585222843
0.41600000000000004,0.7578127659051799,-1.6612469787377404,1.8919863111620445,0.47990601250341036,1.202857252055876,-0.4884770703460507,-1.413920019720516,-0.2646293399269639,0.3761228587782217,2.1789696512705263,-0.7340848467210226,-3.5186395296473227,-2.510697285476593,-0.4699343456628091,0.6678969422212189,3.8690784401936296,-1.3035997179049186,-6.247937178920471
0.42,0.752137000248014,-1.6623092555722137,1.8934961457726953,0.488652843736014,1.1999104838712487,-0.5026016119620713,-1.4239066976109298,-0.26649858153510175,0.37877952309547935,2.1943594709426804,-0.7392701295214632,-3.543491621016401,-2.4826416597459877,-0.4646864583714161,0.6604352163729066,3.825831395875612,-1.2890416823188589,-6.178108505619339
0.424,0.7464215123242924,-1.6633789673900212,1.8950165473468084,0.4974608882709518,1.1969430910197043,-0.5168250033141819,-1.4337811529984839,-0.26834683159393524,0.38140634050920497,2.2095763024375312,-0.7443971801795735,-3.5680643976922775,-2.4545860340258185,-0.4594385710661453,0.6529734905037776,3.782584351543661,-1.2744836467432075,-6.1082798323129905
0.428,0.7406667510240261,-1.6644560302249651,1.896547396496769,0.5063294541555142,1.193955306429812,-0.5311461271436095,-1.4435433858831364,-0.2701740901036309,0.3840033110195096,2.2246201457550296,-0.7494659986954089,-3.592357859674905,-2.426530408295241,-0.4541906837851606,0.6455117646554653,3.7393373072168723,-1.2599256111710255,-6.038451159004143
0.432,0.7348731652372273,-1.6655403601108503,1.8980885738349644,0.515257849436992,1.190947363030141,-0.5455638661915811,-1.4531933962648458,-0.2719803570642165,0.3865704346264487,2.239491000895266,-0.7544765850689417,-3.6163720069643106,-2.3984747825663844,-0.44894279648682867,0.6380500387967447,3.696090262897078,-1.2453675755953741,-5.96862248569524
0.436,0.7290412038539074,-1.6666318730814789,1.8996399599737805,0.5242453821626764,1.1879194937492605,-0.560077103199324,-1.4627311841436674,-0.27376563247552554,0.38910771132988353,2.2541888678582063,-0.7594289393001719,-3.6401068395604668,-2.3704191568392483,-0.44369490918849674,0.6305883129414935,3.6528432185676807,-1.2308095400127839,-5.898793812386338
0.44,0.723171315764078,-1.6677304851706545,1.9012014355256035,0.5332913603798577,1.1848719315157397,-0.5746847209080649,-1.4721567495195598,-0.2755299163377245,0.39161514112998064,2.2687137466438076,-0.7643230613890439,-3.6635623574634013,-2.342363531106922,-0.43844702190751206,0.6231265871001201,3.6095961742417804,-1.2162515044301936,-5.828965139084374
0.444,0.7172639498577509,-1.6688361124121807,1.9027728811028204,0.5423950921358268,1.1818049092581482,-0.5893856020590312,-1.4814700923925228,-0.27727320865078564,0.3940927240266845,2.2830656372521405,-0.7691589513356134,-3.6867385606731418,-2.314307905381535,-0.4331991346126496,0.6156648612309912,3.566349129917712,-1.2016934688580116,-5.759136465775471
0.448,0.7113195550249378,-1.6699486708398608,1.904354177317817,0.5515558854778748,1.1787186599050548,-0.60417862939345,-1.490671212762612,-0.2789955094146257,0.39654046001982857,2.2972445396831493,-0.773936609139908,-3.709635449189605,-2.2862522796596174,-0.4279512473108482,0.6082031353688011,3.5231020855918116,-1.1871354332823603,-5.689307792464793
0.452,0.70533858015565,-1.6710680764874977,1.905945204782979,0.560773048453292,1.175613416385029,-0.6190626856525481,-1.4997601106297997,-0.2806968186292724,0.3989583491096349,2.311250453936875,-0.7786560348018723,-3.73225302301286,-2.2581966539272913,-0.42270336002292463,0.6007414095308972,3.479855041271074,-1.17257739769977,-5.619479119162829
0.456,0.6993214741398994,-1.672194245388895,1.907545844110694,0.5700458891093698,1.1724894116266398,-0.6340366535775529,-1.5087367859940304,-0.2823771362948091,0.40134639129607574,2.325083380013318,-0.7833172283215062,-3.7545912821429077,-2.230141028194965,-0.4174554727384705,0.593279683675646,3.4366079969434526,-1.1580193621171797,-5.549650445855702
0.46,0.6932686858676977,-1.6733270935778561,1.9091559759133476,0.5793737154933986,1.1693468785584569,-0.6490994159096913,-1.5176012388553595,-0.2840364624111802,0.40370458657904007,2.3387433179124226,-0.7879201896988097,-3.7766502265797057,-2.202085402469578,-0.4122075854401386,0.5858179578030476,3.3933609526141106,-1.1434613265415283,-5.479821772545079
0.464,0.6871806642290565,-1.6744665370881844,1.9107754808033264,0.5887558356526692,1.1661860501090493,-0.6642498553901905,-1.526353469213787,-0.2856747969783302,0.4060329349585001,2.352230267634231,-0.7924649189338384,-3.7984298563232683,-2.1740281318481656,-0.40695938991613945,0.5783557942007356,3.35011137472635,-1.1289024359727173,-5.40998900707379
0.468,0.6810578581139874,-1.6756124919536828,1.9124042393930156,0.5981915576344724,1.1630071592069862,-0.6794868547602775,-1.5349934639101448,-0.2872921375305093,0.40833143293264595,2.3655442089102334,-0.7969514091865915,-3.819930138636296,-2.1426262989433784,-0.40108446923425856,0.5700035592276498,3.301710306546912,-1.1126050870613469,-5.331835649876437
0.47200000000000003,0.6749007165177754,-1.6767648741884285,1.9140421322667875,0.6076801893239511,1.1598104388355566,-0.6948092964992809,-1.543494479605334,-0.28888347273220427,0.4105929634323213,2.378643950086606,-0.8013657596303292,-3.84108454152228,-2.0941856593136574,-0.39201670951755085,0.5571168730268694,3.2270650724280925,-1.0874511963687716,-5.2112932018479885
0.47600000000000003,0.6687099022771448,-1.6779235597355404,1.9156889831004742,0.6172207092351653,1.1565962331299435,-0.7102155310924557,-1.551746949184654,-0.2904282712066497,0.4127883679168609,2.391360729489658,-0.8056510187575416,-3.86162048425108,-2.0196947181968237,-0.37806748010710267,0.5372975522451029,3.1122956414709746,-1.0487567105171847,-5.025942894108792
0.48,0.6624867409242982,-1.6790883003580817,1.9173444392101224,0.6268110751598683,1.1533652306854962,-0.7257022603732896,-1.5596520373509086,-0.2919080125730611,0.41489134385028215,2.403542315218374,-0.8097558133144667,-3.88129208467515,-1.9308495696254147,-0.36142846884107405,0.5136582190805317,2.9754170212878406,-1.0026011013387903,-4.8048822333338626
0.484,0.6562326859783375,-1.680258823836125,1.9190081138512765,0.6364490477569122,1.1501181866234278,-0.7412658677698569,-1.5671937457416574,-0.2933196989573783,0.41689763366950516,2.415164065659961,-0.813671827568252,-3.900059542117751,-1.8400046257454616,-0.3444147232967154,0.48948669051709914,2.8354581994936012,-0.9554060255712038,-4.578846487957755
0.488,0.6499491909583649,-1.6814348579497407,1.9206796202794785,0.646132387685148,1.1468558560649502,-0.7569027367102316,-1.5743720743568723,-0.2946633303594348,0.41880723737441894,2.4262259808143227,-0.8173990615190363,-3.9179228565788122,-1.7491596818724198,-0.32740097773500954,0.46531516193284994,2.6954993776855396,-0.9082109498070867,-4.352810742574653
0.492,0.6436377093834825,-1.6826161304790004,1.9223585717502718,0.6558588556034268,1.1435789941312755,-0.7726092506224874,-1.5811870231966367,-0.2959389067792584,0.42062015496496796,2.436728060681445,-0.8209375151667087,-3.934882028058348,-1.6583147379994057,-0.3103872321975898,0.4411436333694174,2.555540555886082,-0.8610158740186835,-4.12677499720715
0.496,0.6372996947727918,-1.6838023692039747,1.9240445815191982,0.6656262121705996,1.1402883559436165,-0.7883817929346983,-1.5876385922608676,-0.29714642821701553,0.4223363864413743,2.4466703052614114,-0.8242871885111858,-3.9509370565564694,-1.567469794116011,-0.2933734866636395,0.41697210482333213,2.415581734091843,-0.8138207982441581,-3.900739251836205
0.5,0.6309366006453956,-1.6849933019047365,1.9257372628418028,0.6754322180455181,1.136984696623186,-0.8042167470749392,-1.5937267815495648,-0.2982858946725675,0.4239559318035546,2.45605271455418,-0.8274480815526619,-3.9660879420730377,-1.4766248502412482,-0.27635974111234196,0.3928005762494913,2.275622912287223,-0.766625722480041,-3.674703506446164
0.504,0.6245498805203953,-1.6861886563613553,1.9274362289736267,0.685274633887033,1.1336687712911953,-0.8201104964712826,-1.5994515910627976,-0.29935730614591427,0.4254787910513702,2.464875288559709,-0.8304201942910261,-3.9803346846080387,-1.385779906363016,-0.2593459955818611,0.3686290476895282,2.1356640904947044,-0.7194306466846989,-3.4486677610769956
0.508,0.6181409879168932,-1.6873881603539038,1.9291410931702138,0.6951512203539958,1.1303413350688578,-0.8360594245518035,-1.604813020800469,-0.3003606626372224,0.42690496418507085,2.4731380272781376,-0.8332035267261395,-3.9936772841616537,-1.2949349624796214,-0.2423322500479108,0.34445751913997347,1.9957052687074595,-0.6722355708997652,-3.2226320157147104
0.512,0.6117113763539915,-1.688591541662453,1.9308514686871072,0.7050597381052581,1.1270031430773861,-0.8520599147445759,-1.6098110707626345,-0.30129596414629756,0.42823445120449,2.480840930709369,-0.8357980788582242,-4.006115740733756,-1.204090018608328,-0.2253185044896744,0.3202859905661326,1.8557464469011187,-0.6250404951356481,-2.996596270333385
0.516,0.6052624993507921,-1.6897985280670742,1.9325669687798497,0.7149979477996707,1.123654950437992,-0.8681083504776735,-1.6144457409493356,-0.3021632106731398,0.4294672521095999,2.4879839988533465,-0.8382038506872247,-4.017650054324321,-1.1132450747387834,-0.2083047589418463,0.2961144619888223,1.7157876250964432,-0.5778454193611227,-2.770560524955501
0.52,0.5987958104263968,-1.6910088473478382,1.934287206703984,0.7249636100960849,1.1202975122718883,-0.8842011151791704,-1.6187170313605448,-0.3029624022178323,0.4306033669004006,2.4945672317101404,-0.8404208422131132,-4.0282802249334,-1.0224001308571096,-0.191291013407896,0.2719429334288592,1.5758288033022039,-0.5306503435865972,-2.5445247795827797
0.524,0.5923127630999078,-1.6922222272848169,1.9360117957150529,0.7349544856533519,1.1169315837002871,-0.9003345922771407,-1.6226249419961924,-0.30369353878040295,0.4316427955770308,2.500590629279764,-0.8424490534359175,-4.038006252560983,-0.9315551869719385,-0.17427726787047626,0.24777140487583504,1.4358699815062437,-0.4834552678120718,-2.3184890342066167
0.528,0.5858148108904273,-1.6934383956580814,1.9377403490686003,0.744968335130323,1.113557919844401,-0.9165051651996583,-1.6261694728563203,-0.30435662036079614,0.43258553813940726,2.5060541915621903,-0.8442884843556098,-4.046828137207053,-0.8407102431006452,-0.15726352232611762,0.22359987630893308,1.2959111597050654,-0.43626019203407695,-2.09245328883223
0.532,0.5793034073170572,-1.6946570802477032,1.9394724800201681,0.7550029191858494,1.1101772758254422,-0.9327092173747972,-1.6293506239409976,-0.3049516469590119,0.43343159458750224,2.5109579185574047,-0.8459391349721901,-4.054745878871641,-0.7498652992259103,-0.14024977678869788,0.19942834775243945,1.1559523379108816,-0.38906511625261264,-1.8664175434596197
0.536,0.5727800058988993,-1.6958780088337535,1.9412078018253003,0.7650559984787823,1.1067904067646235,-0.9489431322306314,-1.6321683952501276,-0.3054786185751057,0.43418096492142677,2.5153018102654774,-0.8474010052856307,-4.06175947755473,-0.6590203553459573,-0.12323603125127813,0.17525681918553748,1.0159935161184186,-0.3418700404780872,-1.6403817980833457
0.54,0.5662460601550562,-1.697100909196304,1.9429459277395396,0.7751253336679732,1.1033980677831572,-0.965203293195235,-1.6346227867837653,-0.3059375352090221,0.43483364914098654,2.519085866686352,-0.8486740952960148,-4.067868933256308,-0.5681754114711945,-0.10622228570345005,0.15108529061169662,0.8760346943137431,-0.2946749647035618,-1.4143460527124008
0.544,0.5597030236046292,-1.6983255091154257,1.9446864710184282,0.7852086854122731,1.1000010140022554,-0.9814860836966819,-1.6367137985418971,-0.3063283968607333,0.43538964724632034,2.5223100878199873,-0.8497584050032592,-4.0730742459764295,-0.4773304675912693,-0.08920854015562196,0.12691376205867244,0.7360758725125649,-0.24747988891862804,-1.1883103073380141
0.548,0.553152349766721,-1.69955153637119,1.9464290449175101,0.7953038143705331,1.0966000005431311,-0.9977878871630464,-1.6384414305244954,-0.3066512035302671,0.4358489592374559,2.5249744736664526,-0.8506539344073638,-4.077375415715012,-0.38648552371478573,-0.07219479461820222,0.10274223349523992,0.5961170507200464,-0.20028481314063318,-0.9622745619601858
0.552,0.5465954921604332,-1.7007787187436678,1.9481732626923278,0.8054084812016047,1.0931957825269965,-1.014105087022402,-1.6398056827316154,-0.30690595521767894,0.43621158511428226,2.5270790242257477,-0.8513606835083842,-4.080772442472111,-0.2956405798382744,-0.05518104908425192,0.07857070492833795,0.4561582289241417,-0.1530897373695772,-0.7362388165892408
0.556,0.5400339043048681,-1.7020067840129314,1.9499187375984244,0.8155204465643391,1.089789115075064,-1.0304340667028233,-1.6408065551632016,-0.3070926519229411,0.4364775248768826,2.5286237394978457,-0.8518786523063204,-4.083265326247726,-0.20479563596179085,-0.03816730352948494,0.05439917636490543,0.3161994071212426,-0.10589466160199068,-0.5102030712095251
0.56,0.5334690397191276,-1.7032354599590513,1.9516650828913429,0.8256374711175875,1.0863807533085459,-1.0467712096323838,-1.6414440478193097,-0.3072112936459148,0.4366467785252015,2.5296086194827176,-0.8522078408012002,-4.084854067041787,-0.11395069208705588,-0.02115355798859575,0.030227647798003465,0.17624058532350606,-0.05869958582052637,-0.28416732583347315
0.5640000000000001,0.5269023519223136,-1.7044644743620987,1.953411911826626,0.8357573155202008,1.0829714523486544,-1.0631128992391576,-1.641718160699898,-0.3072618803868499,0.43671934605926666,2.5300336641804337,-0.8523482489928846,-4.085538664854393,-0.023105748205382026,-0.004139812468523241,0.0060561192449792856,0.036281763531043065,-0.01150451003212316,-0.05813158046596989
0.5680000000000001,0.5203352944335284,-1.7056935550021461,1.955158837659817,0.8458777404310309,1.0795619673166028,-1.079455518951219,-1.6416288938049528,-0.307244412145663,0.43669522747916134,2.529898873590966,-0.8522998768814571,-4.085319119685515,0.06773919567110154,0.012873933086243738,-0.018115409314983788,-0.10367705827013518,0.035690565735463364,0.16790416490841675
0.5720000000000001,0.513769320771874,-1.706922429659264,1.9569054736464593,0.8559965065089286,1.0761530533336028,-1.0957954521966418,-1.6411762471345293,-0.3071588889221599,0.4365744227847468,2.5292042477142727,-0.8520627244670009,-4.084195431535126,0.15858413954586426,0.029887678644480165,-0.042286937892294096,-0.24363588007647596,0.08288564150651934,0.3939399102932395
0.5760000000000001,0.5072058844564522,-1.7081508261135234,1.958651433042095,0.8661113744127451,1.0727454655208668,-1.1121290824035,-1.640360220688586,-0.30700531071650716,0.436356931976023,2.527949786550354,-0.851636791749405,-4.082167600403169,0.24942908342495684,0.046901424174961015,-0.06645846645572662,-0.3835947018707153,0.1300807172914531,0.6199756556711788
0.58,0.5006464390063653,-1.709378472144996,1.9603963291022675,0.8762201048013314,1.0693399589996075,-1.1284527929998671,-1.6391808144671296,-0.30678367752876023,0.43604275505310097,2.526135490099307,-0.8510220787286693,-4.079235626289757,0.3402740272988314,0.06391516970891131,-0.09062999501568969,-0.5235535236562949,0.17727579306944796,0.8460114010316877
0.584,0.49409243794071517,-1.7106050955337535,1.9621397750825198,0.8863204583335396,1.0659372888910374,-1.144762967413818,-1.6376380284701952,-0.30649398935883587,0.43563189201589747,2.523761358361104,-0.8502185854048494,-4.075399509194916,0.43111897117356635,0.08092891525326995,-0.11480152357912221,-0.6635123454591385,0.22447086884050393,1.072047146399191
0.588,0.48754533477860373,-1.7118304240598667,1.9638813842383946,0.8964101956682202,1.0625382103163687,-1.1610559890734264,-1.635731862697741,-0.3061362462067341,0.435124342864468,2.520827391335634,-0.8492263117779453,-4.070659249118563,0.5219638794708992,0.0979426541258821,-0.1389730426674951,-0.8034711124742522,0.27166592609859097,1.2980828032749248
0.592,0.48100658303913324,-1.7130541855034074,1.9656207698254355,0.9064870774642246,1.0591434783968139,-1.1773282414067665,-1.633462317434428,-0.3057104481258288,0.4345201076745575,2.51733358946131,-0.8480452579960607,-4.065014846768716,0.6067942157480799,0.11382837586740302,-0.161543460313468,-0.9341694191273286,0.3157321109975575,1.5091587381339533
0.596,0.4744776362391283,-1.7142761076448734,1.967357545099791,0.9165488643839107,1.0557538482524003,-1.1935761078475762,-1.6308775089717564,-0.30522561919979485,0.43383199518196025,2.513354035982615,-0.8467004548899648,-4.0585859792134915,0.6568303554735366,0.12318853778725547,-0.17485153340143778,-1.0112961206024118,0.3416978225680156,1.633692936275244
0.6,0.4679595629673592,-1.7154959904570057,1.9690914257868912,0.9265939097520856,1.0523698747576942,-1.2097969292404744,-1.6282076745906398,-0.30472493982353077,0.433121295407346,2.5092432204964905,-0.8453116754155166,-4.051945303278514,0.6499364056094525,0.12187161152824033,-0.17300460489200198,-1.0007692308085514,0.33804763056866083,1.616627979587948
0.604,0.4614519748424032,-1.7167139071634616,1.9708225154630499,0.9366228101478826,1.0489913548490761,-1.2259916702738043,-1.6256780177268808,-0.30425064630756893,0.43244795834282423,2.505347882136147,-0.8439960738454155,-4.045652955376788,0.6095067560541456,0.11426515322127129,-0.16223034839460415,-0.9386084065601819,0.31695165455397634,1.5161514778372354
0.608,0.45495413882554414,-1.7179299956274663,1.9725510094536338,0.9466366928091747,1.0456179061669308,-1.2421621528834887,-1.6233316205422066,-0.3038108185977606,0.4318234526201892,2.501734353244009,-0.8427760621790847,-4.039816091455816,0.5636918362812715,0.1056487016828922,-0.15002251290557878,-0.8681560395087939,0.2930541786148877,1.4022804826485658
0.612,0.44846532187806554,-1.7191443937122437,1.9742771030840114,0.9566366849738347,1.0422491463516435,-1.2583101990054508,-1.6211684830366306,-0.3034054566941058,0.4312477782395796,2.4984026338200764,-0.8416516404164964,-4.034434711515599,0.5178769165092578,0.09703225013063532,-0.1378146774165534,-0.7977036724643449,0.2691567026653907,1.2884094874667795
0.616,0.4419847909612511,-1.7203572392810191,1.9760009916795505,0.9666239138797353,1.0388846930435989,-1.2744376305756135,-1.6191886052101325,-0.3030345605967155,0.43072093520085675,2.4953527238642943,-0.8406228085577616,-4.029508815556082,0.47206199674068583,0.0884157985818479,-0.1256068419552836,-0.7272513054233376,0.2452592267054854,1.1745384922919877
0.62,0.4355118130363845,-1.7215686701970174,1.9777228705656182,0.976599506764749,1.0355241638831814,-1.2905462695298995,-1.6173919870627051,-0.302698130305451,0.43024292350393734,2.4925846233766897,-0.8396895666028525,-4.0250384035772635,0.42624707697128117,0.0797993470434688,-0.11339900646972767,-0.6567989383789441,0.2213617507559884,1.0606674971068708
0.624,0.42904565506474945,-1.7227788243234627,1.979442935067582,0.9865645908667489,1.032167176510776,-1.3066379378042317,-1.6157786285943623,-0.30239616582036777,0.4298137431490989,2.4900983323572627,-0.8388519145517137,-4.021023475579227,0.3804321571975189,0.07118289551202861,-0.10119117097723285,-0.5863465713362159,0.19746427480302198,0.9467965019286373
0.628,0.4225855840076296,-1.7239878395235804,1.981161380510811,0.9965202934236072,1.0288133485667676,-1.3227144573345333,-1.614348529805125,-0.3021286671413548,0.4294333941361195,2.487893850806,-0.8381098524044284,-4.017464031561834,0.33461723742722604,0.06256644397364952,-0.0889833355124936,-0.5158942042934878,0.17356679884311665,0.8329255067572872
0.632,0.41613086682630845,-1.7251958536605936,1.982878402220671,1.0064677416731969,1.0254622976915406,-1.3387776500567263,-1.6131016906949445,-0.30189563426857857,0.429101876464999,2.485971178722915,-0.8374633801609688,-4.014360071525169,0.28880231766129083,0.05394999240404541,-0.07677550001652933,-0.44544183724903874,0.14966932289708912,0.7190545115650648
0.636,0.40968077048207,-1.726403004597729,1.984594195522531,1.0164080628533905,1.02211364152548,-1.3548293379067347,-1.6120381112638347,-0.3016970672021224,0.42881919013598724,2.4843303161080077,-0.8369124978212517,-4.011711595469314,0.24298739788927715,0.045333540862196875,-0.06456766452750395,-0.37498947020631057,0.12577184695453103,0.6051835163798369
0.64,0.4032345619361978,-1.7276094301982106,1.9863089557417588,1.026342384202061,1.0187669977089706,-1.3708713428204808,-1.6111577915118303,-0.301532965941681,0.42858533514877895,2.4829712629612644,-0.8364572053853325,-4.00951860339413,0.19717247811551486,0.03671708934116502,-0.05235982908011194,-0.3045371031636379,0.10187437099462571,0.4913125212120395
0.644,0.3967915081499754,-1.7288152683252624,1.9880228782037213,1.0362718329570806,1.0154219838823972,-1.3869054867338877,-1.6104607314389106,-0.3014033304873931,0.42840031150334634,2.4818940192826986,-0.8360975028532946,-4.007781095299618,0.1513575583461102,0.028100637792377592,-0.040151993601494906,-0.23408473611225,0.07797689503472038,0.3774415260303643
0.648,0.3903508760846865,-1.7300206568421097,1.9897361582337856,1.0461975363563225,1.0120782176861443,-1.4029335915828778,-1.6099469310450614,-0.301308160839342,0.428264119199967,2.4810985850723664,-0.8358333902250548,-4.006499071185887,0.10554263857756596,0.019484186240120716,-0.027944158095122296,-0.16363236906774548,0.05407941908869285,0.263570530838253
0.652,0.3839119327016149,-1.7312257336119772,1.991448991157321,1.0561206216376595,1.0087353167605968,-1.4189574793033748,-1.60961639033029,-0.30124745699747213,0.42817675823858536,2.4805849603301566,-0.8356648675005851,-4.0056725310529115,0.05972771880724537,0.01086773469827218,-0.015736322619974707,-0.09318000203373256,0.030181943139195866,0.14969953565990846
0.656,0.3774739449620442,-1.7324306364980895,1.9931615722996943,1.0660422160389638,1.0053928987461396,-1.434978971831301,-1.6094691092946034,-0.3012212189617558,0.4281382286190072,2.4803531450560965,-0.8355919346799412,-4.005301474900608,0.013912799036092105,0.0022512831598930916,-0.0035284871482965663,-0.02272763498584185,0.006284467184494713,0.03582854048511663
0.66,0.37103617982725806,-1.7336355033636712,1.994874096986273,1.0759634467981083,1.0020505812831573,-1.4509998911025797,-1.6095050879380013,-0.301229446732193,0.428148530341399,2.48040313925027,-0.8356145917631091,-4.005385902729031,-0.031902120736782,-0.006365168381955444,0.008679348326851022,0.04772473205866268,-0.017613008773675887,-0.07804245469311688
0.664,0.36459790425854016,-1.734840472071947,1.9965867605424255,1.085885441152966,0.9987079820120347,-1.4670220590531333,-1.6097243262604977,-0.30127214030881144,0.428207663405622,2.480734942912566,-0.8357328387501306,-4.005925814538153,-0.07771704050793526,-0.014981619930742873,0.020887183798529163,0.1181770990961728,-0.041510484726642316,-0.1919134498783448
0.668,0.3581583852171741,-1.7360456804861417,1.998299758293518,1.0958093263414088,0.9953647185731562,-1.4830472976188849,-1.6101268242620648,-0.3013492996916389,0.4283156278117872,2.4813485560430393,-0.8359466756409223,-4.006921210328057,-0.12353196027475866,-0.023598071469121962,0.03309501929449343,0.1886294661475052,-0.06540796067093513,-0.30578444506002
0.672,0.35171688966444364,-1.7372512664694801,2.0000132855649198,1.1057362296013102,0.9920204086069073,-1.4990774287357578,-1.6107125819426957,-0.3014609248805644,0.42847242355997794,2.482243978641746,-0.8362561024354981,-4.008372090098633,-0.16934688004416332,-0.0322145230040316,0.04530285478351881,0.2590818331919542,-0.08930543662216683,-0.4196554402348118
0.676,0.3452726845616325,-1.7384573678851862,2.001727537681998,1.1156672781705428,0.9886746697536722,-1.515114274339674,-1.611481599302418,-0.3016070158756712,0.4286780506500554,2.483421210708575,-0.8366611191338996,-4.010278453849936,-0.21516179981878603,-0.04083097455281903,0.0575106902517275,0.32953420022951985,-0.11320291258033743,-0.533526435416598
0.68,0.3388250368700243,-1.7396641225964855,2.00344270997012,1.1256035992869788,0.9853271196538361,-1.5311596563665573,-1.612433876341246,-0.30178757267698697,0.42893250908199176,2.484880252243582,-0.8371617257361408,-4.012640301581966,-0.2609767195899393,-0.049447426098137015,0.06971852572340564,0.39998656727741055,-0.1371003885367733,-0.6473974305948316
0.684,0.33237321355090255,-1.7408716684666021,2.005158997754654,1.1355463201884914,0.9819773759477831,-1.5472153967523297,-1.6135694130591376,-0.3020025952844563,0.4292357988558426,2.486621103246794,-0.8377579222421938,-4.0154576332946945,-0.3067916393567627,-0.058063877643455,0.08192636120896157,0.47043893432185957,-0.16099786448280085,-0.7612684257799485
0.6880000000000001,0.3259164815655512,-1.7420801433587612,2.006876596360967,1.1454965681129532,0.9786250562758986,-1.5632833174329148,-1.6148882094561001,-0.3022520836981346,0.42958791997166346,2.488643763718157,-0.8384497086520032,-4.018730448988205,-0.3526065591270555,-0.06668032919224243,0.0941341967014564,0.5408913013698058,-0.1848953404305631,-0.8751394209721708
0.6920000000000001,0.31945410787525375,-1.7432896851361872,2.008595701114427,1.1554554702982367,0.9752697782785671,-1.5793652403442353,-1.616390265532154,-0.3025360379179942,0.42998887242945427,2.4909482336577526,-0.8392370849656383,-4.022458748662472,-0.39842147890079005,-0.07529678072368262,0.10634203216619564,0.6113436684072604,-0.20879281639220315,-0.9890104161400792
0.6960000000000001,0.31298535944129396,-1.7445004316621051,2.0103165073404026,1.1654241539822152,0.9719111595961735,-1.5954629874222146,-1.6180755812873064,-0.30285445794392407,0.430438656228993,2.493534513065415,-0.8401200511831408,-4.026642532317326,-0.44423639866761344,-0.08391323226553116,0.11854986763787378,0.6817960354447705,-0.23269029234170013,-1.1028814113078766
0.7000000000000001,0.3065095032249553,-1.7457125207997386,2.012039210364259,1.17540374640276,0.968548817869102,-1.611578380602774,-1.619944156721495,-0.30320734377611847,0.43093727137055726,2.496402601941311,-0.8410986073043719,-4.031281799952935,-0.49005131843443683,-0.09252968382472693,0.1307577031442464,0.7522484025031528,-0.25658776828599295,-1.2167524065069824
0.704,0.300025806187522,-1.746926090412314,2.013764005511367,1.1853953747977457,0.9651823707377385,-1.627713241821838,-1.621995991834782,-0.3035946954145219,0.431484717854147,2.49955250028544,-0.8421727533294288,-4.036376551569382,-0.5358662382142776,-0.10114613535616712,0.14296553860898564,0.8227007695371658,-0.28048524425110244,-1.3306234016886576
0.708,0.29353353529027704,-1.7481412783630548,2.015491088107092,1.1954001664050435,0.9618114358424665,-1.643869393015329,-1.6242310866272092,-0.3040165128589678,0.43208099567942915,2.502984208097608,-0.8433424892583807,-4.041926787166444,-0.5816811579871517,-0.10976258689107676,0.1551733740737249,0.8931531365746759,-0.30438272020406887,-1.4444943968634494
0.712,0.28703195749450433,-1.7493582225151858,2.0172206534768025,1.2054192484625266,0.9584356308236714,-1.6600486561191696,-1.6266494410986791,-0.3044727961096505,0.4327261048467368,2.5066977253780376,-0.8446078150910613,-4.0479325067442895,-0.6274960777513661,-0.11837903844333364,0.1673812095800975,0.9636055036364999,-0.3282801961483617,-1.5583653920486773
0.716,0.2805203397614876,-1.750577060731932,2.018952896945866,1.2154537482080678,0.955054573321738,-1.6762528530692833,-1.62925105524922,-0.30496354516651447,0.4334200453560699,2.5106930521267,-0.8459687308275676,-4.054393710302834,-0.6706943847861468,-0.12649848404877595,0.17888942704935573,1.0300520186801165,-0.35079978494625963,-1.6657496523138082
0.72,0.27399794905251057,-1.751797930876518,2.020688013839651,1.2255047928795402,0.9516678809770509,-1.6924838058015923,-1.6320149961769683,-0.3054847839820407,0.43415722026313164,2.5149381415274785,-0.8474142133706314,-4.0612585039628,-0.6965393619792482,-0.13132179492447715,0.18575779003882076,1.0699317933189345,-0.364181250276166,-1.7301140001236837
0.724,0.26746421979207186,-1.7530209390037883,2.022426154707971,1.2355732533402877,0.948275259614773,-1.7087429211009857,-1.634823370145054,-0.3060141195259103,0.4349061076763805,2.5192525064732516,-0.848882180829777,-4.068234622303823,-0.6920207766131226,-0.13037777506219594,0.18450768171640597,1.0633270666852712,-0.3615735085626265,-1.7192053130450358
0.728,0.26091936209135014,-1.7542460438327252,2.024167262701062,1.2456588129313262,0.9448768235304127,-1.7250296827800229,-1.6375511623898733,-0.3065278061825383,0.4356332817168629,2.5234447580609607,-0.8503068014391324,-4.07501214646716,-0.6683682507208077,-0.12579940686027746,0.17814162737994632,1.0274296086514312,-0.3488899881481239,-1.6608624762715074
0.732,0.25436381049295287,-1.7554731614532486,2.025911220961706,1.2557608114047754,0.9414728052032599,-1.741343018272723,-1.6401703161508205,-0.3070205147807925,0.43633124069542006,2.527471943342463,-0.851673300734962,-4.081521522113995,-0.6412082757477899,-0.12055482501854842,0.17083776723131328,0.98616249012351,-0.3343594733550004,-1.593824469518168
0.736,0.24779799956214357,-1.7567022079509715,2.0276579126266254,1.265878588478066,0.938063437124533,-1.7576818549569349,-1.6426808285958556,-0.30749224478268666,0.4369999838547134,2.5313340579819488,-0.8529816772259724,-4.087762742223306,-0.6140479467684201,-0.11531017594587634,0.16353381243616738,0.9448948296540416,-0.3198287721467574,-1.526785585164614
0.74,0.24122236386418602,-1.75793309941151,2.0294072208325438,1.276011483868631,0.9346489517854522,-1.7740451202105094,-1.645082699724968,-0.3079429961883595,0.4376395111949094,2.5350311019796954,-0.854231930912136,-4.093735806795312,-0.586887617788634,-0.1100655268836126,0.15622985765489927,0.9036271692089426,-0.30529807093851447,-1.4597467008283793
0.744,0.23463733796434383,-1.7591657519204784,2.0311590287161847,1.2861588372939035,0.9312295816772359,-1.7904317414112974,-1.6473759295381647,-0.30837276899775556,0.4382498227159526,2.5385630753356203,-0.8554240617934805,-4.099440715829933,-0.5597272888097082,-0.10482087781787941,0.14892590285281448,0.862359508736088,-0.29076736972680206,-1.392707816478378
0.748,0.2280433564278807,-1.7604000815634921,2.0329132194142714,1.296319988471316,0.9278055592911043,-1.8068406459371489,-1.6495605180354456,-0.30878156321090255,0.4388309184177319,2.541929978049584,-0.8565580698699504,-4.104877469327139,-0.5325669598312266,-0.09957622874173788,0.1416219480437908,0.8210918482493001,-0.27623666851508966,-1.3256689321249349
0.752,0.22144085382006026,-1.7616360044261656,2.0346696760635266,1.3064942771183001,0.9243771171182763,-1.8232707611659145,-1.6516364652168145,-0.30916937882768947,0.4393827983003029,2.5451318101216147,-0.8576339551416012,-4.110046067286932,-0.5054066308518568,-0.0943315796690658,0.1343179932486449,0.779824187783329,-0.2617059673068467,-1.2586300477610557
0.756,0.2148302647061462,-1.7628734365941137,2.036428281800674,1.3166810429522888,0.9209444876499715,-1.8397210144754443,-1.6536037710822604,-0.3095362158482551,0.4399054623637211,2.5481685715518507,-0.8586517176084052,-4.1149465097092275,-0.47824630187204287,-0.08908693061374096,0.1270140384743157,0.7385565273277939,-0.24717526609339957,-1.191591163414385
0.76,0.20821202365140218,-1.7641122941529517,2.0381889197624363,1.326879625690715,0.9175079033774091,-1.8561903332435883,-1.6554624356317909,-0.3098820742725994,0.44039891060809744,2.551040262340237,-0.8596113572703484,-4.119578796594247,-0.45108597289142405,-0.08384228154453832,0.1197100836791698,0.6972888668618782,-0.23264456487821772,-1.1245522790921392
0.764,0.20158656522109186,-1.7653524931882945,2.0399514730855386,1.3370893650510107,0.9140675967918087,-1.8726776448481983,-1.6572124588653918,-0.3102069541006114,0.44086314303315444,2.5537468824867458,-0.8605128741274309,-4.123942927941965,-0.42392564391161014,-0.0785976324614579,0.11240612885626833,0.6560212063820847,-0.21811386367517893,-1.0575133947248183
0.768,0.19495432398047904,-1.7665939497857566,2.0417158249067016,1.347309600750609,0.9106238003843896,-1.889181876667124,-1.6588538407830837,-0.31051085533229106,0.4412981596389476,2.5562884319912937,-0.8613562681797499,-4.128038903752046,-0.39676531493440526,-0.07335298339572471,0.10510217408887801,0.6147535459091746,-0.20358316246693597,-0.9904745103609391
0.772,0.1883157344948272,-1.7678365800309528,2.04348185836265,1.357539672506941,0.9071767466463707,-1.9057019560782147,-1.660386581384867,-0.3107937779677772,0.44170396042586546,2.558664910854019,-0.8621415394271664,-4.131866724024852,-0.36960498595420277,-0.06810833433693042,0.0977982193076099,0.5734858854536395,-0.18905246124481523,-0.9234356260385823
0.776,0.1816712313294001,-1.7690803000094988,2.0452494565901085,1.367778920037441,0.9037266680689723,-1.9222368104593228,-1.6618106806707174,-0.3110557220069865,0.44208054539340846,2.560876319074923,-0.8628686878697084,-4.135426388760354,-0.3424446569731121,-0.06286368526078889,0.09049426447776954,0.532218224980785,-0.17452176004004172,-0.8563967416920226
0.78,0.17502124904946145,-1.7703250258070087,2.0470185027257974,1.3780266830595405,0.900273797143413,-1.9387853671882975,-1.663126138640652,-0.3112966874498635,0.4424279145416876,2.5629226566538654,-0.8635377135074868,-4.138717897958388,-0.3152843279950468,-0.05761903618117792,0.08319030968956254,0.4909505645078749,-0.1599910588352682,-0.7893578573316962
0.784,0.1683662222202749,-1.7715706735090977,2.048788879906442,1.388282301290672,0.8968183663609124,-1.95534655364299,-1.6643329552946777,-0.3115166742964359,0.44274606787092496,2.564803923590986,-0.8641486163403905,-4.141741251619008,-0.2881239990165374,-0.05237438710850584,0.07588635489441664,0.4496829040419037,-0.14546035762182108,-0.7223189729642643
0.788,0.16170658540710403,-1.7728171592013802,2.050560471268765,1.3985451144482683,0.8933606082126899,-1.9719192972012496,-1.6654311306327843,-0.31171568254673154,0.44303500538084295,2.5665201198862007,-0.8647013963684613,-4.144496449742102,-0.26096367003630716,-0.047129738049711545,0.06858240009233185,0.4084152435690491,-0.13092965641010867,-0.6552800886175936
0.792,0.15504277317521262,-1.7740643989694715,2.0523331599494887,1.4088144622497616,0.8899007551899647,-1.9885025252409267,-1.6664206646549682,-0.3118937122008336,0.4432947270716636,2.5680712455395382,-0.8651960535916714,-4.146983492327949,-0.2338033410569651,-0.04188508899091725,0.06127844531800264,0.36714758310313345,-0.11639895519666155,-0.5882412042987895
0.796,0.14837522008986428,-1.7753123088989868,2.054106829085338,1.4190896844125847,0.8864390397839566,-2.005095165139873,-1.66730155736124,-0.3120507632586589,0.44352523294338697,2.5694573005510257,-0.8656325880100346,-4.149202379376493,-0.20664301207848346,-0.036640439914775724,0.053974490522856744,0.32587992264060395,-0.10186825398841859,-0.5212023199419047
0.8,0.1417043607163227,-1.7765608050755408,2.055881361813036,1.4293701206541698,0.8829756944858844,-2.0216961442759387,-1.668073808751596,-0.3121868357201518,0.4437265229958465,2.570678284920663,-0.8660109996235787,-4.151153110887484,-0.17948268309825322,-0.03139579083516475,0.04667053571383306,0.2846122621677494,-0.08733755278017563,-0.4541634355675894
0.804,0.13503062961985152,-1.777809803584748,2.057656641269305,1.43965511069195,0.8795109517869679,-2.038304390026973,-1.668737418826026,-0.3123019295853402,0.44389859722909764,2.5717341986483677,-0.866331288432276,-4.152835686861033,-0.15232235411780093,-0.026151141779839904,0.03936658092562606,0.2433446016983365,-0.07280685156846323,-0.38712455122802414
0.808,0.1283544613657145,-1.7790592205122235,2.0594325505908686,1.4499439942433567,0.8760450441784262,-2.054918829770827,-1.6692923875845385,-0.31239604485439054,0.4440414556432515,2.5726250417342498,-0.8665934544361265,-4.154250107297308,-0.12516202513951358,-0.020906492707167823,0.03206262613741906,0.2020769412358625,-0.058276150358485546,-0.32008566688834783
0.812,0.12167629051917521,-1.7803089719435832,2.061208972914451,1.460236111025824,0.8725782041514789,-2.0715383908853515,-1.669738715027142,-0.31246918152699754,0.444155098238197,2.5733508141782546,-0.8667974976351439,-4.15539637219614,-0.09800169616058785,-0.015661843617148508,0.024758671328395376,0.16080928075606904,-0.04374544915024259,-0.25304678252791035
0.8160000000000001,0.11499655164549735,-1.7815589739644395,2.062985791376774,1.4705308007567828,0.8691106641973451,-2.088162000748396,-1.6700764011538232,-0.31252133960332773,0.44423952501387864,2.5739115159802983,-0.8669434180293284,-4.156274481557531,-0.07084136718057965,-0.010417194568762556,0.01745471653324948,0.11954162029009785,-0.029214747935060736,-0.18600789818135066
0.8200000000000001,0.10831567930994462,-1.7828091426604098,2.064762889114562,1.4808274031536663,0.8656426568072443,-2.1047885867378118,-1.6703054459645867,-0.31255251908354764,0.444294735970463,2.5743071471405754,-0.8670312156186244,-4.156884435381591,-0.043681038201875966,-0.005172545499559922,0.01015076174504248,0.07827395982412666,-0.014684046723348332,-0.11896901383479097
0.8240000000000001,0.10163410807778066,-1.784059394117108,2.066540149264538,1.4911252579339074,0.8621744144723961,-2.121417076231449,-1.6704258494594382,-0.3125627199673242,0.444320731107839,2.5745377076588913,-0.8670608904031152,-4.15722623366821,-0.01652070922186777,7.210358698994668e-05,0.0028468069498965853,0.03700629935127209,-0.00015334551684009767,-0.05193012948823128
0.8280000000000001,0.09495227251426912,-1.7853096444201484,2.0683174549634247,1.5014237048149375,0.8587061696840194,-2.1380463966071575,-1.6704376116383617,-0.3125519422548517,0.44431751042606216,2.5746031975353856,-0.8670324423827591,-4.157299876417497,0.010639619761609875,0.0053167526457842396,-0.00445714784524931,-0.0042613611112019,0.01437735569660703,0.015108754865322815
0.8320000000000001,0.08827060718467376,-1.7865598096551467,2.0700946893479464,1.5117220835141905,0.855238154933334,-2.154675475242789,-1.6703407325013453,-0.31252018594615794,0.444285073925077,2.5745036167700017,-0.8669458715575423,-4.157105363629287,0.03779994873945314,0.010561401711517426,-0.011761102654272992,-0.045529021587553675,0.028908056903115265,0.08214763922564927
0.836,0.08158954665425835,-1.7878098059077177,2.0718717355548253,1.5220197337490975,0.851770602711559,-2.1713032395161918,-1.670135212048446,-0.3124674510411596,0.444223421604828,2.574238965362685,-0.8668011779275342,-4.156642695303692,0.06470039347686307,0.01574746142166128,-0.0189910571227192,-0.08643248602252518,0.04327734162874741,0.1485737974732393
0.84,0.0749095254882862,-1.789059549263476,2.073648476720785,1.532315995237092,0.8483037455099137,-2.1879286168052183,-1.6698231293535304,-0.31239420625478465,0.44413314546809524,2.5738121568818215,-0.8665996528245123,-4.155916773249501,0.08818351720552009,0.020163106129178487,-0.025247951930540413,-0.12254699216857068,0.0555240970041837,0.2069429770046316
0.844,0.06823096161943011,-1.790308959557756,2.07542480071857,1.542610231004152,0.8448378054889629,-2.2045505737021878,-1.669429743910802,-0.31230614619212616,0.44402143798938365,2.5732585894253366,-0.8663569851515007,-4.154987151487655,0.10379932779697176,0.022805111219575958,-0.029264681185303676,-0.14763641924264714,0.06288439216399488,0.2467634822450604
0.848,0.06155408753699978,-1.791557998433013,2.0772006482247,1.5529020639524946,0.8413728896287017,-2.2211685140171196,-1.6689927347311546,-0.31221176536502804,0.4438990280186128,2.5726310655278803,-0.8660965776872004,-4.153942665391541,0.11286519613232238,0.023970470292705714,-0.031416357564040265,-0.1635469017574609,0.06617645821084539,0.2711412634901489
0.852,0.054879019741580874,-1.7928066536806762,2.078975992942719,1.563191279528375,0.8379090328674653,-2.23778211502532,-1.6685268223417433,-0.3121143824297845,0.4437701071288713,2.571950214211277,-0.865827573485814,-4.152818021379733,0.12006325649385752,0.024714743016018836,-0.03303618792416252,-0.17683987939970391,0.0683084116388788,0.29111533521308797
0.856,0.04820587295826583,-1.7940549134924513,2.080750809081731,1.5734776656661849,0.8344462690408152,-2.2543910581881574,-1.6680322286792038,-0.3120140474208999,0.4436347385152195,2.5712163464926827,-0.8655501103940894,-4.151613742709836,0.12723357477664732,0.02545276142629227,-0.0346481188948089,-0.19009397988001275,0.07042313421301571,0.31102399974247685
0.86,0.04153476191214724,-1.7953027660600434,2.0825250708508407,1.5837610103003166,0.8309846319843126,-2.270995024966999,-1.6675089537435301,-0.31191076033837417,0.44349292217771286,2.570429462372237,-0.8652641884121098,-4.150329829381794,0.13440389305927058,0.026190779833096256,-0.03626004985157749,-0.203348080349941,0.07253785677674429,0.33093266427197676
0.864,0.03486580132831759,-1.7965501995751583,2.0842987524591527,1.5940411013651627,0.8275241555335183,-2.287593696823212,-1.6669569975347296,-0.3118045211822351,0.4433446581164069,2.569589561849883,-0.8649698075398754,-4.14896628139566,0.1415742113416718,0.02692879825377803,-0.03787198082222387,-0.21660218083380256,0.07465257934394232,0.35084132879448227
0.868,0.028199105931869407,-1.7977972022295012,2.086071828115772,1.6043177267951156,0.8240648735239936,-2.304186755218164,-1.6663763600527968,-0.31169532995234395,0.44318994633113507,2.5686966449255664,-0.8646669677773583,-4.147523098751438,0.14874452962426732,0.027666816684868145,-0.03948391182062583,-0.2298562813314864,0.07676730190767089,0.37074999333774894
0.872,0.021534790447895216,-1.799043762214777,2.087844272029802,1.6145906745245673,0.8206068197912995,-2.3207738816132233,-1.6657670412977355,-0.31158318664875617,0.4430287868218419,2.5677507115992313,-0.864355669124614,-4.146000281448958,0.15591484790666854,0.028404835088202685,-0.04109584279127221,-0.24311038181873412,0.0788820244731342,0.39065865788112664
0.876,0.014872969601487523,-1.8002898677226913,2.0896160584103467,1.6248597324879095,0.8171500281709967,-2.3373547574697557,-1.6651290412695434,-0.3114680912716383,0.4428611795888049,2.5667517618710165,-0.8640359115815732,-4.144397829488389,0.16308516618962487,0.029142853498476118,-0.042707773754979694,-0.25636448229904296,0.08099674704553639,0.41056732240363214
0.88,0.008213758117738867,-1.8015355069449501,2.0913871614665123,1.6351246886195354,0.8136945324986469,-2.3539290642491304,-1.6644623599682185,-0.31135004382076836,0.44268712463180204,2.565699795740839,-0.8637076951482497,-4.142715742869729,0.1702554844720816,0.029880871936505127,-0.044319704746442756,-0.2696185827932851,0.08311146961099969,0.43047598694700984
0.884,0.0015572707217417752,-1.8027806680732574,2.093157555407401,1.6453853308538362,0.8102403666098107,-2.3704964834127136,-1.6637669973937668,-0.3112290442961463,0.44250662195083335,2.56459481320867,-0.8633710198246852,-4.140954021592813,0.17742580275409425,0.030618890343309113,-0.04593163571015024,-0.28287268327015225,0.08522619218166716,0.45038465146252094
0.888,-0.005096377861411268,-1.8040253392993193,2.094927214442119,1.6556414471252048,0.8067875643400494,-2.387056696421873,-1.6630429535461857,-0.3111050926980219,0.44231967154612084,2.5634368142746777,-0.8630258856107964,-4.139112665658029,0.1845961210368008,0.031356908743174206,-0.04754356667385773,-0.2961267837435222,0.08734091475233463,0.47029331597803203
0.892,-0.011747072906627711,-1.8052695088148416,2.09669611277977,1.6658928253680336,0.8033361595249243,-2.403609384737978,-1.6622902284254724,-0.3109781890262009,0.4421262734174425,2.562225798938722,-0.8626722925066665,-4.137191675064988,0.19176643931956283,0.03209492717426432,-0.0491554976583819,-0.30938088424126153,0.08945563731432848,0.4902019805491653
0.896,-0.018394699688815047,-1.806513164811529,2.0984642246294585,1.6761392535167146,0.7998861859999961,-2.420154229822393,-1.6615088220316292,-0.3108483332806278,0.4419264275648538,2.5609617672007476,-0.8623102405122818,-4.135191049813636,0.19893675760179752,0.03283294560882388,-0.050767428642906065,-0.32263498474238705,0.09157035987805706,0.5101106450855486
0.9,-0.025039143482880746,-1.8077562954810866,2.100231524200289,1.6863805195056396,0.7964376776008261,-2.436690913136487,-1.660698734364658,-0.3107155254613303,0.44172013398829924,2.559644719060783,-0.8619397296276421,-4.133110789904304,0.20610707588411548,0.033570964019097316,-0.052379359613552445,-0.335889085215757,0.09368508244525509,0.5300193095872929
0.904,-0.03168028956373231,-1.8089988890152195,2.101997985701365,1.6966164112692008,0.7929906681629749,-2.4532191161416272,-1.6598599654245563,-0.310579765568475,0.44150739268794537,2.5582746545190216,-0.8615607598527197,-4.130950895336937,0.21327739416709957,0.03430898241549296,-0.05399129057725993,-0.34914318568224356,0.09579980501765728,0.5499279741236762
0.908,-0.038318023206277196,-1.8102409336056344,2.1037635833417925,1.7068467167417918,0.7895451915220043,-2.4697385202991824,-1.6589925152113212,-0.31044105360200636,0.44128820366368116,2.556851573575325,-0.8611733311875008,-4.128711366111315,0.2204477124496118,0.035047000846583076,-0.055603221568722994,-0.3623972861868663,0.09791452758312058,0.5698366386808207
0.912,-0.04495222968542288,-1.8114824174440356,2.1055282913306743,1.7170712238578034,0.7861012815134749,-2.4862488070705178,-1.6580963837249594,-0.31029938956170233,0.4410625669153956,2.5553754762295267,-0.8607774436320548,-4.126392202227491,0.22761803073181874,0.035785019274203744,-0.05721515254630827,-0.3756513866811084,0.10002925014858388,0.5897453032033262
0.916,-0.05158279427607687,-1.812723328722128,2.1072920838771156,1.727289720551628,0.7826589719729479,-2.5027496579170023,-1.6571715709654666,-0.3101547734478127,0.4408304824433107,2.553846362481876,-0.8603730971863122,-4.123993403685688,0.23478834901477508,0.03652303767059939,-0.05882708350307686,-0.3889054871475395,0.10214397272098608,0.6096539677119539
0.92,-0.058209602253146614,-1.813963655631618,2.109054935190221,1.7375019947576584,0.7792182967359844,-2.5192407543000033,-1.6562180769328412,-0.31000720526033754,0.44059195024737097,2.5522642323323463,-0.8599602918502869,-4.121514970485795,0.24195866729681548,0.03726105608434227,-0.060439014466784347,-0.4021595876278483,0.10425869529165355,0.6295626322413428
0.924,-0.0648325388915396,-1.8152033863642107,2.1108168194790946,1.7477078344102868,0.7757792896381456,-2.5357217776808887,-1.655235901627092,-0.309856684999138,0.4403469703275764,2.5506290857808533,-0.8595390276239789,-4.118956902627757,0.24912898557863383,0.037999074515432385,-0.06205094545824741,-0.41541368812558765,0.10637341785538212,0.6494712967916039
0.928,-0.07145148946616335,-1.8164425091116112,2.1125777109528414,1.7579070274439053,0.7723419845149926,-2.5521924095210253,-1.654225045048212,-0.3097032126642141,0.440095542683705,2.5489409228273416,-0.8591093045074438,-4.116319200111462,0.25629930386197874,0.03873709293611416,-0.06366287644971047,-0.4286677886163326,0.10848814041390653,0.6693799613488594
0.932,-0.0780663392519253,-1.8176810120655245,2.1143375838205642,1.7680993617929055,0.768906415202086,-2.5686523312817804,-1.6531855071961963,-0.3095467882556491,0.43983766731597873,2.5471997434719227,-0.8586711225006677,-4.113601862936966,0.26346962214532366,0.03947511134638759,-0.06527480741341796,-0.44192188909664143,0.11060286298283928,0.6892886258783593
0.936,-0.08467697352373292,-1.8189188834176564,2.1160964122913692,1.7782846253916806,0.7654726155349872,-2.585101224424521,-1.6521172880710495,-0.309387411773443,0.43957334422439764,2.5454055477145685,-0.8582244816035811,-4.1108048911044355,0.27063994042716977,0.04021312976359992,-0.06688673837712544,-0.45517598958044747,0.11271758555524147,0.709197290386987
0.9400000000000001,-0.0912832775564937,-1.820156111359712,2.1178541705743594,1.788462606174622,0.7620406193492574,-2.601538770410616,-1.651020387672779,-0.3092250832175403,0.4393025734089617,2.543558335555279,-0.8577693818162258,-4.1079282846138705,0.2778102587090159,0.04095114818775114,-0.06849866935471072,-0.4684300900642535,0.1148323081224395,0.7291059549163759
0.9440000000000001,-0.09788513662511515,-1.8213926840833967,2.119610832878641,1.7986330920761229,0.7586104604804574,-2.617964650701432,-1.6498948060013774,-0.30905980258794097,0.43902535486955996,2.5416581069940545,-0.8573058231386016,-4.1049720434651045,0.2849805769919167,0.041689166598024574,-0.07011060033923489,-0.48168419055150125,0.11694703069137224,0.7490146194457648
0.9480000000000001,-0.10448243600450471,-1.8226285897804155,2.121366373413316,1.8087958710305745,0.7551821727641486,-2.6343785467583367,-1.6487405430568436,-0.3088915698847561,0.43874168860624785,2.539704862030867,-0.8568338055706948,-4.101936167658304,0.29215089527462323,0.042427185011767454,-0.07172253130988127,-0.4949382910388045,0.11906175325683555,0.768923283982148
0.9520000000000001,-0.1110750609695699,-1.8238638166424748,2.123120766387491,1.8189507309723698,0.7517557900358919,-2.6507801400426985,-1.6475575988391804,-0.30872038510784683,0.4384515746190809,2.537698600665744,-0.8563533291125469,-4.098820657193247,0.2993212135599388,0.04316520343244923,-0.07333446228052765,-0.5081923915191688,0.12117647582750302,0.7888319485325201
0.9560000000000001,-0.11766289679521816,-1.8250983528612783,2.1248739860102686,1.8290974598359004,0.7483313461312482,-2.6671691120158827,-1.646345973348364,-0.3085462482572965,0.4381550129080036,2.5356393228987137,-0.8558643937640747,-4.095625512070044,0.3065052769654908,0.043913509571724685,-0.07495382403632789,-0.5214395201492694,0.12331887505774575,0.8087484428335179
0.96,-0.12424582875635681,-1.8263321866285331,2.126626006490755,1.8392358455555595,0.7449088748857793,-2.683545144139259,-1.6451055566234565,-0.30836907703127303,0.4378519440267903,2.53352708450455,-0.855366778112085,-4.092350669650579,0.31423469581698393,0.04506999456976857,-0.07686801195561088,-0.534410031505228,0.1265593814261945,0.8289755937251897
0.964,-0.1308237412482058,-1.8275653054775285,2.128376801562483,1.8493656765119368,0.7414884119063515,-2.6999079173730873,-1.6438320957818282,-0.30818568830073834,0.43754006881235874,2.531364042646672,-0.8548519187126652,-4.088993707320243,0.32367693576654255,0.04750846423207111,-0.07970817288843746,-0.5465117591495483,0.13324875971013062,0.850178436970217
0.968,-0.13739648552261144,-1.828797672134939,2.130126327041254,1.859486757896733,0.738070059536078,-2.7162570937978208,-1.6425161411373241,-0.30798900931741646,0.4372142786436828,2.5291549904313535,-0.8543007880344039,-4.085549242154817,0.33500713346285016,0.05136000199787438,-0.08356898791028744,-0.5576558696172573,0.14373965844839687,0.8724567374870373
0.972,-0.1439638703773044,-1.8300292175520678,2.1318745157916323,1.8695989164353877,0.7346540056020763,-2.732592311310326,-1.6411520387141254,-0.30777480828475534,0.43687151690907644,2.526902795689734,-0.853702001445078,-4.082014053420346,0.3470874795573897,0.05577299872980279,-0.08783534276995963,-0.5684194869410852,0.15574102768360631,0.8951623529512842
0.976,-0.15052570183232444,-1.831259870601217,2.1336212991765264,1.8797019802622508,0.7312404435245173,-2.7489132062251835,-1.639739441300865,-0.30754282532757804,0.4365115959015231,2.524607634535825,-0.853054859812935,-4.078387943331207,0.35921122707413544,0.06021847986578677,-0.09212516102058421,-0.5791610900203747,0.16782978838614238,0.9178926916251218
0.98,-0.15708178590771132,-1.8324895601546884,2.1353666085588445,1.8897957775116743,0.7278295667235728,-2.7652194148569755,-1.6382783488975323,-0.30729306044582905,0.43613451562091177,2.522269506969571,-0.8523593631379889,-4.074670911887345,0.371334974591353,0.06466396101911798,-0.09641497928508658,-0.5899026931169282,0.17991854908347427,0.9406230303334873
0.984,-0.1636319286235047,-1.8337182150847837,2.1371103753014937,1.8998801363180073,0.7244215686194134,-2.7815105735202823,-1.6367687615041342,-0.3070255136394251,0.4357402760672424,2.5198884129908894,-0.8516155114202673,-4.070862959088539,0.38345872210682197,0.06910944216897974,-0.10070479751489447,-0.6006442962031011,0.19200730978254088,0.963353369028086
0.988,-0.1701759359997444,-1.8349457642638038,2.1388525307673825,1.9099548848156014,0.7210166426322107,-2.797786318529684,-1.6352106791206777,-0.3067401849084772,0.4353288772407926,2.517464352599946,-0.8508233046597286,-4.066964084935121,0.39558246962095867,0.07355492327026925,-0.1049946157169468,-0.6113858992650156,0.2040960704902811,0.9860837076672846
0.992,-0.17671361405647013,-1.8361721365640515,2.14059300631942,1.920019851138807,0.7176149821821356,-2.8140462861997633,-1.6336041017471665,-0.30643707425326294,0.43490031914150684,2.5149973257967693,-0.849982742856345,-4.062974289427201,0.40770621713773214,0.07800040439237543,-0.10928443398144916,-0.6221275023580719,0.21618483119108245,1.008814046354889
0.996,-0.18324476881372173,-1.83739726085783,2.1423317333205145,1.9300748634219755,0.7142167806893599,-2.8302901128451015,-1.6319490293835759,-0.3061161816733382,0.434454601768941,2.5124873325810815,-0.8490938260101999,-4.058893572564282,0.41982996465622646,0.08244588555958443,-0.11357425225289042,-0.6328691054685587,0.22827359188321017,1.0315443850702488
1.0,-0.18976920629153873,-1.8386210660174382,2.1440686431335716,1.9401197497994556,0.710822231574054,-2.8465174347802775,-1.6302454620299167,-0.30577750716878627,0.4339917251234837,2.509934372953021,-0.8481565541212793,-4.054721934346639,0.4319537121703909,0.08689136668862951,-0.11786407044800384,-0.6436107085304732,0.24036235258921568,1.0542747237302086
1.004,-0.19628673250996106,-1.8398434809151802,2.1458036671215024,1.9501543384055997,0.7074315282563897,-2.8627278883198746,-1.6284933996862128,-0.30542105073982917,0.433511689205357,2.5073384469128377,-0.8471709271894862,-4.05045937477444,0.4440774596854158,0.09133684782114404,-0.12215388867781174,-0.65435231160621,0.2524511132952212,1.0770050624040461
1.008,-0.20279715348902844,-1.8410644344233569,2.1475367366472145,1.9601784573747583,0.7040448641565381,-2.878921109778473,-1.6266928423524334,-0.3050468123862171,0.4330144940140612,2.504699554460171,-0.8461369452149176,-4.046105893847407,0.4562012072030497,0.0957823289710058,-0.126443706949253,-0.6650939147131996,0.26453987398908363,1.0997354010986449
1.012,-0.20930027524878053,-1.84228385541427,2.149267783073615,1.970191934841281,0.7006624326946703,-2.895096735470654,-1.6248437900285884,-0.3046547921080611,0.43250013954976296,2.502017695595132,-0.8450546081975735,-4.041661491565651,0.46832495471807456,0.10022781009311199,-0.130733525172122,-0.6758355177854947,0.2766286346933544,1.1224657397723714
1.016,-0.21579590380925714,-1.8435016727602214,2.1509967377636126,1.9801945989395193,0.6972844272909575,-2.9112544017109983,-1.6229462427146888,-0.3042449899054722,0.43196862581268425,2.499292870317887,-0.8439239161373707,-4.037126167929228,0.48044870223395986,0.10467329121521818,-0.1350233434088688,-0.6865771208612315,0.2887173953993599,1.1451960784530923
1.02,-0.22228384519049804,-1.8447178153335138,2.1527235320801164,1.9901862778038242,0.6939110413655714,-2.9273937448140877,-1.6210002004107167,-0.3038174057783394,0.431419952802492,2.4965250786282422,-0.8427448690343786,-4.032499922938026,0.492572449750317,0.1091187723616105,-0.13931316165949337,-0.6973187239509016,0.3008061560949571,1.1679264171338133
1.024,-0.22876390541254288,-1.845932212006448,2.1544480973860325,2.0001667995685453,0.6905424683386825,-2.9435144010945025,-1.6190056631166863,-0.30337203972657933,0.4308541205194083,2.49371432052628,-0.8415174668886111,-4.027782756592157,0.5046961972670627,0.11356425350453336,-0.14360297988236237,-0.7080603270440133,0.312894916792289,1.1906567558214176
1.028,-0.23523589049543153,-1.8471447916513264,2.1561703650442716,2.0101359923680344,0.6871789016304625,-2.959616006866825,-1.6169626308325802,-0.3029088917503031,0.4302711289634331,2.49086059601189,-0.8402417097000403,-4.022974668891455,0.5168199447846966,0.118009734630109,-0.14789279813298695,-0.7188019301405668,0.3249836774913556,1.2133870945230107
1.032,-0.24169960645920352,-1.8483554831404505,2.15789026641774,2.0200936843366404,0.6838205346610822,-2.975698198445634,-1.6148711035584087,-0.30242796184953846,0.4296709781343444,2.4879639050851554,-0.8389175974686802,-4.018075659835973,0.528943692298417,0.12245521575915408,-0.15218261638361152,-0.7295435332024813,0.3370724381990958,1.236117433175976
1.036,-0.2481548593238988,-1.8495642153461227,2.1596077328693464,2.0300397036087157,0.680467560850713,-2.9917606121455127,-1.6127310812941928,-0.3019292500242299,0.4290536680323642,2.4850242477462703,-0.8375451301944475,-4.013085729426047,0.5410674398130255,0.12690069690901584,-0.15647243461341942,-0.7402851362747764,0.3491611989033666,1.2588477718428193
1.04,-0.25460145510955706,-1.8507709171406443,2.161322695761999,2.0399738783186105,0.6771201736195266,-3.0078028842810425,-1.6105425640399045,-0.30141275627426634,0.42841919865743705,2.482041623994957,-0.8361243078774533,-4.0080048776612305,0.5531911873302153,0.13134617804153037,-0.16076225283628842,-0.7510267393748271,0.36124995959722905,1.2815781105512958
1.044,-0.26103919983621804,-1.8519755173963168,2.163035086458606,2.0498960366006753,0.6737785663876934,-3.0238246511668025,-1.6083055517955511,-0.30087848059989764,0.4277675700096739,2.4790160338312717,-0.8346551305176697,-4.0028331045416365,0.5653149348465447,0.13579165915322822,-0.16505207106609632,-0.761768342461,0.37333872030323456,1.3043084492250223
1.048,-0.26746789952392147,-1.8531779449854435,2.1647448363220763,2.0598060065892607,0.6704429325753852,-3.0398255491173756,-1.6060200445611321,-0.3003264230010405,0.4270987820889083,2.475947477255269,-0.8331375981150274,-3.9975704100674303,0.5774386823637623,0.14023714030308998,-0.16934188933059868,-0.7725099455471729,0.3854274810023012,1.3270387879057988
1.052,-0.2738873601927071,-1.8543781287803252,2.166451876715317,2.0697036164187175,0.6671134656027732,-3.055805214447342,-1.603686042336641,-0.2997565834774729,0.4264128348950291,2.4728359542668943,-0.8315717106696513,-3.99221679423839,0.5895624298809243,0.14468262145989064,-0.17363170758816215,-0.7832515486402847,0.3975162416944289,1.3497691266073364
1.056,-0.2802973878626146,-1.8555759976532633,2.1681561390012365,2.079588694223396,0.663790358890028,-3.0717632834712827,-1.6013035451220847,-0.2991689620293614,0.425709728428203,2.469681464866147,-0.829957468181472,-3.9867722570545716,0.6016861773946447,0.14912810258546627,-0.17792152580409226,-0.7939931517195187,0.4096050024021691,1.3724994652811184
1.06,-0.2866977885536838,-1.85677148047656,2.1698575545427428,2.0894610681376466,0.6604738058573214,-3.0876993925037786,-1.5988725529174839,-0.2985635586567892,0.4249894626885964,2.466484009053138,-0.828294870650434,-3.981236798516141,0.6138099249083928,0.15357358370757246,-0.18221134402696126,-0.8047347547918138,0.42169376310817464,1.3952298039410227
1.064,-0.29308836828595447,-1.8579645061225176,2.1715560547027453,2.099320566295821,0.6571639999248245,-3.103613177859412,-1.5963930657228176,-0.2979403733597008,0.4242520376759873,2.4632435868278124,-0.8265839180766066,-3.9756104186230434,0.6259336724281916,0.15801906484702588,-0.18650116229146363,-0.8154763578779867,0.4337825238037718,1.4179601426356214
1.068,-0.2994689330794663,-1.8591550034634376,2.1732515708441507,2.109167016832269,0.6538611345127086,-3.119504275852763,-1.5938650835380583,-0.297299406138013,0.4234974533902647,2.4599601981901142,-0.8248246104600038,-3.9698931173750562,0.6380574199436606,0.1624645459795404,-0.19079098052127152,-0.8262179609641596,0.44587128450630786,1.4406904813163424
1.072,-0.30583928895425894,-1.8603429013716217,2.1749440343298674,2.119000247881342,0.6505654030411445,-3.1353723227984123,-1.5912886063632683,-0.2966406569918645,0.4227257098318171,2.456633843140099,-0.8230169478005561,-3.9640848947725127,0.6501811674565205,0.16691002711205494,-0.19508079873720163,-0.8369595640503324,0.4579600452088439,1.4634208199831855
1.076,-0.31219924193037246,-1.8615281287193726,2.176633376522805,2.12882008757739,0.6472769989303041,-3.151216955010943,-1.5886636341984062,-0.29596412592111654,0.42193680700036706,2.4532645216777116,-0.821160930098333,-3.9581857508151908,0.6623049149771798,0.17135550825844725,-0.1993706169947651,-0.8477011671365053,0.4700488059061758,1.4861511586777842
1.08,-0.3185485980278462,-1.8627106143789907,2.1783195287858703,2.1386263640547636,0.6439961156003579,-3.167037808804934,-1.5859901670434509,-0.2952698129257969,0.421130744895859,2.449852233803007,-0.8192565573533067,-3.9521956855030904,0.6745555249584867,0.17580863232585786,-0.2036863057802707,-0.8586970303980923,0.4821605662751194,1.5092522468729275
1.084,-0.32488716326672007,-1.863890287222779,2.180002422481972,2.148418905447814,0.6407229464714777,-3.1828345204949677,-1.5832671899987383,-0.2945576568625097,0.4203073165541249,2.446394945434527,-0.8173036455681321,-3.9461117328402073,0.6944173118672292,0.1807202979174638,-0.20955411002276936,-0.8849473598568358,0.49565220306552193,1.5545966361787955
1.088,-0.3312147355478361,-1.8650670756338907,2.1816819873183033,2.15819752361824,0.6374576864358128,-3.1986067026676555,-1.580434828548513,-0.2938240505424572,0.41945431201567684,2.4427726549241524,-0.8152913397287825,-3.93975891241366,0.740381050420319,0.18720449674117234,-0.22074477606937037,-0.9635117193609877,0.5138760209733723,1.6762227326577728
1.092,-0.3375306418951082,-1.8662408796271186,2.1833580569780975,2.167961086687207,0.6342006157536474,-3.214352591794277,-1.5773441415953757,-0.2930600208885803,0.41854135834556994,2.438686851679639,-0.8131926374003451,-3.932701950978945,0.8171746078127484,0.19554606299140853,-0.2382224381300424,-1.1038657906706217,0.5376891637157849,1.8879475024990988
1.096,-0.3438334886805991,-1.8674115558009994,2.185030318185068,2.177707018431677,0.63095214533661,-3.230068318275487,-1.573897431686011,-0.2922596820385259,0.4175485325106365,2.4339417285987874,-0.8109898264190563,-3.9246553323936673,0.907132343357292,0.20468071583804037,-0.2583846159948111,-1.2706037593110397,0.5638889201478592,2.1381439544027048
1.1,-0.35012182134859626,-1.8685789570834268,2.1866984452381826,2.1874326205159975,0.6277126971422949,-3.2457498344534264,-1.5700870828485174,-0.291422575161876,0.41647428141761145,2.4285220216051506,-0.8086815260391622,-3.9155967993437235,0.9980420753877561,0.21387272248346578,-0.2787409305038402,-1.4392497374865476,0.5902612698008985,2.3911225705344763
1.104,-0.35639418534338724,-1.8697429364022944,2.1883621124364088,2.197135194604518,0.6244826931282967,-3.261393092670237,-1.565913095082909,-0.2905487002586582,0.4153186050666058,2.422427730698895,-0.8062677362606491,-3.9055263518293915,1.08895180741303,0.2230647291288912,-0.2990972450128693,-1.6078957156412388,0.6166336194504685,2.644101186659309
