queristq/extract_pos_from_ROS_moveit_msgs/pickup/final_trajectory_catmull.csv
time,pos_joint_1,pos_joint_2,pos_joint_3,pos_joint_4,pos_joint_5,pos_joint_6,vel_joint_1,vel_joint_2,vel_joint_3,vel_joint_4,vel_joint_5,vel_joint_6,acc_joint_1,acc_joint_2,acc_joint_3,acc_joint_4,acc_joint_5,acc_joint_6
0.0,1.0692498858715331,-1.602958381649998,1.809139597397077,-4.474072168929727e-05,1.3645504927221377,0.2865560964759617,-0.20256945880442467,-0.0379129518414123,0.05388638109948829,0.3121764172907539,-0.10517096179296637,-0.504108218351354,1.690993271810659,0.3164867342780875,-0.44982846091751183,-2.605961552016339,0.8779378186038467,4.2081546276946655
0.004,1.0684396080363154,-1.6031100334573636,1.809355142921475,0.0012039649474737185,1.3641298088749658,0.2845396636025563,-0.19580548571718204,-0.03664700490429995,0.05208706725581824,0.30175257108268855,-0.10165921051855098,-0.48727559984057534,2.437392750260364,0.45618305200348375,-0.6483814263269494,-3.7562253500457787,1.2654570008888144,6.065621757630167
0.008,1.0676834419857957,-1.6032515576892323,1.8095562939351235,0.002369279846972211,1.3637372190379893,0.2826578916772371,-0.18307031680234176,-0.03426348742538443,0.048699329688872695,0.2821266144903877,-0.09504730578585585,-0.45558324429031266,2.9855979137884123,0.558785270939749,-0.794211861651628,-4.601055192117745,1.550076729108646,7.429868519742006
0.012,1.0669750455018967,-1.6033841413567667,1.809744737558986,0.00346097786339682,1.363369430428679,0.2808949976482338,-0.17192070240687474,-0.03217672273678196,0.04573337236260522,0.2649441295457466,-0.08925859668568181,-0.4278366516826393,2.5892092839450984,0.4845970733684257,-0.6887668014925186,-3.9901872802027767,1.344277820967965,6.443427784096414
0.016,1.0663080763665407,-1.6035089714711266,1.8099221609140244,0.004488832883338184,1.3630231502645038,0.279235198463776,-0.16235664253078097,-0.030386710838437025,0.043189195276932546,0.25020511624876546,-0.08429308321811213,-0.40403582201754135,2.1928206541087234,0.41040887577975527,-0.5833217413368785,-3.3793193682877845,1.1384789128342232,5.456987048454293
0.02,1.0656761923616505,-1.6036272350434742,1.8100902511212014,0.005462618793386944,1.362695085762934,0.27766271107209345,-0.15437813717400495,-0.028893451730543918,0.04106679843191019,0.2379095745994443,-0.08015076538300803,-0.38418075529500495,1.796432024275818,0.33622067819455426,-0.4778766811604218,-2.768451456372823,0.9326800047004813,4.4705463128078335
0.024,1.0650730512691486,-1.603740119084971,1.8102506953014796,0.006392109480133738,1.3623819441414398,0.27616175242141594,-0.14798518633657443,-0.02769694541288059,0.03936618182764917,0.22805750459778287,-0.07683164318050828,-0.3682714515150787,1.4000433944359736,0.26203248063016993,-0.3724316209978429,-2.157583544457817,0.7268810965493921,3.4841055771587732
0.028,1.0644923108709579,-1.6038488106067772,1.8104051805758226,0.007287078830169207,1.36208043261749,0.2747165394599728,-0.14317779001851716,-0.026797191885502558,0.03808734546392745,0.22064890624378178,-0.07433571661061289,-0.35630791067773476,1.0036547645961291,0.18784428304843837,-0.2669865608526112,-1.5467156325427827,0.5210821884156502,2.497664841515784
0.032,1.0639276289490005,-1.603954496620055,1.810555394065191,0.008157300730083993,1.3617872584085549,0.27331128913599406,-0.1399559482198054,-0.026194191148493084,0.03723028934082828,0.2156837795374406,-0.07266298567318308,-0.3482901327829524,0.6072661347597541,0.1136560854667068,-0.16154150067962392,-0.935847720627804,0.3152832802853778,1.5112241058693257
0.036000000000000004,1.0633726632851994,-1.6040583641359651,1.8107030228905492,0.009012549066468731,1.3614991287321045,0.2719302183977092,-0.13831966094043913,-0.025887943201768904,0.036795013458490455,0.21316212447875935,-0.07181345036832987,-0.34421811783078016,0.21087750491990964,0.0394678878745669,-0.05609644050663665,-0.32497980871287746,0.10948437214469697,0.5247833702228671
0.04,1.062821071661477,-1.604161600165669,1.810849754172859,0.009862597725914067,1.3612127508056082,0.2705575441933478,-0.13826892818044612,-0.02587844804549655,0.03678151781677519,0.2130839410677376,-0.0717871106960255,-0.34409186582116946,-0.18551112492340427,-0.034720309707164665,0.049348619652472836,0.28588810320213237,-0.09631453599251438,-0.461657365420122
0.044,1.0622665118597558,-1.6042653917203291,1.8109972750330834,0.010717220595010632,1.3609248318465363,0.26917748347113984,-0.13980374993982636,-0.02616570567942622,0.03718980241571024,0.2154492293043764,-0.07258396665626998,-0.34791137675414113,-0.5818997547597793,-0.1089085072646101,0.15479367981505177,0.8967560151171943,-0.30211344412972574,-1.4480981010665805
0.048,1.0617026416619584,-1.6043709258111045,1.8111472725921847,0.011586191560349079,1.360632079072358,0.2677742531793147,-0.14292412621852435,-0.02674971610361343,0.0380198672552956,0.22025798918867515,-0.07420401824906331,-0.3556766506297021,-0.978288384585746,-0.18309670485675,0.26023873998110014,1.507623927032041,-0.5079123522634676,-2.434538836710437
0.052000000000000005,1.0611231188500077,-1.604479389449158,1.8113014339711258,0.012479284508520034,1.3603311997005438,0.2663320702661022,-0.14763005701651233,-0.02763047931828022,0.03927171233555904,0.22751022072063273,-0.07664726547437772,-0.36738768744782463,-1.3746770144255904,-0.25728490244542046,0.36568380014367907,2.118491838947023,-0.713711260400679,-3.4209795723568956
0.056,1.0605216012058263,-1.6045919696456508,1.8114614462908691,0.01340627332611414,1.360018900948563,0.2648351516797321,-0.15392154233392907,-0.028807995323176794,0.040945337656445036,0.23720592390025133,-0.07991370833226874,-0.38304448720855727,-1.7710656442723738,-0.3314731000167437,0.4711288602993191,2.7293597508621645,-0.9195101685413598,-4.407420308005956
0.06,1.0598917465113362,-1.6047098534117434,1.8116289966723773,0.014376931899722044,1.3596918900338857,0.26326771436843377,-0.16179858217069132,-0.03028226411841417,0.04304074321795359,0.24934509872753005,-0.0840033468227086,-0.4026470499118723,-2.167454274108749,-0.40566129759847525,0.576573920461898,3.3402276627771155,-1.1253090766820406,-5.393861043649813
0.064,1.0592272125484608,-1.604834227758598,1.8118057722366128,0.015401034115934381,1.3593468741739814,0.2616139752804371,-0.17126117652679906,-0.032053285703964596,0.04555792902014022,0.26392774520246826,-0.08891618094572507,-0.4261953755577558,-2.563842903945124,-0.47984949517673736,0.6820189806348853,3.951095574692042,-1.331107984819252,-6.380301779293669
0.068,1.0585216570991218,-1.6049662796973752,1.8119934601045384,0.01648835386134179,1.3589805605863199,0.2598581513639717,-0.1823093254022523,-0.03412106007982807,0.048496895063032674,0.2809538633250664,-0.09465221070126262,-0.45368946414622163,-2.960231533781499,-0.5540376927619384,0.7874640408044031,4.561963486606972,-1.536906892946055,-7.366742514938393
0.07200000000000001,1.0577687379452427,-1.6051071962392367,1.812193747397117,0.017648665022534912,1.3585896564883713,0.25798445956726734,-0.19494302879705105,-0.0364855872460601,0.051857641346575445,0.30042345309532403,-0.1012114360892935,-0.4851293156772629,-3.356620163621343,-0.6282258903436699,0.8929091009635126,5.172831398521982,-1.742705801079797,-8.353183250584852
0.076,1.0569621128687454,-1.6052581643953436,1.812408321235311,0.018891741486104383,1.3581708690976055,0.2559771168385536,-0.20916228671122306,-0.03914686720257743,0.055640167870740775,0.32233651451324224,-0.10859385710990099,-0.5205149301509004,-3.7530087934611878,-0.702414087921932,0.9983541611226221,5.7836993104371235,-1.9485047092274166,-9.33962398623131
0.08,1.056095439651553,-1.6054203711768573,1.812638868740083,0.02022735713864085,1.357720905631492,0.25382034012606014,-0.22496709914474056,-0.04210489994943556,0.05984447463555642,0.346693047578821,-0.11679947376311284,-0.5598463075671134,-4.149397423297563,-0.7766022855001942,1.103799221285201,6.394567222351828,-2.154303617371567,-10.32606472187647
0.084,1.0551623760755875,-1.6055950035949391,1.8128870770323955,0.02166528586673495,1.3572364733075006,0.2514983463780167,-0.24235746609760356,-0.04535968548657898,0.06447056164102238,0.37349305229205687,-0.12582828604887353,-0.6031234479259122,-4.545786053133938,-0.8507904830819257,1.2092442814547189,7.00543513426681,-2.3601025255018393,-11.312505457522922
0.088,1.0541565799227721,-1.60578324866075,1.8131546332332111,0.023215301556977305,1.356714279343101,0.24899535254265284,-0.26133338756981206,-0.048911223814090965,0.06951842888719417,0.4027365286529555,-0.13568029396712755,-0.6503463512272968,-4.942174682973782,-0.9249786806636573,1.3146893416172978,7.616303046182229,-2.5659014336321118,-12.29894619316721
0.092,1.053071708975029,-1.6059862933854518,1.813443224463493,0.024887178095958595,1.3561510309557636,0.24629557556819834,-0.2818948635613938,-0.05275951493188824,0.07498807637396077,0.4344234766615147,-0.14635549751793042,-0.7015150174712499,-5.338563312810157,-0.99916687823845,1.4201344017729378,8.227170958097044,-2.771700341769323,-13.28538692881237
0.096,1.051901421014281,-1.606205324780205,1.8137545378442028,0.026690689370269423,1.3555434353629576,0.24338323240288284,-0.3040418940722933,-0.056904558839998565,0.08087950410137767,0.46855389631773187,-0.15785389670128214,-0.7566294466577957,-5.734951942646532,-1.0733550758201815,1.5255794619424556,8.838038870011971,-2.9774992499134734,-14.271827664458836
0.1,1.0506393738224507,-1.6064415298561718,1.814090260496304,0.02863560926650045,1.3548881997821534,0.24024253999493597,-0.3277744791025661,-0.06134635553844969,0.08719271206950041,0.5051277876216105,-0.1701754915172382,-0.8156896387869206,-6.131340572489846,-1.147543273401913,1.631024522108504,9.448906781926523,-3.1832981580506847,-15.258268400103123
0.10400000000000001,1.0492792251814604,-1.6066960956245127,1.8144520795407588,0.030731711671242307,1.3541820314308197,0.23685771529258748,-0.3530926186522121,-0.06608490502721387,0.09392770027824571,0.544145150573144,-0.18332028196568761,-0.8786955938586207,-6.5277292023262214,-1.2217314709836447,1.736469582271083,10.059774693841394,-3.389097066180957,-16.244709135748714
0.108,1.047814632873233,-1.6069702090963895,1.81484168209853,0.0329887704710856,1.3534216375264279,0.233212975244067,-0.37999631272117584,-0.07112020730631885,0.10108446872766907,0.5856059851723416,-0.19728826804668587,-0.9456473118729103,-6.971523546825398,-1.3047921342719537,1.8545252423833591,10.743698762647524,-3.6195082956276545,-17.349122296760665
0.112,1.046239254679691,-1.6072650572829632,1.8152607552905802,0.03541655955262104,1.3526037252864462,0.2292925367976042,-0.40886480702681527,-0.0765232421013895,0.10876390221731258,0.6300947406743242,-0.21227634833070885,-1.017488572232706,-6.52073607096057,-1.2204226347220515,1.7346093090370163,10.048997695636732,-3.385466339444337,-16.227306240901296
0.116,1.0445437144170184,-1.6075823950332007,1.8157117933162685,0.038029528396480196,1.3517234267397822,0.22507306666620536,-0.4321622012888604,-0.08088358838409526,0.1149613431999652,0.6659979667374355,-0.22437199876224057,-1.0754657618001207,-4.943298644623228,-0.9251890416145381,1.314988331529987,7.61803516475136,-2.566484977314237,-12.301743250080987
0.12,1.0427819570693801,-1.607912125990036,1.81618044603618,0.040744543286520524,1.3508087492963483,0.22068881070320323,-0.4484111961838011,-0.0839247544343058,0.11928380886955248,0.6910390219923351,-0.23280822814922275,-1.115902518233354,-4.017705236499664,-0.7519547420599404,1.068767210992555,6.191618587832765,-2.0859310501109007,-9.998339535417788
0.124,1.040956424847548,-1.608253793068675,1.816666063787225,0.04355784057241888,1.3498609609145884,0.21614584652033852,-0.4643038431808577,-0.08689922632057479,0.12351148088790564,0.7155309154400976,-0.24105944716312777,-1.155452478083463,-3.9603938614268808,-0.7412283304052136,1.0535215633211692,6.103296982754719,-2.0561758615721124,-9.85571618364628
0.128,1.0390675263239333,-1.6086073198006006,1.8171685378832831,0.046468790610041305,1.3488802737190433,0.21144519087853553,-0.48009434707521614,-0.08985458107754751,0.12771198137612183,0.7398653978543729,-0.24925763504179965,-1.1947482477025242,-3.9348580857453963,-0.7364490480846198,1.0467286807834542,6.063944224382986,-2.0429180777672973,-9.792168625885166
0.132,1.0371156700709463,-1.6089726297172955,1.817687759638234,0.04947676375525386,1.347866899834254,0.20658786053871833,-0.4957827078668209,-0.09279081870525174,0.13188531033417328,0.7640424692351615,-0.25740279178526615,-1.2337898270905443,-3.909322310050034,-0.7316697657640259,1.0399357982388002,6.024591466011669,-2.0296602939694206,-9.728621068123639
0.136,1.0351012646609987,-1.6093496463502426,1.8182236203659565,0.0525811303639226,1.3468210513847612,0.20157487226181117,-0.5113689255556164,-0.09570793920365972,0.13603146776203223,0.7880621295824662,-0.265494917393555,-1.2725772162475133,-3.88378653436508,-0.7268904834364931,1.0331429156941463,5.9852387076407965,-2.0164025101784833,-9.665073510361276
0.14,1.0330247186665014,-1.6097382932309248,1.8187760113803302,0.05578126079191359,1.3457429404951056,0.19640724280873822,-0.5268530001417415,-0.09860594257274369,0.14015045365972645,0.8119243788962879,-0.273534011866694,-1.3111104151734345,-3.858250758687065,-0.7221112011089603,1.0263500331599007,5.945885949269383,-2.0031447263875455,-9.601525952598028
0.14400000000000002,1.0308864406598648,-1.6101384938908245,1.8193448239952343,0.0590765253950929,1.3446327792898276,0.1910859889404237,-0.5422349316251129,-0.1014848288125314,0.14424226802731144,0.8356292171766213,-0.2815200752046554,-1.3493894238682975,-3.8327149829986418,-0.7173319187883664,1.0195571506187162,5.906533190897761,-1.9898869425827304,-9.537978394835639
0.148,1.0286868392135005,-1.610550171861425,1.8199299495245487,0.06246629452932656,1.3434907798934683,0.18561212741779184,-0.5575147200057307,-0.10434459792305062,0.14830691086467618,0.85917664442347,-0.28945310740735586,-1.3874142423321196,-3.8071792073206265,-0.7125526364677726,1.012764268063654,5.86718043252711,-1.9766291587813845,-9.47443083707586
0.152,1.026426322899819,-1.610973250674209,1.8205312792821517,0.06594993855048066,1.3423171544305688,0.17998667500176674,-0.572692365283678,-0.10718524990427358,0.15234438217182067,0.8825666606368382,-0.29733310847490646,-1.4251848705649044,-3.781643431646081,-0.7077733541437092,1.005971385525939,5.8278276741562385,-1.963371374990447,-9.41088327931433
0.156,1.024105300291231,-1.6114076538606592,1.8211487045819232,0.06952682781442127,1.341112115025669,0.1742106484532726,-0.5877678674588993,-0.1100067847562003,0.1563546819488837,0.9057992658167199,-0.30516007840727943,-1.4627013085666343,-3.7561076559541884,-0.7029940718161765,0.9991785029916933,5.788474915784492,-1.9501135911925704,-9.347335721551081
0.16,1.0217241799601477,-1.6118533049522585,1.8217821167377428,0.07319633267701442,1.3398758738033105,0.16828506453323366,-0.6027412265313115,-0.112809202478803,0.16033781019575422,0.9288744599631141,-0.312934017204447,-1.499963556337313,-3.730571880258826,-0.6982147894921131,0.9923856204435699,5.749122157413078,-1.936855807394694,-9.283788163788275
0.164,1.0192833704789805,-1.6123101274804896,1.8224314070634893,0.07695782349412618,1.3386086428880335,0.1622109400025741,-0.6176124425009699,-0.1155925030721372,0.16429376691243225,0.9517922430760245,-0.320654924866437,-1.5369716138769405,-3.7050361045842806,-0.6934355071749887,0.9855927379058549,5.709769399042094,-1.9235980235898786,-9.220240606026303
0.168,1.01678328042014,-1.6127780449768356,1.8230964668730423,0.08081067062162262,1.337310634404379,0.15598929162221814,-0.6323815153679857,-0.1183566865362029,0.16822255209900105,0.9745526151554509,-0.32832280139316605,-1.5737254811855235,-3.6795003289062653,-0.6886562248543948,0.9787998553681398,5.6704166406702505,-1.9103402397920022,-9.156693048263914
0.17200000000000001,1.0142243183560367,-1.6132569809727793,1.8237771874802813,0.08475424441536979,1.3359820604768882,0.14962113615308992,-0.64704844513222,-0.12110175287097236,0.17212416575537737,0.9971555762013865,-0.335937646784773,-1.6102251582630518,-3.6539645532143727,-0.6838769425233926,0.9720069728200165,5.631063882299059,-1.8970824560080035,-9.093145490501525
0.176,1.0116068928590822,-1.6137468589998034,1.8244734601990853,0.08878791523123371,1.3346231332301008,0.14310749035611373,-0.6616132317937007,-0.12382770207639004,0.1759986078815612,1.0196011262138434,-0.3434994610412301,-1.6464706451095357,-3.6284287775294186,-0.6790976601958598,0.9652140902753625,5.59171112392938,-1.8838246722066576,-9.029597932741746
0.18,1.008931412501687,-1.6142476025893904,1.8251851763433338,0.09291105342508053,1.3332340647885583,0.13644937099221363,-0.6760758753524554,-0.12653453415253924,0.17984587847758027,1.0418892651928215,-0.35100824416242626,-1.6824619417249858,-3.602893001847934,-0.6743183778822048,0.9584212077376475,5.552358365557758,-1.8705668883983728,-8.966050374980245
0.184,1.0061982858562626,-1.6147591352730237,1.825912227226906,0.09712302935277628,1.3318150672768014,0.12964779482231384,-0.6904363758084842,-0.12922224909944768,0.18366597754346237,1.0640199931383054,-0.35846399614841706,-1.7181990481093776,-3.5773572261699194,-0.6695390955581415,0.9516283251999325,5.513005607185456,-1.8573091046074353,-8.902502817216135
0.188,1.0034079214952192,-1.615281380582186,1.8266545041636815,0.10142321337018698,1.330366352819371,0.12270377860733861,-0.7046947331618147,-0.13189084691700437,0.18745890507917973,1.0859933100503052,-0.36586671699928575,-1.7536819642627148,-3.5518214504849652,-0.6647598132271393,0.9448354426552785,5.47365284881468,-1.8440513208164977,-8.838955259453746
0.192,1.000560727990968,-1.6158142620483598,1.8274118984675394,0.10581097583317872,1.3288881335408071,0.11561833910821212,-0.7188509474123639,-0.1345403276052648,0.1912246610847046,1.1078092159288229,-0.37321640671494904,-1.7889106901850076,-3.5262856747930726,-0.6599805309065454,0.938042560114094,5.434300090443739,-1.8307935370116823,-8.775407701692634
0.196,0.9976571139159203,-1.616357703203028,1.828184301452359,0.11028568709761756,1.3273806215656514,0.10839249308585855,-0.7329050185601593,-0.13717069116425673,0.19496324556009248,1.129467710773855,-0.3805130652953792,-1.823885225876256,-3.5007498991098536,-0.655201248589421,0.931249677576379,5.394947332072741,-1.8175357532103364,-8.711860143930911
0.2,0.9946974878424868,-1.6169116275776738,1.8289716044320201,0.11484671751936956,1.3258440290184441,0.10102725730120207,-0.7468569466052427,-0.13978193759398017,0.19867465850531563,1.1509687945854048,-0.38775669274063174,-1.8586055713364549,-3.4752141234318383,-0.6504219662653576,0.9244567950317251,5.355594573700883,-1.8042779694159294,-8.648312586168105
0.20400000000000001,0.9916822583430783,-1.61747595870378,1.8297736987204016,0.1194934374543008,1.3242785680237263,0.09352364851516691,-0.760706731547614,-0.1423740668943796,0.20235889992034628,1.1723124673634622,-0.39494728905070664,-1.8930717265656007,-3.4496783477468846,-0.6456426839378249,0.9176639124836017,5.316241815327971,-1.7910201856249919,-8.58476502840505
0.20800000000000002,0.9886118339901059,-1.6180506201128289,1.8305904756313829,0.12422521725827726,1.3226844507060385,0.08588268348867727,-0.7744543733872178,-0.14494707906548276,0.20601596980518444,1.1934987291080286,-0.40208485422563167,-1.9272836915636953,-3.4241425720619305,-0.6408634016102921,0.9108710299458866,5.27688905695764,-1.7777624018271154,-8.521217470644189
0.212,0.9854866233559806,-1.6186355353363038,1.831421826478843,0.12904142728716503,1.3210618891899213,0.07810537898265735,-0.7880998721241095,-0.14750097410726193,0.20964586815991337,1.2145275798191233,-0.40916938826532356,-1.9612414663307542,-3.3986067963787114,-0.6360841192862288,0.904078147411641,5.237536298588835,-1.7645046180223,-8.457669912883963
0.216,0.982307035013113,-1.619230627905687,1.8322676425766622,0.13394143789683025,1.3194110955999159,0.07019275175803123,-0.8016432277582475,-0.1500357520197726,0.21324859498447757,1.2353990194967392,-0.41620089116981007,-1.994945050866767,-3.3730710206920227,-0.6313048369725738,0.8972852648635177,5.198183540216977,-1.751246834227893,-8.394122355120492
0.22,0.9790734775339146,-1.619835821352462,1.833127815238719,0.13892461944313894,1.3177322820605628,0.06214581857572321,-0.8150844402896457,-0.15255141280304252,0.21682415027882151,1.2561130481408591,-0.4231793629391467,-2.028394445171718,-3.2803443347287353,-0.613950086655185,0.8726186365957955,5.055283989697956,-1.7031045584682547,-8.163365533576245
0.224,0.9757863594907958,-1.6204510392081113,1.8340022357788928,0.14399034228195712,1.3160256606964027,0.053965596196657487,-0.8278859824360774,-0.15494735271301407,0.22022954407724393,1.275841291414323,-0.4298257276375561,-2.060251975135377,-3.3104193200069605,-0.6195789285998177,0.8806190139945547,5.101632048332028,-1.7187190303885602,-8.238209230819693
0.228,0.972450389674426,-1.621075400174166,1.8348896515913369,0.14913134977445353,1.3142936762394624,0.045663802774640196,-0.8415677948497013,-0.15750804423184106,0.22386910239077795,1.2969261045275153,-0.4369291151822552,-2.0943001190182757,-3.495195006905649,-0.6541615935329315,0.9297719965849216,5.3863867802571574,-1.814651738218237,-8.69803640746486
0.232,0.9690538171319982,-1.621711103561966,1.835793188598019,0.15436575111817724,1.3125302277749447,0.03721119524451128,-0.8558475424913226,-0.16018064546127753,0.2276677200499233,1.3189323856563802,-0.444342941543302,-2.129836266395096,-3.4926867322118,-0.6536921442028276,0.929104759534588,5.38252131992123,-1.8133494804062344,-8.69179439104334
0.23600000000000002,0.9656036093344954,-1.6223568453378563,1.8367109933517363,0.15968280885970457,1.310738932707116,0.028625112643479427,-0.8695092887073957,-0.16273758138546368,0.23130194046705466,1.3399862750868852,-0.45143591102550507,-2.1638344741466224,-3.4411199071535115,-0.6440408840020784,0.9153872445565037,5.303052545151288,-1.78657677429514,-8.563466752422254
0.24,0.9620977428223391,-1.6230130042130497,1.8376436041217554,0.16508564131887232,1.3089187404867406,0.019900519451338302,-0.8833765017485506,-0.16533297253329415,0.23499081800637533,1.3613568060175905,-0.4586355557376631,-2.198344000414474,-3.4549368547326376,-0.646626867453759,0.9190627507683902,5.324345612821912,-1.7937503219399298,-8.597851189593275
0.244,0.958536597320507,-1.6236795091181226,1.8385909198957873,0.1705736633078453,1.3070698482612146,0.011038360640163634,-0.8971487835452568,-0.16791059632509375,0.23865444247320178,1.3825810399894605,-0.4657859136010245,-2.2326172836633686,-3.431204043622196,-0.6421850284391017,0.9127494826483007,5.287771373111733,-1.7814286097511678,-8.538790434851784
0.248,0.954920552553977,-1.6243562889836505,1.839552839661541,0.176146289638788,1.3051924531779324,0.002039581182031354,-0.9108261340975282,-0.17047045276080697,0.24229281386756174,1.4036589770024843,-0.47288698461567247,-2.266654323893288,-3.4074712325186938,-0.6377431894313834,0.906436214542089,5.251197133401137,-1.7691068975624058,-8.479729680109237
0.252,0.9512499882477268,-1.625043272740209,1.8405292624067278,0.18180293512386517,1.3032867523842893,-0.007094873950982673,-0.9244085534054064,-0.17301254184054482,0.2459059321895385,1.4245906170566696,-0.47993876878152375,-2.3004551211042426,-3.383738421411722,-0.6333013504271345,0.9001229464358773,5.214622893690985,-1.756785185366705,-8.42066892536808
0.256,0.9475252841267338,-1.6257403893183748,1.8415200871190573,0.18754301457524136,1.3013529430276802,-0.01636405978680259,-0.937896041468822,-0.17553686356422404,0.24949379743904876,1.4453759601520122,-0.4869412660986061,-2.3340196752962328,-3.360005610296077,-0.6288595114090079,0.8938096783296656,5.178048653981665,-1.7444634731675346,-8.361608170626756
0.26,0.9437468199159762,-1.626447567648723,1.8425252127862402,0.19336594280508126,1.2993912222555004,-0.025767031353352534,-0.951288598287775,-0.17804341793181688,0.2530564096161758,1.4660150062885229,-0.493894476566864,-2.3673479864692566,-3.33627279918737,-0.6244176723978201,0.8874964102269234,5.14147441427279,-1.7321417609753031,-8.30254741588532
0.264,0.9399149753404316,-1.6271647366618294,1.8435445383959868,0.19927113462554955,1.2974017872151453,-0.03530284367855664,-0.964586223862321,-0.1805322049434066,0.25659376872086415,1.4865077554661945,-0.5007984001864085,-2.4004400546233153,-3.312539988082133,-0.6199758333831629,0.8811831421103034,5.104900174562194,-1.7198200487969495,-8.243486661144106
0.268,0.9360301301250776,-1.6278918252882701,1.844577962936007,0.20525800484881082,1.2953848350540091,-0.044970551790339056,-0.9777889181924321,-0.18300322459888219,0.26010587475305824,1.5068542076850204,-0.5076530369572396,-2.4332958797584094,-3.2888071769751615,-0.6155339943650362,0.8748698739971528,5.068325934851598,-1.707498336604718,-8.18442590640256
0.272,0.9320926639948921,-1.6286287624586204,1.8456253853940112,0.2113259682870297,1.2933405629194874,-0.05476921071662392,-0.9908966812781222,-0.1854564768983269,0.26359272771284137,1.5270543629450073,-0.5144583868792463,-2.465915461874536,-3.265074365866441,-0.6110921553642568,0.8685566058909411,5.031751695141834,-1.6951766244020783,-8.125365151660734
0.276,0.9281029566748527,-1.6293754771034568,1.8466867047577098,0.21747443975237088,1.2912691679589752,-0.06469787548533534,-1.0039095131193636,-0.18789196184179624,0.26705432760018577,1.547108221246155,-0.5212144499524562,-2.4982988009716953,-3.241341554754265,-0.6066503163565384,0.8622433377881988,4.995177455432542,-1.6828549122098468,-8.066304396919522
0.28,0.9240613878899372,-1.6301318981533548,1.8477618200148127,0.22370283405699895,1.2891708473198678,-0.07475560112439748,-1.0168274137161564,-0.1903096794291792,0.27049067441514696,1.5670157825884676,-0.527921226176925,-2.530445897049892,-3.2176087436455725,-0.6022084773418812,0.8559300696819871,4.958603215723695,-1.6705332000245543,-8.007243642178363
0.28400000000000003,0.9199683373651234,-1.6308979545388902,1.848850630153031,0.23001056601307862,1.2870457981495598,-0.08494144266173448,-1.0296503830685282,-0.1927096296605313,0.27390176815764167,1.5867770469719447,-0.5345787155526527,-2.5623567501091222,-3.1938759325368657,-0.5977666383306934,0.8496168015618977,4.922028976012655,-1.6582114878323229,-7.948182887434152
0.28800000000000003,0.915824184825389,-1.631673575190639,1.8499530341600738,0.2363970504327745,1.2848942175954465,-0.09525445512527046,-1.0423784211764513,-0.19509181253582475,0.27728760882764214,1.6063920143965689,-0.5411869180795836,-2.594031360149365,-3.17014312142469,-0.5933247993160362,0.8433035334591554,4.8854547363016145,-1.645889775629683,-7.889122132692716
0.292,0.9116293099957118,-1.6324586890391768,1.851068931023652,0.24286170212825117,1.282716302804923,-0.1056936935429294,-1.0550115280399257,-0.19745622805505958,0.2806481964253149,1.6258606848623576,-0.5477458337576901,-2.625469727170664,-3.1464103103194527,-0.5888829603048484,0.8369902653633521,4.8488804965940435,-1.6335680634374516,-7.830061377956887
0.296,0.9073840926010696,-1.6332532250150795,1.8521982197314764,0.24940393591167337,1.280512250925385,-0.11625821294263577,-1.067549703659007,-0.19980287621826354,0.28398353095054896,1.6451830583693212,-0.5542554625870832,-2.6566718511730203,-3.1226774992159645,-0.5844411212936607,0.8306769972502015,4.812306256885612,-1.6212463512556285,-7.771000623216284
0.3,0.9030889123664397,-1.634057112048923,1.8533407992712565,0.25602316659520574,1.2782822591042264,-0.12694706835231356,-1.0799929480336534,-0.20213175702540886,0.2872936124033165,1.6643591349174425,-0.5607158045677352,-2.6876377321563942,-3.0989446881037885,-0.5799992822824729,0.8243637291335815,4.775732017175016,-1.6089246390564582,-7.711939868472184
0.304,0.8987441490168003,-1.6348702790712828,1.854496568630703,0.2627188089910129,1.2760265244888431,-0.13775931479988693,-1.0923412611638372,-0.20444287047652332,0.2905784407836176,1.6833889145067213,-0.5671268596995349,-2.7183673701207978,-3.0752118769898638,-0.5755574432747546,0.8180504610204309,4.7391577774639755,-1.5966029268572879,-7.652879113729638
0.308,0.894350182277129,-1.635692655012735,1.8556654267975254,0.2694902779112595,1.2737452442266302,-0.14869400731327995,-1.1045946430495723,-0.2067362165716069,0.29383801609147997,1.7022723971371543,-0.5734886279825935,-2.7488607650662313,-3.0514790658811575,-0.5711156042635668,0.8117371929176886,4.7025835377542125,-1.5842812146754648,-7.59381835898798
0.312,0.8899073918724038,-1.6365241688038557,1.8568472727594347,0.27633698816811014,1.2714386154649824,-0.15975020092041678,-1.1167530936908865,-0.20901179531063185,0.2970723383269591,1.721009582808755,-0.5798011094169386,-2.7791179169927016,-3.0277462547759204,-0.5666737652454401,0.8054239248184158,4.666009298044477,-1.5719595024901722,-7.534757604246267
0.316,0.8854161575276019,-1.6373647493752201,1.8580420055041411,0.28325835457372955,1.2691068353512946,-0.17092695064922156,-1.1288166130877797,-0.21126960669357042,0.3002814074900273,1.73960047152151,-0.5860643040025149,-2.8091388259002015,-3.0040134436689345,-0.5622319262342523,0.7991106567122042,4.629435058334769,-1.5596377902875325,-7.475696849504998
0.32,0.8808768589677015,-1.6382143256574042,1.859249524019355,0.2902537919402822,1.2667501010329623,-0.1822233115276184,-1.140785201240238,-0.21350965072050587,0.30346522358065675,1.7580450632754332,-0.5922782117392389,-2.8389234917887416,-2.9802806325602282,-0.557790087226534,0.7927973885955841,4.592860818626781,-1.5473160780883621,-7.416636094765505
0.324,0.87628987591768,-1.6390728265809842,1.8604697272927864,0.297322715079933,1.2643686096573807,-0.1936383385835315,-1.1526588581482615,-0.2157319273913827,0.30662378659879197,1.7763433580705243,-0.5984428326272218,-2.8684719146583255,-2.9565478214498007,-0.5533482482153462,0.7864841204824335,4.556286578915297,-1.534994365906539,-7.357575340024291
0.328,0.8716555881025154,-1.6399401810765353,1.8617025143121453,0.3044645388048464,1.2619625583719445,-0.205171086844885,-1.1644375838118364,-0.21793643670622864,0.3097570965445162,1.7944953559067556,-0.6045581666664912,-2.897784094508936,-2.9328150103376247,-0.5489064092110973,0.7801708523796913,4.519712339203813,-1.5226726537108382,-7.2985145852808575
0.332,0.8669743752471853,-1.640816318074634,1.8629477840651425,0.31167867792718706,1.2595321443240488,-0.21682061133960298,-1.1761213782309625,-0.22012317866507147,0.3128651534178295,1.8125010567841549,-0.6106242138569085,-2.9268600313405724,-2.9090821992289184,-0.5444645701929707,0.7738575842700102,4.483138099495826,-1.5103509415116678,-7.239453830539588
0.336,0.8622466170766677,-1.6417011665058558,1.864205435539488,0.31896454725911966,1.2570775646610892,-0.22858596709560958,-1.1877102414056677,-0.2222921532677724,0.3159479572186763,1.8303604607027222,-0.6166409741985845,-2.9556997251532526,-2.8853493881236814,-0.540022731174844,0.767544316160329,4.44656385978609,-1.4980292293298447,-7.180393075799207
0.34,0.85747269331594,-1.6425946553007762,1.865475367722892,0.32632156161280884,1.2545990165304601,-0.240466209140829,-1.199204173335952,-0.22444336051447022,0.31900550794711213,1.8480735676624436,-0.6226084476915472,-2.984303175946966,-2.8701233785438096,-0.5371730273269482,0.7634939792611206,4.423099310153777,-1.4901241182571634,-7.1425020896314635
0.34400000000000003,0.8526529836899801,-1.6434967133899716,1.8667574796030648,0.3337491358004192,1.2520966970795568,-0.2524603925031853,-1.2106712284340182,-0.226589537486388,0.32205590905276527,1.8657452551839524,-0.6285619671446419,-3.0128397418703043,-2.995726808693533,-0.5606809975085281,0.7969062929616411,4.616664663268683,-1.5553354962664911,-7.455074980753317
0.34800000000000003,0.8477873234884679,-1.6444073716006673,1.868051814995314,0.34124752365428046,1.249570520793303,-0.26456892707579144,-1.2231699878055002,-0.22892880849453845,0.32538075829080526,1.885006884968593,-0.6350511316616791,-3.0439437757929926,-3.321066170410003,-0.6215715958532431,0.8834512288807828,5.118039732063262,-1.7242467121245109,-8.264704660180922
0.352,0.8428676237875361,-1.645328143857928,1.8693605256693913,0.34882919088016795,1.2470162880262634,-0.27681194270952925,-1.2372397577972982,-0.23156211025321394,0.32912351888381153,1.9066895730404585,-0.6423559408416379,-3.0789573791517517,-3.5636264180318453,-0.6669692339915378,0.9479757333251404,5.491845287585423,-1.8501802792440791,-8.86833274407317
0.356,0.8378894054260895,-1.646259868482693,1.8706848031463845,0.3565010402386041,1.24443167326657,-0.28920058610900545,-1.251678999149755,-0.23426456236647075,0.3329645641574064,1.9289416472692764,-0.6498525738956318,-3.114890437745578,-3.562204394045448,-0.666703087612297,0.947597454548782,5.4896538301194004,-1.8494419861472822,-8.864793938264004
0.36,0.8328541917943381,-1.6472022603568597,1.8720242421826505,0.36426072405832216,1.2418174674350984,-0.30173106621149387,-1.2657373929496618,-0.2368957349541123,0.3367042985202018,1.9506068036814137,-0.6571514767308162,-3.1498757306578637,-3.4669925059113704,-0.6488832062154226,0.9222697268593261,5.342924375951824,-1.8000094314657433,-8.627852517883284
0.364,0.8277635062824922,-1.648155034362326,1.8733784375345461,0.37210589466805544,1.2391744614527234,-0.31439959195426836,-1.279414939197046,-0.23945562801619413,0.340342721972281,1.971685042276891,-0.6642526493473577,-3.183913257888644,-3.371780617775544,-0.6310633248254871,0.8969419991802785,5.1961949217851355,-1.7505768767911434,-8.390911097510445
0.368,0.8226188722807617,-1.6491179053809892,1.8747469839584288,0.3800342043965373,1.2365034462403195,-0.327202372274603,-1.2927116378918662,-0.2419442415527162,0.343879834513644,1.9921763630556948,-0.6711560917451453,-3.2170030194379473,-3.276568729638024,-0.6132434434355516,0.8716142714977615,5.049465467615005,-1.701144322106135,-8.153969677136663
0.372,0.8174218131793572,-1.6500905882947476,1.8761294762106553,0.388043305572501,1.2338052127187622,-0.34013561610977194,-1.3056274890341502,-0.24436157556367855,0.3473156361442631,2.012080766017811,-0.6778618039242068,-3.2491450153057375,-3.1813568415074154,-0.5954235620421466,0.8462865438221834,4.902736013442238,-1.6517117674280657,-7.91702825675944
0.376,0.8121738523684885,-1.6510727979854987,1.8775255090475829,0.3961308505246798,1.2310805518089258,-0.35319553239704893,-1.3181624926239255,-0.24670763004905338,0.3506501268642215,2.0313982511632327,-0.6843697858845699,-3.280339245492023,-3.0861449533733096,-0.5776036806452722,0.8209588161466053,4.756006559273828,-1.6022792127430574,-7.6800868363839365
0.38,0.8068765132383658,-1.65206424933514,1.878934677225569,0.40429449158180686,1.2283302544316856,-0.3663783300737081,-1.3303166486611366,-0.24898240500884072,0.3538833066734359,2.0501288184920017,-0.6906800376261513,-3.310585709996809,-2.9909330652340413,-0.5597837992588062,0.7956310884536799,4.60927710511061,-1.5528466580511102,-7.443145416008434
0.384,0.8015313191791994,-1.6530646572255694,1.8803565755009704,0.4125318810726158,1.2255551115079166,-0.3796802180770234,-1.3420899571457978,-0.25118590044312383,0.3570151755718509,2.0682724680041176,-0.6967925591489788,-3.3398844088200903,-2.8957211770982427,-0.5419639178723401,0.7703033607607546,4.462547650942172,-1.5034141033765103,-7.206203995633819
0.388,0.7961397935811995,-1.654073736538685,1.8817907986301439,0.4208406713258398,1.2227559139584938,-0.39309740534426885,-1.3534824180779226,-0.25331811635181944,0.36004573355952196,2.085829199699539,-0.7027073504531633,-3.3682353419618796,-2.800509288962416,-0.5241440364719963,0.7449756330886459,4.315818196769405,-1.4539815487019103,-6.969262575257429
0.392,0.790703459834576,-1.655091202156384,1.8832369413694465,0.4292185146702121,1.2199334527042913,-0.40662610081271844,-1.3644940314574971,-0.2553790527348998,0.3629749806365601,2.102799013578273,-0.708424411538594,-3.3956385094221497,-2.7052974008248687,-0.5063241550785913,0.7196479054234761,4.1690887426001355,-1.4045489940099631,-6.732321154881926
0.396,0.7852238413295395,-1.6561167689605643,1.8846945984752363,0.437663063434466,1.217088518666185,-0.42026251341964604,-1.3751247972845215,-0.2573687095924482,0.36580291680290977,2.11918190964034,-0.713943742405243,-3.422093911200935,-2.61008551269426,-0.48850427368518634,0.6943201777305508,4.022359288434307,-1.3551164393214854,-6.4953797345082
0.4,0.7797024614562998,-1.6571501518331235,1.8861633647038698,0.4461719699473348,1.2142219027650494,-0.4340028521023259,-1.3853747155590512,-0.2592870869243813,0.3685295420584045,2.1349778878857473,-0.7192653430531659,-3.4476015472982153,-2.514873624560182,-0.4706843922917814,0.668992450034156,3.87562983426587,-1.305683884643416,-6.258438314129255
0.404,0.7741408436050671,-1.6581910656559593,1.8876428348117036,0.45474288653755196,1.2113343959217597,-0.44784332579803177,-1.395243786281003,-0.2611341847307824,0.371154856403183,2.150186948314467,-0.7243892134823904,-3.472161417713969,-2.419661736420886,-0.45286451090878477,0.6436647223620473,3.728900380095712,-1.2562513299722855,-6.021496893754585
0.40800000000000003,0.7685405111660518,-1.6592392253109698,1.8891326035550953,0.46337346553385056,1.2084267890571903,-0.46178014344403767,-1.4047320094504183,-0.26291000301165157,0.37367885983730087,2.164809090926513,-0.7293153536929442,-3.495773522448252,-2.3244498482885567,-0.4350446295153798,0.6183369946864692,3.582170925928163,-1.2068187752838078,-5.784555473382524
0.41200000000000003,0.7629029875294637,-1.6602943456800525,1.890632265690402,0.47206135926496406,1.2054998730922162,-0.4758095139776178,-1.4138393850673114,-0.26461454176690546,0.3761015523606748,2.1788443157218924,-0.7340437636846608,-3.518437861501029,-2.2292379601510093,-0.41722474810809707,0.5930092669970133,3.4354414717588933,-1.1573862205918606,-5.547614053002691
0.41600000000000004,0.7572297960855133,-1.661356141645105,1.8921414159739807,0.4808042200596257,1.202554438947713,-0.4899276463360459,-1.4225659131316264,-0.26624780099651635,0.378422933973277,2.192292622700584,-0.7385744434576791,-3.5401544348722735,-2.134026072013462,-0.39940486671816156,0.5676815393144963,3.288712017587847,-1.10795366592073,-5.310672632625524
0.42,0.7515224602244107,-1.6624243280880246,1.8936596491621882,0.48959970024656874,1.1995912775445547,-0.504130749456596,-1.4309115936434191,-0.26780978070065076,0.38064300467519074,2.205154011862595,-0.7429073930120267,-3.5609232425620334,-2.0388141838793836,-0.38158498534210383,0.5423538116389182,3.14198256341941,-1.0585211112426607,-5.0737312122543505
0.424,0.745782503336366,-1.6634986198907102,1.8951865600113822,0.49844545215452646,1.1966111798036168,-0.5184150322765422,-1.4388764266026615,-0.2693004808792532,0.3827617644663883,2.2174284832079394,-0.7470426123476204,-3.5807442845703084,-1.9436022957435573,-0.36376510394522943,0.5170260839598706,2.9952531092553025,-1.009088556554183,-4.836789791880569
0.428,0.7400114488115894,-1.6645787319350587,1.8967217432779193,0.5073391281122323,1.1936149366457738,-0.5327767037331584,-1.4464604120093676,-0.2707199015322126,0.3847792133468697,2.2291160367366376,-0.7509801014644601,-3.599617560897078,-1.8483904076112279,-0.345945222548355,0.49169835627388414,2.84852365508953,-0.9596560018657052,-4.599848371504233
0.432,0.734210820040291,-1.665664379102968,1.8982647937181572,0.5162783804484196,1.190603338991901,-0.5472119727637188,-1.4536635498635513,-0.27206804265964,0.3866953513165794,2.2402166724486556,-0.754719860362546,-3.6175430715423422,-1.7531785194771499,-0.32812534115495007,0.46637062858442824,2.701794200916763,-0.9102234471841664,-4.362906951127898
0.436,0.728382140412681,-1.6667552762763358,1.899815306088452,0.5252608614918215,1.1875771777628734,-0.5617170483054972,-1.4604858401651848,-0.2733449042614522,0.38851017837554513,2.2507303903439717,-0.7582618890419335,-3.634520816506101,-1.6579666313378816,-0.31030545976501456,0.4410429009088501,2.5550647467474374,-0.860790892506097,-4.1259655307515075
0.44,0.7225269333189696,-1.6678511383370596,1.9013728751451615,0.5342842235711713,1.1845372438795656,-0.5762881392957676,-1.4669272829142543,-0.27455048633776014,0.3902236945238502,2.260657190422635,-0.7616061875025948,-3.6505507957883543,-1.5627547432003341,-0.29248557838201794,0.4157151732263331,2.4083352925790558,-0.8113583378245581,-3.8890241103785583
0.444,0.716646722149367,-1.6689516801670379,1.9029370956446428,0.5433461190152026,1.1814843282628527,-0.590921454671804,-1.4729878781107875,-0.27568478888850834,0.3918358997613558,2.269997072684604,-0.7647527557445299,-3.6656330093891296,-1.467542855067977,-0.27466569697820464,0.39038744554034666,2.2616058384088977,-0.7619257831430193,-3.65208269000572
0.448,0.7107430302940833,-1.6700566166481676,1.9045075623432524,0.5524442001526482,1.1784192218336094,-0.6056132033708806,-1.4786676257547982,-0.2767478119135858,0.39334679408817297,2.2787500371299063,-0.7677015937677389,-3.6797674573084,-1.372330966933899,-0.25684581558133024,0.36505971786476854,2.1148763842421814,-0.712493228458011,-3.4151412696241668
0.452,0.7048173811433286,-1.6711656626623466,1.9060838699973481,0.5615761193122418,1.1753427155127107,-0.6203595943302712,-1.4839665258462587,-0.277739555413159,0.39475637750427395,2.2869160837585416,-0.770452701572194,-3.692954139546123,-1.2771190787980724,-0.23902593419486418,0.33973199018225153,1.9681469300737442,-0.6630606737730027,-3.1781998492442787
0.456,0.6988712980873132,-1.672278533091473,1.9076656133632865,0.5707395288227165,1.1722556002210318,-0.6351568364872496,-1.4888845783851827,-0.2786600193871447,0.396064650009631,2.2944952125704963,-0.773006079157923,-3.7051930561023543,-1.1819071906622736,-0.22120605279798977,0.31440426250320397,1.8214174759053625,-0.6136281190914639,-2.9412584288731614
0.46,0.6929063045162471,-1.6733949428174437,1.9092523871974252,0.5799320810128058,1.1691586668794474,-0.65000113877909,-1.4934217833715568,-0.2795092038355429,0.3972716116042996,2.3014874235657845,-0.7753617265249257,-3.7164842069771082,-1.0866953025264747,-0.2033861714115237,0.28907653482068696,1.6746880217334836,-0.5641955644133945,-2.7043170085019885
0.464,0.6869239238203407,-1.6745146067221572,1.910843786256121,0.5891514282112428,1.1660527064088324,-0.6648887101430665,-1.4975781408053945,-0.2802871087584369,0.3983772622881965,2.307892716744364,-0.7775196436732301,-3.72682759217037,-1.015900796898922,-0.19013625359581843,0.2702441810470413,1.5655877888525738,-0.5274401409134655,-2.5281399465160725
0.468,0.680925679389804,-1.6756372396875112,1.9124394052957308,0.5983952227467607,1.1629385097300615,-0.679815759516453,-1.5015489897467482,-0.28103029386430944,0.3994335650526759,2.314012125876605,-0.7795812476522335,-3.736709326549237,-1.3227941213864725,-0.24757448687656725,0.3518822065326499,2.0385359770745404,-0.6867744566305123,-3.2918653765246497
0.47200000000000003,0.6749115319023667,-1.6767628490730717,1.9140392547765424,0.6076635252182556,1.1598160564276145,-0.6947823847554604,-1.5081604937764863,-0.2822677046534494,0.4011923199404577,2.3242010045609605,-0.7830138393262742,-3.7531625151825674,-2.2536836769317112,-0.42180001473199336,0.5995121782446933,3.4731143585195468,-1.170078062502633,-5.6084489231996715
0.47600000000000003,0.6688603954395921,-1.6778953813247388,1.9156489438552544,0.6169888307832484,1.1566743990154513,-0.7098410596379136,-1.519578459162202,-0.2844046939821654,0.40422966247863346,2.3417970407447615,-0.7889418721522545,-3.781576917934834,-3.082628980168034,-0.5769456302012754,0.8200235168467906,4.750588151558266,-1.6004537732802748,-7.6713370919749275
0.48,0.6627549042290691,-1.679038086624929,1.9172730920763714,0.6263979015442137,1.1535045214503965,-0.7250350000989391,-1.5328215256178306,-0.2868832696950596,0.407752508075232,2.3622057097734266,-0.7958174695125164,-3.814533211918367,-3.2243614935378027,-0.603472323744414,0.857726397986841,4.969009766051302,-1.6740391243844077,-8.024048330983858
0.484,0.6565978232346494,-1.6801904474822993,1.9189109639198563,0.6358864764614358,1.1503078592593512,-0.7403573253332605,-1.5453733511105043,-0.2892324725721207,0.4110914736625282,2.381549118873172,-0.8023341851473298,-3.845769304582705,-3.0515512528007935,-0.5711291147826592,0.8117563956716589,4.702694783816074,-1.5843186930153408,-7.593998001176661
0.488,0.6503919174201851,-1.681351946405506,1.9205618238656716,0.6454502944951991,1.1470858479692179,-0.7558011545356007,-1.557233935640237,-0.2914523026133209,0.41424655924060527,2.399827268043955,-0.8084920190566391,-3.87528519592778,-2.878741012068975,-0.5387859058278432,0.7657863933668851,4.43637980157735,-1.4945982616462739,-7.163947671362525
0.492,0.6441399517495275,-1.6825220659032059,1.9222249363937811,0.6550850946057875,1.143839923106898,-0.7713596069006827,-1.5684032792070561,-0.29354275981874345,0.41721776480946327,2.4170401572857907,-0.8142909712405,-3.9030808859536053,-2.7059307713389047,-0.5064426968730273,0.719816391051703,4.170064819340402,-1.4048778302841458,-6.73389734154145
0.496,0.6378446911865286,-1.683700288484056,1.9238995659841474,0.6647866157534854,1.1405715201992939,-0.7870258016232295,-1.5788813818109482,-0.2955038441883051,0.4200050903690189,2.4331877865986784,-0.8197310416989123,-3.9291563746601117,-2.5331205306070856,-0.47409948790433365,0.6738463887261126,3.903749837099957,-1.3151573989220178,-6.303847011727314
0.5,0.63150890069504,-1.6848860966567123,1.9255849771167333,0.6745505968985769,1.1372820747733068,-0.8027928578979636,-1.5886682434519128,-0.2973355557219781,0.42260853591927217,2.4482701559825903,-0.8248122304318761,-3.9535116620474238,-2.360310289873518,-0.44175627894951774,0.6278763864178694,3.637434854864674,-1.2254369675564203,-5.873796681923504
0.504,0.6251353452389133,-1.6860789729298318,1.9272804342715015,0.6843727770013461,1.1339730223558389,-0.8186538949196089,-1.5977638641299363,-0.29903789441990125,0.42502810146036185,2.462287265437596,-0.8295345374393637,-3.9761467481154997,-2.1875000491364816,-0.4094130699981713,0.5819063841130956,3.3711198726346647,-1.1357165361804145,-5.443746352107648
0.508,0.6187267897820005,-1.6872783998120715,1.9289852019284162,0.6942488950220777,1.1306457984737919,-0.8346020318828876,-1.6061682438450047,-0.3006108602819635,0.42726378699217693,2.4752391149636677,-0.8338979627213194,-3.997061632864285,-2.0146898084046625,-0.37706986102600815,0.5359363817875051,3.1048048903942194,-1.0459961048113475,-5.013696022293567
0.512,0.6122859992881533,-1.6884838598120875,1.930698544567439,0.7041746899210555,1.1273018386540683,-0.8506303879825232,-1.6138813825971736,-0.3020544533081093,0.4293155925146619,2.4871257045607496,-0.8379025062778545,-4.016256316293848,-1.841879567676341,-0.3447266520746617,0.48996637947579247,2.838489908155495,-0.9562756734596278,-4.58364569248626
0.516,0.6058157387212231,-1.6896948354385364,1.9324197266685335,0.7141459006585636,1.123942578423569,-0.8667320824132384,-1.6209032803864154,-0.3033686734985608,0.43118351802798327,2.4979470342289116,-0.8415481681089965,-4.033730798404175,-1.6690693269410528,-0.31238344313372357,0.4439963771710187,2.5721749259254856,-0.8665552420940303,-4.1535953626773425
0.52,0.599318773045062,-1.690910809200076,1.9341480127116628,0.7241582661948868,1.1205694533091963,-0.8829002343697566,-1.627233937212702,-0.3045535208531791,0.43286756353203004,2.5077031039681534,-0.8448349482146067,-4.049485079195267,-1.4962590862074854,-0.28004023416156043,0.39802637484542824,2.305859943688482,-0.7768348107180245,-3.723545032857989
0.524,0.5927978672235215,-1.6921312636053618,1.9358826671767897,0.7342075254903089,1.1171838988378522,-0.8991279630468005,-1.6328733530760753,-0.30560899537185326,0.4343677290267467,2.5163939137784195,-0.8477628465947407,-4.063519158667039,-1.3234488454756665,-0.24769702519633618,0.3520563725267767,2.0395449614463157,-0.6871143793489576,-3.293494703042077
0.528,0.5862557862204534,-1.6933556811630508,1.9376229545438768,0.7442894175051141,1.1137873505364384,-0.9154083876390929,-1.6378215279765074,-0.3065350970547498,0.43568401451224426,2.524019463659724,-0.8503318632493984,-4.075833036819604,-1.1506386047438477,-0.21535381625192862,0.30608637022547236,1.7732299792093675,-0.5973939479833601,-2.863444373236712
0.532,0.5796952949997094,-1.6945835443817998,1.9393681392928876,0.7543996811995867,1.110381243931857,-0.9317346273413574,-1.642078461914026,-0.3073318259018687,0.4368164199885505,2.5305797536120944,-0.8525419981786075,-4.086426713652933,-0.9778283640120289,-0.18301060729017382,0.2601163679137597,1.5069149969740847,-0.5076735166212321,-2.4333940434224655
0.536,0.5731191585251412,-1.6958143357702657,1.9411174859037852,0.7645340555340109,1.1069670145510095,-0.9480998013483164,-1.6456441548886036,-0.3079991819130712,0.43776494545555433,2.5360747836355166,-0.8543932513823682,-4.095300189166983,-0.805018123274992,-0.15066739832148013,0.21414636558816924,1.2406000147405782,-0.41795308525563457,-2.0033437136117715
0.54,0.5665301417606006,-1.6970475378371044,1.942870258856532,0.7746882794686708,1.103546097920798,-0.9644970288546932,-1.648518606900226,-0.30853716508844053,0.43852959091325583,2.540504553730019,-0.8558856228606526,-4.102453463361827,-0.6322078825397037,-0.11832418937707256,0.16817636326951768,0.9742850325071273,-0.3282326538900371,-1.573293383802965
0.544,0.5599310096699394,-1.6982826330909733,1.9446257226310912,0.784858091963851,1.1001199295681243,-0.980919429055211,-1.6507018179489212,-0.30894577542808777,0.4391103563617105,2.5438690638955737,-0.8570191126134885,-4.107886536237407,-0.4593976418096335,-0.08598098041878721,0.12220636096474391,0.7079700502666264,-0.2385122225244396,-1.143243053981835
0.548,0.5533245272170092,-1.699519104040529,1.9463831417074258,0.7950392319798354,1.0966899450198901,-0.9973601211445925,-1.652193788034703,-0.30922501293179083,0.4395072418009738,2.546168314132152,-0.8577937206408481,-4.1115994077936815,-0.2865874010812841,-0.05363777144662407,0.07623635865303124,0.4416550680313991,-0.1487917911588421,-0.7131927241693647
0.552,0.5467134593656617,-1.7007564331944276,1.948141780565499,0.8052274384769083,1.0932575798029975,-1.0138122243175605,-1.6529945171575715,-0.30937487759966076,0.4397202472309347,2.547402304439825,-0.8582094469427592,-4.113592078030762,-0.11377716034599583,-0.02129456249874706,0.030266356330910238,0.17534008579617177,-0.05907135978977518,-0.28314239437077227
0.556,0.5401005710797486,-1.7019941030613264,1.9499009036852732,0.815418450415354,1.089824269444348,-1.0302688577688386,-1.653104005317471,-0.3093953694317808,0.43974937265162106,2.5475710348185214,-0.8582662915191663,-4.113864546948648,0.05903308039101329,0.011048646456068845,-0.01570364597733298,-0.09097489644604995,0.030649071579291753,0.14690793544680503
0.56,0.533488627323122,-1.7032315961498818,1.951659775546712,0.8256080067554564,1.0863914494708442,-1.0467231406931496,-1.6525222525144434,-0.3092864884280122,0.43959461806311606,2.5466745052682564,-0.8579642543701249,-4.1124168145471875,0.23184332112111128,0.04339185542129309,-0.0616736482855762,-0.35728987868127726,0.1203695029344809,0.576958265267824
0.5640000000000001,0.5268803930596331,-1.7044683949687505,1.9534176606297782,0.8357918464575,1.082960555409387,-1.063168192285216,-1.6512492587485021,-0.30904823458841046,0.43925598346533645,2.544712715789071,-0.8573033354956905,-4.109248880826505,0.4046535618546787,0.07573506437263955,-0.1076436506076972,-0.6236048609112865,0.21008993430701728,1.007008595073411
0.5680000000000001,0.520278633253134,-1.7057039820265891,1.9551738234144347,0.845965708481769,1.0795330227868787,-1.0795971317397617,-1.649285024019606,-0.3086806079130311,0.4387334688582545,2.541685666380966,-0.8562835348956688,-4.1043607457866,0.5774638025864698,0.1080782733309249,-0.15361365292634876,-0.889919843150011,0.29981036568649255,1.4370589248823284
0.5720000000000001,0.5136861128674762,-1.7069378398320547,1.9569275283806442,0.8561253317885478,1.0761102871302217,-1.0960030782515089,-1.6466295483278104,-0.30818360840176307,0.43802707424192566,2.537593357043871,-0.8549048525701985,-4.0977524094274465,0.7502740433182886,0.14042148229614915,-0.19958365523806143,-1.1562348253973953,0.3895307970416817,1.867109254701682
0.5760000000000001,0.5071055968665115,-1.7081694508938032,1.95867804000837,0.86626645533812,1.072693783966317,-1.1123791510151813,-1.6432828316730597,-0.3075572360546619,0.43713679961635,2.532435787777787,-0.8531672885193353,-4.089423871748987,0.9230842840536047,0.1727646912474956,-0.24555365755324354,-1.4225498076291254,0.4792512284072792,2.2971595845210357
0.58,0.5005398502140918,-1.709398297720492,1.960424622777575,0.8763848180907701,1.069284948822067,-1.1287184692255008,-1.6392448740553816,-0.3068014908717831,0.4360626449814997,2.526212958582838,-0.8510708427429403,-4.079375132751278,1.0958945247845353,0.2051079002023115,-0.2915236598649562,-1.6888647898557485,0.5689716597728767,2.727209914322959
0.584,0.4939916378740684,-1.7106238628207775,1.962166541168222,0.8864761590067827,1.0658852172243736,-1.1450141520771915,-1.6345156754747834,-0.3059163728530434,0.43480461033743034,2.518924869458941,-0.8486155152411523,-4.067606192434403,1.2687047655172146,0.2374511091640663,-0.3374936621766689,-1.9551797720927522,0.6586920911280658,3.157260244124993
0.588,0.4874637248102935,-1.7118456287033164,1.9639030596602745,0.8965362170464416,1.0624960247001378,-1.161259318764976,-1.6290952359312438,-0.30490188199847057,0.43336269568408636,2.510571520406096,-0.8458013060139158,-4.054117050798278,1.4241991406933885,0.26655347628787296,-0.3788573959273567,-2.194809562478306,0.7394223902022767,3.5442188355029325
0.592,0.48095887598661846,-1.7130630778767653,1.9656334427336948,0.9065607311700314,1.0591188067762622,-1.1774470884835777,-1.6231220823492363,-0.3037839450427404,0.4317737511700115,2.5013663929591146,-0.8427001361195341,-4.03925244175038,1.3972357557033577,0.2615070022436716,-0.3716847488365038,-2.1532567392023028,0.7254234135195547,3.477118572480009
0.596,0.4744787481514996,-1.7142759002636583,1.9673572496696345,0.9165471481901145,1.0557544236111815,-1.193573338298979,-1.617917349885617,-0.3028098259805212,0.43038921769339433,2.4933454664924777,-0.8399979187057593,-4.026300102218438,0.9881986728606795,0.18495151694886136,-0.26287501878052844,-1.522896507132776,0.5130576222166228,2.4592012798640983
0.6,0.4680155371875335,-1.7154855564846094,1.969076556475242,0.9265074949019713,1.0523988234266162,-1.2096574893013252,-1.6152164929663508,-0.30230433290714953,0.42967075101976726,2.4891832209020524,-0.8385956751418011,-4.019578831511467,0.4761702823282976,0.08912015210874036,-0.1266681238752676,-0.7338180870557487,0.24722032070101374,1.1849829390438993
0.604,0.4615570162077688,-1.7166943349269155,1.9707946156777927,0.9364606139573309,1.0490456582100471,-1.2257299689510708,-1.6141079876269906,-0.3020968647636513,0.4293758727023922,2.4874749217960317,-0.8380201561401512,-4.016820238706087,0.2611286571028437,0.04887290640936959,-0.06946396764392904,-0.4024210219412683,0.13557400103947348,0.6498368651867148
0.608,0.4551026732865176,-1.7179023314027186,1.972511563456861,0.9464072942763395,1.045694662177495,-1.241792051210974,-1.613127463709528,-0.3019133496558746,0.42911503927861583,2.485963852726522,-0.8375110831334853,-4.014380136589973,0.22913330163104595,0.04288464747204124,-0.060952744244252566,-0.3531135128100882,0.1189625023073626,0.5702141928666249
0.612,0.44865199649809256,-1.7191096417241625,1.9742275359920216,0.9563483247791431,1.0423455695449793,-1.2578450100437906,-1.6122749212139422,-0.30175378758387494,0.42888825074843817,2.484650013693551,-0.8370684561216923,-4.012258525163154,0.19713794615924818,0.03689638854165178,-0.052441520844576095,-0.303806003668472,0.10235100358566007,0.49059152052932653
0.616,0.44220447391680606,-1.7203163617033896,1.9759426694628486,0.9662844943858879,1.0389981145285214,-1.2738901194122791,-1.611550360140254,-0.30161817854754136,0.4286955071118592,2.4835334046971744,-0.8366922751048,-4.010455404425739,0.16514259068653447,0.030908129614731772,-0.04393029744143018,-0.25449849452158224,0.08573950485007975,0.41096884819546986
0.62,0.43575959361697053,-1.7215225871525428,1.9776571000489165,0.9762165920167205,1.0356520313441409,-1.2899286532791965,-1.61095378048845,-0.3015065225469571,0.42853680836890673,2.4826140257373783,-0.8363825400828917,-4.00897077437759,0.13314723521384852,0.02491987068087287,-0.035419074041753706,-0.2051909853851286,0.06912800611449943,0.33134617586838555
0.624,0.42931684367289846,-1.7227284138837653,1.9793709639297998,0.986145406591787,1.0323070542078583,-1.3059618856072999,-1.6104851822585433,-0.3014188195820944,0.4284121545195252,2.4818918768140934,-0.836139251055884,-4.0078046350187915,0.10115187974030215,0.018931611747013966,-0.02690785063860779,-0.15588347625217214,0.05251650738932745,0.2517235035345289
0.628,0.4228757121589022,-1.7239339377091996,1.9810843972850727,0.9960717270312333,1.0289629173356938,-1.3219910903593468,-1.6101445654505275,-0.301355069652981,0.42832154556379787,2.481366957927361,-0.8359624080237771,-4.006956986349314,0.06915652427022523,0.012943352802746722,-0.018396627228522977,-0.10657596710705874,0.03590500866068602,0.17210083120422492
0.632,0.41643568714929424,-1.7251392544409891,1.9827975362943102,1.0059963422552058,1.025619354943668,-1.3380175414980944,-1.6099319300643815,-0.3013152727596724,0.428264981501697,2.481039269077237,-0.8358520109865986,-4.006427828369158,0.03716116879753928,0.006955093875826712,-0.009885403832315953,-0.05726845796538704,0.019293509921636254,0.09247815887380995
0.636,0.40999625671838713,-1.726344459891277,1.9845105171370863,1.0159200411838512,1.022276101247801,-1.3540425129863,-1.6098472761001472,-0.30129942890197436,0.42824246233313934,2.480908810263638,-0.835808059944404,-4.0062171610783235,0.005165813323104729,0.0009668349523761499,-0.0013741804257005885,-0.007960948832430592,0.0026820111895253795,0.012855486539842254
0.64,0.40355690894049306,-1.727549649872205,1.9862234759929753,1.025843612737315,1.0189328904641128,-1.370067278786721,-1.6098906035577967,-0.3013075380800534,0.4282539880582914,2.4809755814865775,-0.8358305548970824,-4.006324984476839,-0.026829542146111773,-0.005021423991891094,0.007137042991323117,0.041346560310906444,-0.0139294875356466,-0.06676718579401442
0.644,0.39711713188992476,-1.7287549201959174,1.9879365490415526,1.0357678458357438,1.0155894568086243,-1.3860931128621148,-1.6100619124373161,-0.3013396002939095,0.4282995586770699,2.481239582746125,-0.8359194958446892,-4.006751298564676,-0.05882489761879772,-0.011009682918811103,0.0156482663771218,0.09065406944908094,-0.030540986271226922,-0.146389858117435
0.648,0.39067641364099454,-1.7299603666745562,1.9896498724623919,1.045693529399284,1.0122455344973553,-1.4021212891752384,-1.610361202738747,-0.3013956155434039,0.4283791741893084,2.48170081404217,-0.8360748827872522,-4.007496103341778,-0.09082025309320452,-0.016997941842261666,0.024159489762920483,0.13996157858037206,-0.047152485003337796,-0.226012530447961
0.652,0.3842342422680148,-1.7311660851202646,1.991363582435067,1.0556214523480811,1.0089008577463263,-1.418153081688849,-1.6107884744620617,-0.3014755838286476,0.4284928345951733,2.482359275374768,-0.8362967157247159,-4.008559398808259,-0.12281560856503004,-0.02298620078652891,0.03267071317647474,0.18926908772198825,-0.06376398373544867,-0.30563520278181766
0.656,0.37779010584529804,-1.7323721713451854,1.9930778151391533,1.065552403602282,1.0055551607715576,-1.4341897643657044,-1.6113437276072673,-0.3015795051496961,0.4286405398947202,2.483214966743946,-0.8365849946571358,-4.009941184964033,-0.15481096403685557,-0.028974459727326707,0.04118193659349845,0.23857659687054333,-0.08037548246582482,-0.3852578751121216
0.66,0.37134349244715664,-1.7335787211614622,1.9947927067542248,1.0754871720820327,1.0022081777890692,-1.4502326111685613,-1.6120269621743566,-0.3017073795064662,0.4288222900879213,2.4842678881497324,-0.8369397195844425,-4.011641461809156,-0.18680631950865334,-0.03496271864730782,0.04969315999317492,0.28788410601571224,-0.09698698118926208,-0.464880547449531
0.664,0.3648938901479032,-1.7347858303812371,1.9965083934598566,1.08542654670748,0.9988596430148821,-1.4662828960601777,-1.6128381781633365,-0.3018592068988746,0.4290380851746656,2.4855180395920717,-0.8373608905066499,-4.013660229343629,-0.21880167498222747,-0.04095097757769728,0.0582043833789736,0.33719161514000895,-0.11359847992310768,-0.5445032197765043
0.668,0.35844078702184995,-1.7359935948166532,1.9982250114356221,1.0953713163987693,0.995509290665016,-1.4823418930033103,-1.6137773755742144,-0.3020349873270878,0.42928792515495307,2.4869654210708525,-0.8378485074238273,-4.015997487567368,-0.25079703045319257,-0.046939236518495076,0.06671560678905841,0.38649912427118904,-0.13020997866042272,-0.6241258921034776
0.672,0.3519836711433095,-1.7372021102798538,1.9999426968610963,1.1053222700760468,0.9921568549554914,-1.4984108759607166,-1.614844554406962,-0.30223472079102254,0.42957181002897804,2.4886100325862412,-0.8384025703359332,-4.018653236480457,-0.28279238592410216,-0.052927495445415085,0.07522683020261267,0.43580663341979964,-0.14682147739426832,-0.7037485644373342
0.676,0.34552203058659425,-1.7384114725829813,2.001661585915854,1.1152801966594592,0.9888020701023286,-1.514491118895154,-1.6160397146616072,-0.3024584072906511,0.42988973979657397,2.490451874138211,-0.8390230792429815,-4.021627476082867,-0.31478774139939714,-0.05891575437580454,0.0837380535988197,0.48511414256491303,-0.16343297612290975,-0.7833712367677492
0.68,0.3390553534260166,-1.739621777538179,2.003381814779469,1.1252458850691525,0.9854446703215476,-1.5305838957693796,-1.6173628563381572,-0.302706046826029,0.4302417144577686,2.4924909457267606,-0.8397100341449165,-4.024920206374599,-0.34678309687297126,-0.06490401331313289,0.09224927700196561,0.5344216517030875,-0.18004447484461228,-0.8629939091017169
0.684,0.332583127735889,-1.7408331209575896,2.005103519631516,1.1352201242252733,0.9820843898291692,-1.5466904805461508,-1.618813979436591,-0.30297763939715616,0.4306277340125897,2.4947272473518356,-0.8404634350417384,-4.028531427355681,-0.3787784523430482,-0.07089227225046124,0.10076050040164208,0.583729160841262,-0.19665597357672315,-0.9426165814355736
0.6880000000000001,0.3261048415905239,-1.7420455986533563,2.0068268366515696,1.1452037030479671,0.9787209628412137,-1.562812147188225,-1.6203930839569016,-0.30327318500403266,0.43104779846098173,2.4971607790134907,-0.8412832819335303,-4.032461139026084,-0.41077380781573414,-0.07688053117738125,0.10927172380131855,0.6330366699759393,-0.21326747231924237,-1.0222392537624359
0.6920000000000001,0.3196199830642338,-1.7432593064376218,2.008551902019204,1.1551974104573812,0.975354123573701,-1.5789501696583594,-1.6221001698991169,-0.3035926836465752,0.43150190780300024,2.499791540711643,-0.8421695748202923,-4.03670934138578,-0.4427691632884201,-0.0828687901077707,0.11778294720793392,0.6823441791072304,-0.22987897105135324,-1.1018619260894091
0.6960000000000001,0.31312804023133095,-1.7444743401225289,2.0102788519139936,1.1652020353736603,0.9719836062426513,-1.5951058219193113,-1.623935237263209,-0.30393613532489483,0.4319900620386452,2.5026195324463485,-0.8431223137019411,-4.041276034434799,-0.47476451875502756,-0.0888570490485685,0.1262941706006715,0.7316516882557855,-0.2464904697747905,-1.1814845984163824
0.7000000000000001,0.3066285011661281,-1.745690795520221,2.012007822515513,1.175218366716952,0.9686091450640855,-1.6112803779338378,-1.625898286049157,-0.30430354003896376,0.4325122611678056,2.5056447542176894,-0.8441414985784906,-4.046161218173111,-0.5067598742294621,-0.09484530797895796,0.13480539400728686,0.7809591973974017,-0.26310196850516665,-1.2611072707466864
0.704,0.3001208539429377,-1.7469087684428406,2.013738950003336,1.1852471934074018,0.9652304742540234,-1.6274751116646962,-1.6279893162570447,-0.3046948977887265,0.4330685051907035,2.5088672060255277,-0.8452271294499825,-4.051364892600772,-0.538755229709087,-0.10083356690240852,0.14331661742778,0.8302667065321345,-0.27971346724074697,-1.3407299430875375
0.708,0.29360458663607175,-1.7481283547025308,2.0154723705570388,1.1952893043651562,0.9618473280284856,-1.643691297074644,-1.6302083278868298,-0.30511020857418303,0.43365879410722785,2.5122868878699465,-0.8463792063164166,-4.0568870577178116,-0.5707505851791639,-0.10682182583973687,0.1518278408205176,0.8795742156738062,-0.29632496597285785,-1.4203526154319412
0.712,0.28707918731984305,-1.749349650111434,2.017208220356194,1.2053454885103614,0.9584594406034921,-1.6599302081264387,-1.632555320938478,-0.3055494723954444,0.43428312791726764,2.515903799750918,-0.8475977291777653,-4.062727713524228,-0.6012908769009451,-0.11253775467762184,0.15995199639101676,0.9266393503210013,-0.312181017880081,-1.4963542601942326
0.716,0.2805441440685639,-1.7505727504816944,2.018946635580377,1.2154165347631636,0.9550665461950635,-1.6761931187828378,-1.6350186549020373,-0.306010510611604,0.434938410078356,2.5197000026725145,-0.8488766544594573,-4.068857891799365,-0.639406977806678,-0.11967157388312333,0.1700914258537245,0.9853794382501113,-0.33197031393782106,-1.5912088341674124
0.72,0.27399903808062676,-1.751797734196327,2.0206877276368207,1.2255030885317415,0.9516684273678164,-1.6924810712608336,-1.6376705767609314,-0.3065068449865094,0.43564385932409744,2.523786835256919,-0.8502534916892679,-4.075457384197567,-0.6706970071840845,-0.12552782380215177,0.17841502240184548,1.0335999810866525,-0.3482156181577184,-1.669076253353663
0.724,0.2674427794544765,-1.7530248052415864,2.0224317864549697,1.235606829445219,0.9482645182615493,-1.7087967778564184,-1.64038423095951,-0.3070147332020212,0.43636573025757075,2.5279688025212077,-0.851662379404719,-4.082210501826195,-0.6644380696561314,-0.12435639946614674,0.17675005527240106,1.023954436761565,-0.34496607360934295,-1.6535004510389584
0.728,0.2608759642329507,-1.754253852061943,2.0241786534788813,1.2457268389519112,0.9448551283325787,-1.7251387552754431,-1.6429860813181805,-0.30750169618223855,0.43705785976627665,2.5319784707510116,-0.8530132202781426,-4.088685387805879,-0.6370083047010644,-0.11922263762342844,0.16945334441881288,0.9816828831013535,-0.3307249595817241,-1.5852395689498477
0.732,0.25429889080393103,-1.7554848188110443,2.0259282493331,1.255862657211227,0.9414404124993242,-1.7415062609588654,-1.6454802973971185,-0.30796851430300864,0.43772135701292125,2.5358222655860185,-0.8543081790813728,-4.0948924183777935,-0.6059700711044669,-0.11341351384766551,0.1611967291523242,0.933850378539991,-0.31461038387838036,-1.5079987611202883
0.736,0.24771212185377373,-1.7567176001763671,2.0276804243349846,1.2660134170765993,0.9380206628999277,-1.7578978946224655,-1.6478338418870162,-0.3084090042930199,0.43834743359949524,2.5394492737793315,-0.8555301033491697,-4.100749377894841,-0.5708021738413394,-0.10683148117876518,0.1518415641416082,0.8796537181061659,-0.29635175001659075,-1.4204809974035504
0.74,0.2411162200688349,-1.7579520908453885,2.029435028801896,1.2761782514014617,0.9345961716725308,-1.7743122559820241,-1.6500467147878493,-0.30882316615243877,0.4389360895260541,2.542859495330868,-0.8566789930815055,-4.106256266357022,-0.535634276575131,-0.10024944853068152,0.14248639912395333,0.8254570576689546,-0.2780931161513317,-1.3329632336834818
0.744,0.23451174813547093,-1.7591881855055866,2.031191913051193,1.2863562930392463,0.9311672309552756,-1.7907479447533217,-1.6521189160996173,-0.3092109998812653,0.43948732479248687,2.546052930240683,-0.8577548482783803,-4.111413083764309,-0.500466379309783,-0.09366741585831173,0.13313123410629846,0.7712603972420684,-0.25983448229301154,-1.2454454699530881
0.748,0.22789926874003796,-1.7604257788444386,2.0329509274002358,1.2965466748433871,0.9277341328863038,-1.8072035606521386,-1.6540504458223275,-0.30957250547930526,0.4400011393989045,2.5490295785088044,-0.8587576689398496,-4.116219830116647,-0.46529848204535096,-0.0870853831755336,0.12377606908864358,0.7170637368151822,-0.2415758484364261,-1.1579277062294668
0.752,0.2212793445688923,-1.761664765549421,2.0347119221663843,1.3067485296673167,0.9242971696037569,-1.8236777033942548,-1.65584130395598,-0.3099076829466696,0.440477533345196,2.5517894401352046,-0.8596874550658717,-4.120676505414145,-0.43013058478133526,-0.08050335051357216,0.1144209040709887,0.6628670763918487,-0.2233172145746365,-1.0704099425058455
0.756,0.21465253830839012,-1.762905040308012,2.0364747476669973,1.3169609903644688,0.9208566332457768,-1.8401689726954518,-1.6574914905005782,-0.31021653228341384,0.4409165066314724,2.554332515119939,-0.8605442066564467,-4.124783109656693,-0.3949626875155432,-0.07392131785161071,0.10506573906027272,0.6086704159649625,-0.20505858071284688,-0.9828921787718992
0.76,0.20801941264488769,-1.7641464978076884,2.038239254219436,1.3271831897882762,0.9174128159505053,-1.8566759682715084,-1.6590010054561044,-0.3104990534894825,0.4413180592576782,2.5566588034629243,-0.8613279237115745,-4.12853964284432,-0.359794790250223,-0.06733928518271037,0.09571057403567895,0.5544737555346346,-0.18679994685105727,-0.895374415058714
0.764,0.2013805302647413,-1.7653890327359278,2.0400052921410587,1.3374142607921722,0.9139660098560842,-1.8731972898382063,-1.66036984882258,-0.3107552465648755,0.44168219122375785,2.5587683051642163,-0.8620386062312552,-4.131946104977163,-0.3246268929862073,-0.06075725251727948,0.08635540902496297,0.5002770951078039,-0.16854131299447184,-0.8078566513420871
0.768,0.19473645385430705,-1.7666325397802074,2.041772711749226,1.34765333622959,0.9105165071006552,-1.8897315371113257,-1.661598020599994,-0.3109851115096207,0.4420089025298779,2.5606610202237867,-0.8626762542155303,-4.135002496055057,-0.28945899572088707,-0.05417521985184859,0.07700024401424699,0.4460804346912983,-0.15028267913615168,-0.7203388876081407
0.772,0.18808774609994133,-1.7678769136280048,2.0435413633612978,1.3578995489539625,0.90706459982236,-1.9062773098066468,-1.662685520788347,-0.3111886483236903,0.4422981931758718,2.5623369486417467,-0.8632408676643444,-4.137708816078028,-0.25429109845687137,-0.047593187176009355,0.06764507898271432,0.3918837742679093,-0.13202404527262734,-0.6328211238810777
0.776,0.18143496968800027,-1.769122048966797,2.045311097294633,1.368152031818724,0.9036105801593405,-1.92283320763995,-1.663632349387649,-0.3113658570070288,0.4425500631617396,2.56379609041793,-0.8637324465777113,-4.140065065046105,-0.21912320119238382,-0.04101115450363957,0.05828991396505945,0.33768711381682026,-0.11376541141083774,-0.5453033601610091
0.78,0.17477868730484014,-1.770367840484061,2.0470817638665917,1.378409917677306,0.9001547402497383,-1.9393978303270156,-1.6644385063978862,-0.3115167375597194,0.4427645124875923,2.565038445552281,-0.8641509909556311,-4.142071242959316,-0.18395530392617543,-0.03442912184167812,0.04893474896128236,0.28349045338649237,-0.09550677755078285,-0.4577855964409405
0.784,0.16811946163681718,-1.7716141828672747,2.048853213394534,1.3886723393831422,0.8966973722316954,-1.9559697775836244,-1.6651039918190584,-0.3116412899817622,0.4429415411534299,2.566064014045022,-0.8644965007981176,-4.143727349817633,-0.1487874066612993,-0.02784708917624723,0.03957958393668859,0.22929379297692565,-0.07724814369072797,-0.37026783271387753
0.788,0.16145785537028767,-1.7728609708039151,2.050625296195819,1.398938429789666,0.8932387682433534,-1.9725476491255567,-1.6656288056511765,-0.3117395142731294,0.4430811491590858,2.5668727958960966,-0.8647689761051569,-4.145033385621027,-0.11361950939772769,-0.02126505650734689,0.030224418919033713,0.17509713255353665,-0.05898950983414253,-0.28275006898337285
0.792,0.15479443119160777,-1.7741080989814597,2.0523978625878065,1.409207321750311,0.8897792204228542,-1.9891300446685927,-1.6660129478942403,-0.311811410433821,0.44318333650478214,2.5674647911054502,-0.8649684168767907,-4.1459893503695,-0.07845161213282381,-0.014683023838446552,0.020869253915256625,0.12090047211632537,-0.04073087597755709,-0.19523230526330426
0.796,0.14812975178713375,-1.7753554620873857,2.0541707628878574,1.4194781481185097,0.886319020908339,-2.0057155639285127,-1.6662564185482391,-0.311856978463837,0.44324810319040786,2.5678399996730272,-0.8650948231129774,-4.146595244063134,-0.04328371486747584,-0.00810099117301566,0.01151408888372396,0.06670381168599748,-0.02247224210535914,-0.10771454154667737
0.8,0.14146437984322185,-1.7766029548091704,2.05594384741333,1.4297500417476952,0.8828584618379504,-2.0223028066210977,-1.66635921761318,-0.3118762183632051,0.44327544921585194,2.567998421598938,-0.8651481948136336,-4.146851066701873,-0.008115817602155628,-0.0015189585075847667,0.0021589238660690846,0.012507151266050176,-0.004213608245304257,-0.020196777826497758
0.804,0.1347988780462283,-1.7778504718342913,2.057716966481584,1.4400221354913012,0.87939783534983,-2.0388903724621277,-1.6663213450890564,-0.31186913013189765,0.4432653745813364,2.5679400568831556,-0.8651285319789398,-4.146756818285746,0.027052079662720496,0.005063074168254467,-0.007196241144646898,-0.041689509160836025,0.014045025602607564,0.06732098590400692
0.808,0.1281338090825094,-1.7790979078502256,2.0594899704099805,1.4502935622027604,0.8759374335821188,-2.0554768611673837,-1.6661428009758783,-0.3118357137698591,0.44321787928669476,2.5676649055256515,-0.8650358346088127,-4.146312498814641,0.062219976926319864,0.011645106837154806,-0.01655140615536288,-0.09588616959116392,0.03230365946960134,0.154838749641395
0.812,0.12146973563842128,-1.7803451575444502,2.0612627095158778,1.4605634547355064,0.8724775486729595,-2.072060872452645,-1.6658235852736458,-0.3117759692772004,0.4431329633320935,2.5671729675264263,-0.864870102703183,-4.145518108288615,0.09738787419166783,0.01822713949911625,-0.025906571166078862,-0.1500828300249335,0.050562293333125674,0.24235651335102748
0.8160000000000001,0.11480722040032024,-1.7815921156044432,2.0630350341166372,1.4708309459429718,0.8690184727604934,-2.0886410060336926,-1.665363697982345,-0.31168989665386615,0.44301062671736613,2.566464242885452,-0.8646313362621477,-4.144373646707833,0.13255577145740438,0.02480917216801659,-0.035261736211489314,-0.2042794904483225,0.06882092718971111,0.3298742770676544
0.8200000000000001,0.10814682605456252,-1.7828386767176811,2.0648067945296167,1.48109516867859,0.8655604979828623,-2.1052158616263075,-1.6647631391019866,-0.3115774958998563,0.4428508694424016,2.5655387316028397,-0.8643195352856653,-4.142879114072073,0.16772366872208622,0.031391204833447484,-0.04461690122914419,-0.2584761508647726,0.087079561049766,0.41739204080515346
0.8240000000000001,0.10148911528750434,-1.784084735571642,2.0665778410721765,1.4913552557957945,0.862103916478208,-2.121784038946269,-1.6640219086325683,-0.31143876701519857,0.442653691507533,2.564396433678534,-0.8639346997737496,-4.141034510381392,0.20289156598526925,0.03797323750234782,-0.0539720662121046,-0.3126728112985422,0.10533819490982088,0.5049098045356581
0.8280000000000001,0.09483465078550198,-1.7853301868538027,2.068348024061677,1.5016103401480183,0.8586490203846723,-2.1383441377093586,-1.6631400065741044,-0.3112737099998375,0.44241909291270476,2.5630373491124514,-0.8634768297263867,-4.138839835635788,0.2380594632523103,0.04455527017471761,-0.06332723123669837,-0.3668694717393062,0.12359682877334521,0.5924275682592794
0.8320000000000001,0.08818399523491151,-1.7865749252516407,2.070117193815478,1.5118595545886941,0.855196101840397,-2.1548947576313555,-1.6621174329265498,-0.31108232485380083,0.4421470736576394,2.5614614779046194,-0.8629459251435628,-4.1362950898353175,0.2732273605191293,0.05113730284361795,-0.07268239627516992,-0.4210661321626952,0.14185546263166537,0.6799453319827897
0.836,0.08153771132208958,-1.7878188454526331,2.071885200650938,1.5221020319712553,0.8517454529835238,-2.171434498428041,-1.6609541876899514,-0.31086461157708856,0.4418376337425034,2.55966882005515,-0.8623419860253334,-4.133400272979926,0.2563005260635687,0.047969272165548915,-0.068179615550501,-0.39498046965069644,0.13306730932069466,0.6378217245611717
0.84,0.0748963617333919,-1.7890618421442575,2.073651894885418,1.5323369051491353,0.8482973659521943,-2.187961959815195,-1.6600670287180412,-0.31069857067647644,0.4416016367332354,2.558301634147414,-0.8618813866689973,-4.131192516038828,0.08315510049430874,0.015563329923418134,-0.022120449257034824,-0.12814893965085172,0.04317285512249469,0.2069372639010858
0.844,0.06825717509234525,-1.790304434018045,2.075418013744804,1.5425684450444346,0.8448504018901718,-2.2044840385563518,-1.660288946885997,-0.3107401049377012,0.4416606701484471,2.558643628537943,-0.8619966031843534,-4.131744774868717,-0.16323999459902372,-0.030552039238795903,0.04342417959241063,0.25156643539830936,-0.08475170608715499,-0.40623410522278025
0.848,0.06161405015830392,-1.791547762983759,2.0771851802466057,1.5528060541774389,0.8414013931267195,-2.2210159180141447,-1.6613729486748334,-0.3109429869903868,0.44194903016997467,2.5603141656306003,-0.8625594003176945,-4.13444238888061,-0.2746370404138887,-0.051401138890377895,0.07305739133101063,0.4232385663535676,-0.14258734685503038,-0.6834534186581642
0.852,0.05496619150294658,-1.792791977913968,2.0789536059861637,1.5630509583694794,0.8379499266876302,-2.2375595776673967,-1.662486043209308,-0.31115131404882423,0.4422451292790952,2.5620295370687716,-0.8631373019591937,-4.137212402217982,-0.2606896849861873,-0.04879074827490726,0.06934719477130757,0.40174452933111615,-0.13534609344043047,-0.6487444524846397
0.856,0.04831416181262946,-1.7940369734961497,2.0807231412808385,1.573302290473989,0.8344962947110459,-2.2541136172318885,-1.663458466154723,-0.31133331297658606,0.4425038077281451,2.5635281218652493,-0.863642169065218,-4.1396323445004874,-0.2255217877212834,-0.04220871560600692,0.059992029746713804,0.34754786890428546,-0.11708745957690614,-0.5612266887611295
0.86,0.041658523773708794,-1.7952826444177807,2.082493636447989,1.5835591833444014,0.8310407893351085,-2.2706766364234006,-1.6642902175110783,-0.3114889837736723,0.4427250655170689,2.564809920020006,-0.8640740016358089,-4.141702215728071,-0.1903538904562685,-0.03562668294057603,0.05063686473599782,0.29335120847739926,-0.0988288257203207,-0.4737089250237414
0.864,0.03499984007254083,-1.796528885366339,2.084264941804975,1.593820769834149,0.8275837026979594,-2.287247234957713,-1.664981297278373,-0.31161832644011067,0.4429089026460331,2.5658749315330684,-0.8644327996709805,-4.143422015900677,-0.1551859931915034,-0.029044650271675687,0.041281699732220734,0.23915454804707137,-0.08057019186200054,-0.3861911612931257
0.868,0.02833867339548181,-1.7977755910293016,2.086036907669157,1.604086182796666,0.8241253269377407,-2.303824012550606,-1.6655317054566103,-0.3117213409758457,0.4430553191149267,2.5667231564043824,-0.864718563170705,-4.144791745018416,-0.12001809592709911,-0.0224626175993059,0.03192653470068807,0.18495788760980458,-0.06231155800021093,-0.2986733975834932
0.872,0.02167558642888795,-1.7990226560941458,2.0878093843578944,1.6143545550853842,0.8206659541925938,-2.3204055689178604,-1.6659414420457899,-0.3117980273809051,0.4431643149236386,2.567354594633947,-0.8649312921349822,-4.145811403081345,-0.08485019866250054,-0.015880584933875008,0.022571369669155406,0.13076122718641559,-0.0440529241366866,-0.21115563387386072
0.876,0.01501114185911549,-1.8002699752483489,2.0895822221885463,1.6246250195537375,0.8172058766006608,-2.3369905037752567,-1.6662105070459103,-0.3118483856553167,0.4432358900722799,2.5677692462218737,-0.8650709865637984,-4.146480990089407,-0.049682301397319106,-0.009298552261505222,0.013216204658439423,0.07656456676302659,-0.025794290276631715,-0.12363787013636163
0.88,0.008345902372520666,-1.8015174431793883,2.0913552714784727,1.6348967090551592,0.8137453863000834,-2.3535774168385757,-1.6663389004569684,-0.31187241579899716,0.44327004456090613,2.567967111168051,-0.8651376464571953,-4.146800506042436,-0.014514404132109915,-0.0027165195926048824,0.003861039661601229,0.022367906332698695,-0.007535656420046277,-0.03612010639886254
0.884,0.001680430655459743,-1.8027649545747408,2.0931283825450335,1.645168756443082,0.8102847754290032,-2.3701649078235962,-1.6663266222789672,-0.31187011781205753,0.44326677838957274,2.5679481894725353,-0.8651312718151588,-4.146769950940598,0.020653493132488654,0.003865513065887116,-0.005494125356053647,-0.0318287540871931,0.010722977440008608,0.05139765730388657
0.888,-0.0049847106057110705,-1.8040124041218848,2.0949014057055892,1.6554402945709394,0.8068243361255621,-2.3867515764461005,-1.6661736725119085,-0.31184149169447006,0.4432260915580577,2.5677124811353536,-0.8650518626376752,-4.146389324784005,0.05582139039705947,0.010447545731318009,-0.014849290387586311,-0.08602541450714041,0.028981611301798216,0.13891542102739685
0.892,-0.011648958724635526,-1.8052596865082966,2.096674191277498,1.6657104562921647,0.8033643605279018,-2.4033360224218683,-1.6658800511557907,-0.311786537446207,0.44314798406647204,2.567259986156478,-0.8648994189247444,-4.145658627572379,0.09098928766188008,0.017029578400218348,-0.024204455398302294,-0.1402220749409655,0.047240245163587824,0.2264331847786627
0.896,-0.018311751014957398,-1.8065066964214544,2.098446589578121,1.6759783744601913,0.7999051407741642,-2.4199168454666795,-1.6654457582106135,-0.3117052550672683,0.4430324559148713,2.566590704535826,-0.8646739406763665,-4.144577859305776,0.1261571849269505,0.02361161107605758,-0.03355962041595717,-0.19441873538167398,0.06549887902190799,0.313950948502284
0.9,-0.024972524790320434,-1.8077533285488347,2.100218450924817,1.6862431819284514,0.7964469690024909,-2.4364926452963145,-1.6648707936763751,-0.31159764455759853,0.4428795071031444,2.565704636273425,-0.8643754278925692,-4.143147019984361,0.16132508219190989,0.03019364374495792,-0.042914785433612046,-0.24861539580506298,0.08375751288022815,0.4014687121981497
0.904,-0.0316307173643684,-1.8089994775779152,2.101989625634946,1.6965040115503787,0.7929901373510236,-2.4530620216265544,-1.6641551575530782,-0.31146370591730865,0.4426891376314024,2.5646017813693853,-0.8640038805733247,-4.141366109608191,0.19649297945645294,0.036775676406919366,-0.05226995045126692,-0.3028120562215131,0.10201614674201775,0.4889864759146656
0.908,-0.03828576605074506,-1.8102450381961732,2.103759964025868,1.7067599961794064,0.7895349379579043,-2.46962357417318,-1.6632988498407235,-0.3113034391463432,0.44246134749953425,2.5632821398236527,-0.863559298718633,-4.139235128177043,0.2316608767211903,0.043357709075819706,-0.0616251154689218,-0.357008716651841,0.12027478060380736,0.5765042396590481
0.912,-0.04493710816309419,-1.811489905091086,2.1055293164149425,1.7170102686689679,0.7860816629612746,-2.4861759026519707,-1.6623018705393087,-0.3111168442447021,0.442196136707651,2.5617457116361706,-0.8630416823284942,-4.136754075690918,0.2668287739861497,0.049939741744720045,-0.07098028047963778,-0.41120537708910776,0.13853341446386225,0.6640220033826694
0.916,-0.05158418101505953,-1.8127339729501308,2.1072975331195294,1.7272539618724958,0.7826306044992763,-2.5027176067787074,-1.6611642196488343,-0.3109039212123854,0.44189350525569715,2.55999249680694,-0.8624510314029221,-4.133922952149982,0.30199667125124785,0.056521774413620385,-0.08033544550423155,-0.46540203751249676,0.15679204832565186,0.7515397670992963
0.92,-0.05822642192028486,-1.813977136460785,2.109064464456988,1.7374902086434234,0.7791820547100512,-2.5192472862691706,-1.6598858971692987,-0.31066467004939313,0.44155345314361716,2.5580224953360706,-0.861787345941889,-4.130741757554124,0.337164568516235,0.06310380707905128,-0.08969061052188643,-0.5195986979358858,0.17505068218744146,0.839057530829801
0.924,-0.06486326819241392,-1.815219290310526,2.1108299607446783,1.7477181418351844,0.7757363057317412,-2.5357635408391404,-1.6584669031007044,-0.310399090755753,0.44117598037152206,2.5558357072234528,-0.8610506259454226,-4.127210491903344,0.3723324657799454,0.06968583974795162,-0.09904577553260241,-0.5737953583662136,0.19330931604229218,0.9265752945603056
0.928,-0.0714941571450905,-1.816460329186831,2.11259387229996,1.757936894301211,0.7722936497024878,-2.5522649702043974,-1.6569072374430591,-0.3101071833314095,0.44076108693935634,2.553432132469141,-0.8602408714135507,-4.123329155197641,0.40750036304443293,0.0762678724203214,-0.10840094054331839,-0.6279920187896026,0.21156794990061234,1.014093058283927
0.932,-0.07811852609195839,-1.8177001477771773,2.114356049440193,1.7681455988949375,0.7688543787604328,-2.5687501740807215,-1.655206900196349,-0.30978894777639043,0.4403087728471755,2.550811771073136,-0.8593580823462177,-4.119097747437072,0.4426682603110299,0.08284990508228285,-0.11775610556097327,-0.6821886792199305,0.22982658376413667,1.1016108220005538
0.936,-0.08473581234666129,-1.8189386407690422,2.1161163424827376,1.7783433884697961,0.7654187850437181,-2.585217752183894,-1.6533658913605709,-0.30944438409075126,0.43981903809486855,2.5479746230353815,-0.8584022587434376,-4.114516268621637,0.4778361575763501,0.08943193775118319,-0.12711127059250593,-0.7363853396433195,0.24808521762592628,1.1891285857170697
0.9400000000000001,-0.09134545322284296,-1.8201757028499033,2.117874601744952,1.7885293958792206,0.7619871606904853,-2.6016663042296946,-1.6513842109357382,-0.30907349227438097,0.43929188268243546,2.5449206883559894,-0.8573734006052103,-4.109584718751336,0.5130040548401993,0.09601397042702242,-0.1364664356101608,-0.7905820000701502,0.2663438514877159,1.276646349440691
0.9440000000000001,-0.0979468860341472,-1.8214112287072373,2.119630677544197,1.798702753976644,0.7585597978388764,-2.6180944299339046,-1.6492618589218493,-0.3086762723273351,0.43872730660998727,2.5416499670348203,-0.8562715079315358,-4.1043030978261115,0.5481719521033546,0.10259600308551442,-0.1458216006139379,-0.8447786605074725,0.2846024853443013,1.36416411317819
0.9480000000000001,-0.10453954809421775,-1.822645113028522,2.121384420197832,1.8088625956154991,0.755136988627033,-2.6345007290123035,-1.6469988353189113,-0.30825272424969685,0.43812530987752396,2.5381624590719296,-0.8550965807224559,-4.09867140584591,0.5833398493677866,0.10917803574400642,-0.15517676562465388,-0.8989753209308615,0.3028611192026215,1.4516818769085837
0.9520000000000001,-0.11112287671669849,-1.8238772505012348,2.1231356800232173,1.8190080536492195,0.7517190251930967,-2.650883801180672,-1.644595140126907,-0.307802848041383,0.43748589248499004,2.5344581644673734,-0.8538486189779149,-4.092689642810843,0.6185077466378808,0.1157600684233151,-0.16453193064924765,-0.9531719813576922,0.32111975306961527,1.5391996406252106
0.9560000000000001,-0.11769630921523301,-1.825107535812853,2.124884307337712,1.829138260931238,0.7483061996752097,-2.66724224615479,-1.6420507733458083,-0.30732664370231033,0.43680905443233,2.530537083221068,-0.852527622697899,-4.0863578087209085,0.5965646853864082,0.11165319946382368,-0.15869476167884589,-0.9193558953290992,0.3097272516013744,1.4845928031429478
0.96,-0.12425928290346495,-1.8263358636508533,2.126630152458676,1.839252350314988,0.7448988042115136,-2.683574663650439,-1.6398226226438157,-0.30690962244567244,0.43621633439155927,2.5271033173047406,-0.8513708009651039,-4.080812900385699,0.36961179422298485,0.06917663816427555,-0.09832203788640026,-0.5696025767685797,0.19189678502132268,0.9198047137352061
0.964,-0.13081489019638354,-1.8275628127924184,2.1283740380128444,1.849355087469676,0.7414952332674889,-2.699888749357876,-1.6390938789920244,-0.3067732305969961,0.4360224781292388,2.5259802626069194,-0.8509924484177284,-4.078999371011027,-0.024374011384969974,-0.004561846223688493,0.006483836578752289,0.03756238277019541,-0.012654613558427119,-0.06065642631225554
0.968,-0.13737203393540115,-1.8287900494956293,2.13011833228371,1.8594601924158434,0.7380908646241717,-2.7162066586185274,-1.6400176147348955,-0.30694611721546194,0.4362682050841893,2.527403816366902,-0.8514720378735713,-4.081298151796197,-0.2787564939851217,-0.05217213688152311,0.07415322506032496,0.4295869876109748,-0.14472610408017283,-0.6937049660191708
0.972,-0.1439350311142627,-1.830018381730142,2.131864183653518,1.8695743180006112,0.7346834569645003,-2.7325391345722454,-1.6413239309439054,-0.3071906076920483,0.4366157039297214,2.5294169585078072,-0.8521502572503697,-4.08454901073918,-0.2873181142583059,-0.05377453192456638,0.07643073882818152,0.44278115793328077,-0.1491711662544165,-0.7150111548601679
0.976,-0.1505026253829524,-1.8312475743571657,2.1336112579151476,1.8796955280839058,0.7312736625661688,-2.748883050704441,-1.642316159648962,-0.3073763134708585,0.43687965099481474,2.5309460656303684,-0.8526654072036066,-4.087018241035079,-0.20879623826913773,-0.03907835748051536,0.055542793725438244,0.3217724033541258,-0.10840381036054947,-0.519603993089035
0.98,-0.1570735603914544,-1.832477392237909,2.1353592208614764,1.8898218865256542,0.7278621337068715,-2.765235280500526,-1.6429943008500585,-0.30750323455189243,0.4370600462795249,2.5319911377346402,-0.8530174877332541,-4.0887058426838925,-0.13027436227996958,-0.024382183036464333,0.034654848636572755,0.20076364878190978,-0.06763645447015187,-0.32419683131801325
0.984,-0.16364657978975286,-1.8337076002335808,2.137107738285384,1.899951457185783,0.7244495226643027,-2.781592697445912,-1.6433583545472017,-0.3075713709351502,0.4371568897839073,2.5325521748206237,-0.8532064988393678,-4.089611815685623,-0.051752486292050426,-0.009686008599352203,0.013766903547707265,0.07975489420969373,-0.02686909858495845,-0.12878966954710247
0.988,-0.170220427227832,-1.8349379632053902,2.1388564759797477,1.9100823039242192,0.7210364817161565,-2.797952175026011,-1.643408320740395,-0.30758072262068725,0.43717018150790654,2.532629176888318,-0.8532324405219338,-4.089736160040269,0.026769389696701396,0.005010165837759928,-0.007121041548097118,-0.041253860366019524,0.013898257305439143,0.06661749222391933
0.992,-0.17679384635567602,-1.8361682460145463,2.140605099737447,1.9202124906008895,0.7176236631401273,-2.814310586726234,-1.643144199429628,-0.3075312896084481,0.43709992145152254,2.5322221439376955,-0.8530953127809243,-4.089078875747831,0.10529126568628588,0.019706340278341505,-0.028008986650840395,-0.16226261494167726,0.05466561319757146,0.26202465399505215
0.996,-0.18336558082326904,-1.8373982135222577,2.14235327535136,1.9303400810757207,0.7142117192139091,-2.8306648060319937,-1.6425659906149046,-0.3074230718984605,0.4369461096146998,2.5313310759687844,-0.8527951156163532,-4.087639962808309,0.18381314167459362,0.034402514715453636,-0.048896931760522566,-0.2832713695242739,0.09543296908623433,0.45743181575907954
1.0,-0.18993437428059526,-1.838627630589734,2.1441006686143647,1.9404631392086398,0.7108013022151964,-2.8470117064287006,-1.6416736942962313,-0.3072560694907245,0.43670874599743836,2.5299559729815013,-0.8523318490282344,-4.085419421221759,0.2623350176620409,0.04909868915603521,-0.06978487686326584,-0.40428012410342884,0.13620032497663193,0.6528389775231069
1.004,-0.1964989703776389,-1.8398562620781835,2.1458469453193394,1.9505797288595728,0.7073930644216833,-2.8633481614017677,-1.6404673104736083,-0.30703028238521224,0.4363878305997937,2.528096834975957,-0.8517055130165402,-4.082417250988124,0.34085689365079275,0.06379486360008624,-0.09067282196600912,-0.5252888786687615,0.17696768086876424,0.8482461393081175
1.008,-0.20305811276438412,-1.8410838728488157,2.147591771259163,1.9606879138884474,0.7039876581110641,-2.8796710444366056,-1.638946839147025,-0.3067457105819238,0.4359833634217103,2.5257536619521512,-0.8509161075812843,-4.078633452107294,0.4193787696408491,0.07849103804066782,-0.1115607670618135,-0.6462976332479164,0.21773503675742711,1.0436533010791393
1.012,-0.2096105450908151,-1.842310227762839,2.149334812226713,1.97078575815519,0.700585735561033,-2.895977229018626,-1.6371122803164815,-0.3064023540808869,0.4354953444632992,2.5229264539099736,-0.8499636327224808,-4.074068024579491,0.4979006456296009,0.09318721247777995,-0.1324487121437401,-0.7673063878339548,0.25850239264609,1.2390604628361723
1.016,-0.21615501100691598,-1.8435350916814628,2.1510757340148694,1.9808713255197272,0.6971879490492843,-2.9122635886332415,-1.6349636339819882,-0.30600021288210155,0.43492377372456037,2.5196152108494796,-0.8488480884401156,-4.068720968404604,0.5764225216174923,0.10788338692183097,-0.15333665724648338,-0.8883151424061708,0.2992697485364876,1.434467624621072
1.02,-0.222690254162671,-1.8447582294658957,2.1528142024165096,1.9909426798419858,0.6937949508535121,-2.928526996765863,-1.6325009001435415,-0.30553928698551225,0.4342686512053273,2.5158199327707242,-0.8475694747341889,-4.062592283582522,0.6549443976066882,0.12257956136241255,-0.17422460234922665,-1.0093238969749452,0.3400371044286199,1.6298747863922047
1.024,-0.2292150182080643,-1.8459794059773469,2.154549883224512,2.000997884981893,0.6904073932514108,-2.9447643269019017,-1.6297240788011347,-0.30501957639120225,0.43352997690576656,2.51154061967368,-0.8461277916046867,-4.055681970113467,0.7334662735962727,0.13727573579952468,-0.19511254743809214,-1.1303326515541001,0.38080446031728277,1.8252819481423543
1.028,-0.23572804679308007,-1.8471983860770254,2.1562824422317557,2.0110350047993752,0.6870259285206746,-2.9609724525267707,-1.6266331699547714,-0.30444108109911605,0.4327077508258226,2.5067772715582914,-0.8445230390516506,-4.0479900279973835,0.8119881495850245,0.1519719102435757,-0.21600049254777431,-1.251341406133255,0.42157181620594564,2.020689109913376
1.032,-0.24222808356770248,-1.8484149346261398,2.1580115452311186,2.0210521031543593,0.6836512089389976,-2.9771482471258808,-1.6232281736044545,-0.30380380110925365,0.43180197296538436,2.501529888424614,-0.8427552170750391,-4.03951645723416,0.8905100255724718,0.16666808468415728,-0.23688843765745649,-1.37235016071241,0.4623391720998127,2.2160962716982757
1.036,-0.2487138721819157,-1.8496288164858994,2.1597368580154788,2.031047243906772,0.6802838867840743,-2.993288584184644,-1.6195090897501916,-0.3031077364216428,0.4308126433245629,2.495798470272592,-0.8408243256748521,-4.030261257823797,0.969031901559475,0.1813642591212694,-0.257776382746322,-1.493358915284626,0.5031065279867408,2.4115034334692975
1.04,-0.255184156285704,-1.850839796517513,2.161458046377715,2.04101849091654,0.6769246143335987,-3.009390337188471,-1.6154759183919787,-0.3023528870362835,0.4297397619034138,2.489583017102337,-0.8387303648511452,-4.020224429766405,1.0475537775495591,0.19606043355838154,-0.27866432783518746,-1.614367669856842,0.543873883873669,2.606910595233436
1.044,-0.26163767952905154,-1.8520476395821897,2.163174776110706,2.050963908043591,0.6735740438652651,-3.025450379622775,-1.6111286595297951,-0.30153925295317574,0.4285833287018814,2.4828835289137374,-0.8364733346038628,-4.00940597306193,1.1260756535404481,0.21075660799896312,-0.29955227293793074,-1.735376424442936,0.5846412397692707,2.8023177570112856
1.048,-0.2680731855619424,-1.8532521105411384,2.16488671300733,2.06088155914785,0.6702328276567678,-3.0414655849729666,-1.606467313163655,-0.3006668341722918,0.42734334371991034,2.4757000057067935,-0.834053234932991,-3.997805887710315,1.2045975295287559,0.2254527824395447,-0.3204402180476129,-1.856385179015152,0.6254085956596683,2.9977249187823074
1.052,-0.2744894180343608,-1.854452974255568,2.1665935228604654,2.070769508089245,0.6669016179858012,-3.0574328267244577,-1.601491879293565,-0.2997356306936594,0.4260198069575005,2.468032447481616,-0.8314700658385854,-3.9854241737116713,1.283119405516231,0.24014895688012627,-0.3413281631503562,-1.9773939335804291,0.6661759515448618,3.193132080539507
1.056,-0.2808851205962909,-1.8556499955866876,2.16829487146299,2.080625818727703,0.6635810671300592,-3.07334897836266,-1.5962023579195252,-0.2987456425172508,0.4246127184147075,2.45988085423815,-0.8287238273206321,-3.972260831065999,1.3616412815036782,0.2548451313241773,-0.3622161082392217,-2.098402688152645,0.7069433074352593,3.388539242296651
1.06,-0.287259036897717,-1.856842939395706,2.169990424607783,2.0904485549231504,0.6602718273672361,-3.0892109133729857,-1.5905987490415356,-0.29769686964306596,0.42312207809158675,2.451245225976395,-0.8258145193791033,-3.958315859773298,1.4401631574937068,0.2695413057647589,-0.38310405332808717,-2.219411442738739,0.7477106633291264,3.5839464040815505
1.064,-0.2936099105886232,-1.8580315705438322,2.171679848087723,2.100235780535514,0.6569745509750263,-3.1050155052408464,-1.5846810526595756,-0.2965893120711327,0.4215478859880828,2.44212556269624,-0.8227421420139991,-3.9435892598333466,1.5186850334846236,0.284237480201871,-0.40399199843083045,-2.3404201973317718,0.788478019219524,3.779353565873389
1.068,-0.2999364853189936,-1.859215653892275,2.1733628076956877,2.1099855594247203,0.6536898902311241,-3.1207596274516525,-1.5784492687736587,-0.295422969801451,0.4198901421041401,2.432521864397741,-0.8195066952253471,-3.928081031246311,1.5972069094712105,0.2989336546424526,-0.4248799435335737,-2.461428951903988,0.8292453751047174,3.974760727630533
1.072,-0.30623750473881245,-1.8603949543022438,2.175038969224556,2.119695955450696,0.6504184974132236,-3.136440153490817,-1.571903397383806,-0.2941978428339931,0.4181488464398142,2.4224341310810082,-0.8161081790131614,-3.9117911740123024,1.6757287854586578,0.3136298290865036,-0.445767888636317,-2.582437706469265,0.8700127309933803,4.170167889387677
1.076,-0.31251171249806403,-1.861569236634947,2.176707998467206,2.1293650324733684,0.6471610247990188,-3.152053956843751,-1.5650434384899894,-0.29291393116875897,0.41632399899504957,2.4118623627459868,-0.8125465933774001,-3.8947196881312096,1.754250661448714,0.32832600353055463,-0.4666558337321214,-2.70344646104842,0.910780086888982,4.36557505115176
1.08,-0.31875785224673236,-1.8627382657515938,2.1783695612165164,2.138990854352664,0.6439181246662044,-3.1675979109958665,-1.5578693920922162,-0.29157123480574865,0.41441559976995723,2.400806559392621,-0.8088219383180495,-3.8768665736030883,1.722895379927314,0.3271130145990342,-0.46040757530757537,-2.637505122943251,0.9075185787438267,4.27085413827466
1.084,-0.32497466763480176,-1.863901806513393,2.180023323265366,2.1485714849485094,0.6406904492924744,-3.1830688894325756,-1.5512602754505709,-0.2902970270519667,0.41264073839258897,2.3907623217624407,-0.8052864447474495,-3.8605528550250123,1.2817051928794565,0.26701723315758485,-0.353148582203644,-1.8725205201131079,0.7413111242169507,3.0923338441846138
1.088,-0.33116793445033693,-1.8650606419680096,2.181670687123657,2.1581169529267634,0.6374758331082248,-3.1984823338360666,-1.5476157505491805,-0.28943509694048797,0.4115904111123281,2.385826395231716,-0.8028914493243139,-3.8521279028496114,0.45460372465055965,0.15023329471772207,-0.15021668096221186,-0.45400143052626296,0.41819499360488954,0.8977346364208438
1.092,-0.3373555936391952,-1.866217287288917,2.1833160465542645,2.167658096110363,0.6342673176978799,-3.2138859126553725,-1.5476234456533664,-0.2890951606942249,0.4114390049448913,2.3871303103182306,-0.8019408847986104,-3.8533709779336456,-0.139130778275931,0.06365529159335637,-0.0033083103687103765,0.5538937743534977,0.17857145677077635,-0.6678171915117104
1.096,-0.34354892201556386,-1.8673734032535634,2.184962199163216,2.1772139954093093,0.6310603060298359,-3.229309301659536,-1.548728796775388,-0.2889258546077411,0.4115639446293784,2.390257545426544,-0.8014628776701477,-3.857470440381705,-0.19835134161103052,0.05156827697153088,0.012896195694667156,0.6413603450064476,0.14501967042154784,-0.8115946704273513
1.1,-0.3497454240133983,-1.8685286941257788,2.1866085581112995,2.1867801564737754,0.6278556146765187,-3.244745676178426,-1.5492102563862546,-0.28868261447845267,0.4115421745104486,2.3922611930782822,-0.800780727435238,-3.8598637352970644,-0.04237846382235122,0.07005178768310083,-0.02378125518731622,0.36046348086266056,0.19605544703156508,-0.38505278725231573
1.104,-0.3559426040666539,-1.869682864169391,2.1882545365593,2.1963520849539355,0.624654060210354,-3.2601882115419123,-1.5490678244859668,-0.2883654403062763,0.41137369458787987,2.3931412532734453,-0.7998944340938952,-3.8605508626797236,0.1135944139671885,0.08853529839467078,-0.06045870607623849,0.07956661671193466,0.24709122364505176,0.04148909591578098
